(G-CODE GENERATED BY FLATCAM v8.994 - www.flatcam.org - Version Date: 2020/11/7)

(Name: central-PTH.drl_edit_cnc)
(Type: G-code from Geometry)
(Units: MM)

(Created on Monday, 12 January 2026 at 15:26)

(This preprocessor is the default preprocessor used by FlatCAM.)
(It is made to work with MACH3 compatible motion controllers.)


(TOOLS DIAMETER: )
(Tool: 1 -> Dia: 1.0)

(FEEDRATE Z: )
(Tool: 1 -> Feedrate: 150.0)

(FEEDRATE RAPIDS: )
(Tool: 1 -> Feedrate Rapids: 1500)

(Z_CUT: )
(Tool: 1 -> Z_Cut: -3.0)

(Tools Offset: )
(Tool: 1 -> Offset Z: 0.0)

(Z_MOVE: )
(Tool: 1 -> Z_Move: 5.0)

(Z Toolchange: 15 mm)
(X,Y Toolchange: 0.0000, 0.0000 mm)
(Z Start: None mm)
(Z End: 5.0 mm)
(X,Y End: 0.0000, 120.0000 mm)
(Steps per circle: 64)
(Preprocessor Excellon: default)

(X range:   37.5290 ...  180.1720  mm)
(Y range:   16.9480 ...   94.4450  mm)

(Spindle Speed: 2000 RPM)
G21
G90
G94

G01 F150.00

M5
G00 Z15.0000
T1
G00 X0.0000 Y0.0000                
M6
(MSG, Change to Tool Dia = 1.0000 ||| Total drills for tool T1 = 150)
M0
G00 Z15.0000

G01 F150.00
M03 S2000
G00 X49.8540 Y85.8800
G01 Z-3.0000
G01 Z0
G00 Z5.0000
G00 X49.8540 Y83.3400
G01 Z-3.0000
G01 Z0
G00 Z5.0000
G00 X49.8540 Y80.8000
G01 Z-3.0000
G01 Z0
G00 Z5.0000
G00 X49.8540 Y78.2600
G01 Z-3.0000
G01 Z0
G00 Z5.0000
G00 X40.3200 Y63.1000
G01 Z-3.0000
G01 Z0
G00 Z5.0000
G00 X50.2480 Y57.7450
G01 Z-3.0000
G01 Z0
G00 Z5.0000
G00 X50.2480 Y52.6650
G01 Z-3.0000
G01 Z0
G00 Z5.0000
G00 X40.3200 Y53.1000
G01 Z-3.0000
G01 Z0
G00 Z5.0000
G00 X38.0290 Y40.0660
G01 Z-3.0000
G01 Z0
G00 Z5.0000
G00 X44.0290 Y42.0660
G01 Z-3.0000
G01 Z0
G00 Z5.0000
G00 X50.0290 Y40.0660
G01 Z-3.0000
G01 Z0
G00 Z5.0000
G00 X53.9610 Y40.0660
G01 Z-3.0000
G01 Z0
G00 Z5.0000
G00 X59.9610 Y42.0660
G01 Z-3.0000
G01 Z0
G00 Z5.0000
G00 X65.9610 Y40.0660
G01 Z-3.0000
G01 Z0
G00 Z5.0000
G00 X69.8920 Y40.0660
G01 Z-3.0000
G01 Z0
G00 Z5.0000
G00 X75.8920 Y42.0660
G01 Z-3.0000
G01 Z0
G00 Z5.0000
G00 X81.8920 Y40.0660
G01 Z-3.0000
G01 Z0
G00 Z5.0000
G00 X86.7810 Y40.0710
G01 Z-3.0000
G01 Z0
G00 Z5.0000
G00 X92.7810 Y42.0710
G01 Z-3.0000
G01 Z0
G00 Z5.0000
G00 X98.7810 Y40.0710
G01 Z-3.0000
G01 Z0
G00 Z5.0000
G00 X102.7130 Y40.0710
G01 Z-3.0000
G01 Z0
G00 Z5.0000
G00 X108.7130 Y42.0710
G01 Z-3.0000
G01 Z0
G00 Z5.0000
G00 X114.7130 Y40.0710
G01 Z-3.0000
G01 Z0
G00 Z5.0000
G00 X118.6440 Y40.0710
G01 Z-3.0000
G01 Z0
G00 Z5.0000
G00 X124.6440 Y42.0710
G01 Z-3.0000
G01 Z0
G00 Z5.0000
G00 X130.6440 Y40.0710
G01 Z-3.0000
G01 Z0
G00 Z5.0000
G00 X135.5330 Y40.0750
G01 Z-3.0000
G01 Z0
G00 Z5.0000
G00 X141.5330 Y42.0750
G01 Z-3.0000
G01 Z0
G00 Z5.0000
G00 X147.5330 Y40.0750
G01 Z-3.0000
G01 Z0
G00 Z5.0000
G00 X151.4650 Y40.0750
G01 Z-3.0000
G01 Z0
G00 Z5.0000
G00 X157.4650 Y42.0750
G01 Z-3.0000
G01 Z0
G00 Z5.0000
G00 X163.4650 Y40.0750
G01 Z-3.0000
G01 Z0
G00 Z5.0000
G00 X167.3960 Y40.0750
G01 Z-3.0000
G01 Z0
G00 Z5.0000
G00 X167.3960 Y27.8750
G01 Z-3.0000
G01 Z0
G00 Z5.0000
G00 X163.4650 Y27.8750
G01 Z-3.0000
G01 Z0
G00 Z5.0000
G00 X151.4650 Y27.8750
G01 Z-3.0000
G01 Z0
G00 Z5.0000
G00 X147.5330 Y27.8750
G01 Z-3.0000
G01 Z0
G00 Z5.0000
G00 X135.5330 Y27.8750
G01 Z-3.0000
G01 Z0
G00 Z5.0000
G00 X130.6440 Y27.8710
G01 Z-3.0000
G01 Z0
G00 Z5.0000
G00 X118.6440 Y27.8710
G01 Z-3.0000
G01 Z0
G00 Z5.0000
G00 X114.7130 Y27.8710
G01 Z-3.0000
G01 Z0
G00 Z5.0000
G00 X102.7130 Y27.8710
G01 Z-3.0000
G01 Z0
G00 Z5.0000
G00 X98.7810 Y27.8710
G01 Z-3.0000
G01 Z0
G00 Z5.0000
G00 X86.7810 Y27.8710
G01 Z-3.0000
G01 Z0
G00 Z5.0000
G00 X81.8920 Y27.8660
G01 Z-3.0000
G01 Z0
G00 Z5.0000
G00 X69.8920 Y27.8660
G01 Z-3.0000
G01 Z0
G00 Z5.0000
G00 X65.9610 Y27.8660
G01 Z-3.0000
G01 Z0
G00 Z5.0000
G00 X53.9610 Y27.8660
G01 Z-3.0000
G01 Z0
G00 Z5.0000
G00 X50.0290 Y27.8660
G01 Z-3.0000
G01 Z0
G00 Z5.0000
G00 X38.0290 Y27.8660
G01 Z-3.0000
G01 Z0
G00 Z5.0000
G00 X39.0020 Y17.4480
G01 Z-3.0000
G01 Z0
G00 Z5.0000
G00 X44.0020 Y17.4480
G01 Z-3.0000
G01 Z0
G00 Z5.0000
G00 X49.0020 Y17.4480
G01 Z-3.0000
G01 Z0
G00 Z5.0000
G00 X54.9330 Y17.4480
G01 Z-3.0000
G01 Z0
G00 Z5.0000
G00 X59.9330 Y17.4480
G01 Z-3.0000
G01 Z0
G00 Z5.0000
G00 X64.9330 Y17.4480
G01 Z-3.0000
G01 Z0
G00 Z5.0000
G00 X70.8650 Y17.4480
G01 Z-3.0000
G01 Z0
G00 Z5.0000
G00 X75.8650 Y17.4480
G01 Z-3.0000
G01 Z0
G00 Z5.0000
G00 X80.8650 Y17.4480
G01 Z-3.0000
G01 Z0
G00 Z5.0000
G00 X87.7540 Y17.4520
G01 Z-3.0000
G01 Z0
G00 Z5.0000
G00 X92.7540 Y17.4520
G01 Z-3.0000
G01 Z0
G00 Z5.0000
G00 X97.7540 Y17.4520
G01 Z-3.0000
G01 Z0
G00 Z5.0000
G00 X103.6850 Y17.4520
G01 Z-3.0000
G01 Z0
G00 Z5.0000
G00 X108.6850 Y17.4520
G01 Z-3.0000
G01 Z0
G00 Z5.0000
G00 X113.6850 Y17.4520
G01 Z-3.0000
G01 Z0
G00 Z5.0000
G00 X119.6170 Y17.4520
G01 Z-3.0000
G01 Z0
G00 Z5.0000
G00 X124.6170 Y17.4520
G01 Z-3.0000
G01 Z0
G00 Z5.0000
G00 X129.6170 Y17.4520
G01 Z-3.0000
G01 Z0
G00 Z5.0000
G00 X136.5060 Y17.4570
G01 Z-3.0000
G01 Z0
G00 Z5.0000
G00 X141.5060 Y17.4570
G01 Z-3.0000
G01 Z0
G00 Z5.0000
G00 X146.5060 Y17.4570
G01 Z-3.0000
G01 Z0
G00 Z5.0000
G00 X152.4370 Y17.4570
G01 Z-3.0000
G01 Z0
G00 Z5.0000
G00 X157.4370 Y17.4570
G01 Z-3.0000
G01 Z0
G00 Z5.0000
G00 X162.4370 Y17.4570
G01 Z-3.0000
G01 Z0
G00 Z5.0000
G00 X168.3690 Y17.4570
G01 Z-3.0000
G01 Z0
G00 Z5.0000
G00 X173.3690 Y17.4570
G01 Z-3.0000
G01 Z0
G00 Z5.0000
G00 X178.3690 Y17.4570
G01 Z-3.0000
G01 Z0
G00 Z5.0000
G00 X179.3960 Y27.8750
G01 Z-3.0000
G01 Z0
G00 Z5.0000
G00 X179.3960 Y40.0750
G01 Z-3.0000
G01 Z0
G00 Z5.0000
G00 X173.3960 Y42.0750
G01 Z-3.0000
G01 Z0
G00 Z5.0000
G00 X175.1160 Y52.3970
G01 Z-3.0000
G01 Z0
G00 Z5.0000
G00 X175.1160 Y57.4770
G01 Z-3.0000
G01 Z0
G00 Z5.0000
G00 X159.2870 Y52.5720
G01 Z-3.0000
G01 Z0
G00 Z5.0000
G00 X159.2870 Y57.6520
G01 Z-3.0000
G01 Z0
G00 Z5.0000
G00 X157.6080 Y66.8670
G01 Z-3.0000
G01 Z0
G00 Z5.0000
G00 X157.6080 Y74.4670
G01 Z-3.0000
G01 Z0
G00 Z5.0000
G00 X168.9870 Y85.5920
G01 Z-3.0000
G01 Z0
G00 Z5.0000
G00 X171.5270 Y85.5920
G01 Z-3.0000
G01 Z0
G00 Z5.0000
G00 X174.0670 Y85.5920
G01 Z-3.0000
G01 Z0
G00 Z5.0000
G00 X176.6070 Y85.5920
G01 Z-3.0000
G01 Z0
G00 Z5.0000
G00 X179.6720 Y93.9450
G01 Z-3.0000
G01 Z0
G00 Z5.0000
G00 X176.6020 Y91.2350
G01 Z-3.0000
G01 Z0
G00 Z5.0000
G00 X174.1020 Y91.2350
G01 Z-3.0000
G01 Z0
G00 Z5.0000
G00 X172.1020 Y91.2350
G01 Z-3.0000
G01 Z0
G00 Z5.0000
G00 X169.6020 Y91.2350
G01 Z-3.0000
G01 Z0
G00 Z5.0000
G00 X166.5320 Y93.9450
G01 Z-3.0000
G01 Z0
G00 Z5.0000
G00 X160.9160 Y92.4500
G01 Z-3.0000
G01 Z0
G00 Z5.0000
G00 X155.9160 Y92.4500
G01 Z-3.0000
G01 Z0
G00 Z5.0000
G00 X147.3580 Y85.8880
G01 Z-3.0000
G01 Z0
G00 Z5.0000
G00 X147.3580 Y83.3480
G01 Z-3.0000
G01 Z0
G00 Z5.0000
G00 X147.3580 Y80.8080
G01 Z-3.0000
G01 Z0
G00 Z5.0000
G00 X147.3580 Y78.2680
G01 Z-3.0000
G01 Z0
G00 Z5.0000
G00 X137.8240 Y63.1090
G01 Z-3.0000
G01 Z0
G00 Z5.0000
G00 X147.7520 Y57.7540
G01 Z-3.0000
G01 Z0
G00 Z5.0000
G00 X147.7520 Y52.6740
G01 Z-3.0000
G01 Z0
G00 Z5.0000
G00 X137.8240 Y53.1090
G01 Z-3.0000
G01 Z0
G00 Z5.0000
G00 X126.3640 Y52.3920
G01 Z-3.0000
G01 Z0
G00 Z5.0000
G00 X126.3640 Y57.4720
G01 Z-3.0000
G01 Z0
G00 Z5.0000
G00 X120.2350 Y85.5880
G01 Z-3.0000
G01 Z0
G00 Z5.0000
G00 X122.7750 Y85.5880
G01 Z-3.0000
G01 Z0
G00 Z5.0000
G00 X125.3150 Y85.5880
G01 Z-3.0000
G01 Z0
G00 Z5.0000
G00 X127.8550 Y85.5880
G01 Z-3.0000
G01 Z0
G00 Z5.0000
G00 X130.9200 Y93.9410
G01 Z-3.0000
G01 Z0
G00 Z5.0000
G00 X127.8500 Y91.2310
G01 Z-3.0000
G01 Z0
G00 Z5.0000
G00 X125.3500 Y91.2310
G01 Z-3.0000
G01 Z0
G00 Z5.0000
G00 X123.3500 Y91.2310
G01 Z-3.0000
G01 Z0
G00 Z5.0000
G00 X120.8500 Y91.2310
G01 Z-3.0000
G01 Z0
G00 Z5.0000
G00 X117.7800 Y93.9410
G01 Z-3.0000
G01 Z0
G00 Z5.0000
G00 X112.1640 Y92.4460
G01 Z-3.0000
G01 Z0
G00 Z5.0000
G00 X107.1640 Y92.4460
G01 Z-3.0000
G01 Z0
G00 Z5.0000
G00 X98.6060 Y85.8840
G01 Z-3.0000
G01 Z0
G00 Z5.0000
G00 X98.6060 Y83.3440
G01 Z-3.0000
G01 Z0
G00 Z5.0000
G00 X98.6060 Y80.8040
G01 Z-3.0000
G01 Z0
G00 Z5.0000
G00 X98.6060 Y78.2640
G01 Z-3.0000
G01 Z0
G00 Z5.0000
G00 X108.8560 Y74.4620
G01 Z-3.0000
G01 Z0
G00 Z5.0000
G00 X108.8560 Y66.8620
G01 Z-3.0000
G01 Z0
G00 Z5.0000
G00 X110.5350 Y57.6480
G01 Z-3.0000
G01 Z0
G00 Z5.0000
G00 X110.5350 Y52.5680
G01 Z-3.0000
G01 Z0
G00 Z5.0000
G00 X99.0000 Y57.7490
G01 Z-3.0000
G01 Z0
G00 Z5.0000
G00 X99.0000 Y52.6690
G01 Z-3.0000
G01 Z0
G00 Z5.0000
G00 X89.0720 Y53.1050
G01 Z-3.0000
G01 Z0
G00 Z5.0000
G00 X89.0720 Y63.1050
G01 Z-3.0000
G01 Z0
G00 Z5.0000
G00 X77.6120 Y57.4680
G01 Z-3.0000
G01 Z0
G00 Z5.0000
G00 X77.6120 Y52.3880
G01 Z-3.0000
G01 Z0
G00 Z5.0000
G00 X61.7830 Y52.5630
G01 Z-3.0000
G01 Z0
G00 Z5.0000
G00 X61.7830 Y57.6430
G01 Z-3.0000
G01 Z0
G00 Z5.0000
G00 X60.1040 Y66.8580
G01 Z-3.0000
G01 Z0
G00 Z5.0000
G00 X60.1040 Y74.4580
G01 Z-3.0000
G01 Z0
G00 Z5.0000
G00 X71.4830 Y85.5830
G01 Z-3.0000
G01 Z0
G00 Z5.0000
G00 X74.0230 Y85.5830
G01 Z-3.0000
G01 Z0
G00 Z5.0000
G00 X76.5630 Y85.5830
G01 Z-3.0000
G01 Z0
G00 Z5.0000
G00 X79.1030 Y85.5830
G01 Z-3.0000
G01 Z0
G00 Z5.0000
G00 X82.1680 Y93.9360
G01 Z-3.0000
G01 Z0
G00 Z5.0000
G00 X79.0980 Y91.2260
G01 Z-3.0000
G01 Z0
G00 Z5.0000
G00 X76.5980 Y91.2260
G01 Z-3.0000
G01 Z0
G00 Z5.0000
G00 X74.5980 Y91.2260
G01 Z-3.0000
G01 Z0
G00 Z5.0000
G00 X72.0980 Y91.2260
G01 Z-3.0000
G01 Z0
G00 Z5.0000
G00 X69.0280 Y93.9360
G01 Z-3.0000
G01 Z0
G00 Z5.0000
G00 X63.4120 Y92.4410
G01 Z-3.0000
G01 Z0
G00 Z5.0000
G00 X58.4120 Y92.4410
G01 Z-3.0000
G01 Z0
G00 Z5.0000
M05
G00 Z5.00
G00 X0.0 Y120.0


