(G-CODE GENERATED BY FLATCAM v8.994 - www.flatcam.org - Version Date: 2020/11/7)

(Name: central-F_Mask.gbr_edit_mt_paint_cnc)
(Type: G-code from Geometry)
(Units: MM)

(Created on Monday, 12 January 2026 at 12:32)

(This preprocessor is used with a motion controller loaded with GRBL firmware. )
(It is for the case when it is used together with a LASER connected on the SPINDLE connector.)

(Feedrate: 2000.0 mm/min)
(Feedrate rapids: 1500.0 mm/min)

(Z Focus: 2.0 mm)
(Steps per circle: 64)
(Preprocessor Geometry: GRBL_laser)

(X range:   21.9192 ...  166.4615  mm)
(Y range:   25.6480 ...  105.0451  mm)

(Laser Power - Spindle Speed: 40.0)

G21
G90
G17
G94

G01 F2000.00

M5
G01 F2000.00
G00 X22.8920 Y25.6480
G01 F60.00
M03 S40.0
G01 F2000.00
M7
G01 X22.8920 Y28.5479 F2000.00
G01 X25.7920 Y28.5479 F2000.00
G01 X25.7920 Y25.6480 F2000.00
G01 X22.8920 Y25.6480 F2000.00
G01 X22.9720 Y25.7280 F2000.00
G01 X22.9720 Y28.4679 F2000.00
G01 X25.7120 Y28.4679 F2000.00
G01 X25.7120 Y25.7280 F2000.00
G01 X22.9720 Y25.7280 F2000.00
G01 X23.0520 Y25.8080 F2000.00
G01 X23.0520 Y28.3879 F2000.00
G01 X25.6320 Y28.3879 F2000.00
G01 X25.6320 Y25.8080 F2000.00
G01 X23.0520 Y25.8080 F2000.00
G01 X23.1320 Y25.8880 F2000.00
G01 X23.1320 Y28.3079 F2000.00
G01 X25.5520 Y28.3079 F2000.00
G01 X25.5520 Y25.8880 F2000.00
G01 X23.1320 Y25.8880 F2000.00
G01 X23.2120 Y25.9680 F2000.00
G01 X23.2120 Y28.2279 F2000.00
G01 X25.4720 Y28.2279 F2000.00
G01 X25.4720 Y25.9680 F2000.00
G01 X23.2120 Y25.9680 F2000.00
G01 X23.2920 Y26.0480 F2000.00
G01 X23.2920 Y28.1479 F2000.00
G01 X25.3920 Y28.1479 F2000.00
G01 X25.3920 Y26.0480 F2000.00
G01 X23.2920 Y26.0480 F2000.00
G01 X23.3720 Y26.1280 F2000.00
G01 X23.3720 Y28.0679 F2000.00
G01 X25.3120 Y28.0679 F2000.00
G01 X25.3120 Y26.1280 F2000.00
G01 X23.3720 Y26.1280 F2000.00
G01 X23.4520 Y26.2080 F2000.00
G01 X23.4520 Y27.9879 F2000.00
G01 X25.2320 Y27.9879 F2000.00
G01 X25.2320 Y26.2080 F2000.00
G01 X23.4520 Y26.2080 F2000.00
G01 X23.5320 Y26.2880 F2000.00
G01 X23.5320 Y27.9079 F2000.00
G01 X25.1520 Y27.9079 F2000.00
G01 X25.1520 Y26.2880 F2000.00
G01 X23.5320 Y26.2880 F2000.00
G01 X23.6120 Y26.3680 F2000.00
G01 X23.6120 Y27.8279 F2000.00
G01 X25.0720 Y27.8279 F2000.00
G01 X25.0720 Y26.3680 F2000.00
G01 X23.6120 Y26.3680 F2000.00
G01 X23.6920 Y26.4480 F2000.00
G01 X23.6920 Y27.7479 F2000.00
G01 X24.9920 Y27.7479 F2000.00
G01 X24.9920 Y26.4480 F2000.00
G01 X23.6920 Y26.4480 F2000.00
G01 X23.7720 Y26.5280 F2000.00
G01 X23.7720 Y27.6679 F2000.00
G01 X24.9120 Y27.6679 F2000.00
G01 X24.9120 Y26.5280 F2000.00
G01 X23.7720 Y26.5280 F2000.00
G01 X23.8520 Y26.6080 F2000.00
G01 X23.8520 Y27.5879 F2000.00
G01 X24.8320 Y27.5879 F2000.00
G01 X24.8320 Y26.6080 F2000.00
G01 X23.8520 Y26.6080 F2000.00
G01 X23.9320 Y26.6880 F2000.00
G01 X23.9320 Y27.5079 F2000.00
G01 X24.7520 Y27.5079 F2000.00
G01 X24.7520 Y26.6880 F2000.00
G01 X23.9320 Y26.6880 F2000.00
G01 X24.0120 Y26.7680 F2000.00
G01 X24.0120 Y27.4279 F2000.00
G01 X24.6720 Y27.4279 F2000.00
G01 X24.6720 Y26.7680 F2000.00
G01 X24.0120 Y26.7680 F2000.00
G01 X24.0920 Y26.8480 F2000.00
G01 X24.0920 Y27.3479 F2000.00
G01 X24.5920 Y27.3479 F2000.00
G01 X24.5920 Y26.8480 F2000.00
G01 X24.0920 Y26.8480 F2000.00
G01 X24.1720 Y26.9280 F2000.00
G01 X24.1720 Y27.2679 F2000.00
G01 X24.5120 Y27.2679 F2000.00
G01 X24.5120 Y26.9280 F2000.00
G01 X24.1720 Y26.9280 F2000.00
G01 X24.2520 Y27.0080 F2000.00
G01 X24.2520 Y27.1879 F2000.00
G01 X24.4320 Y27.1879 F2000.00
G01 X24.4320 Y27.0080 F2000.00
G01 X24.2520 Y27.0080 F2000.00
G01 X24.3320 Y27.0880 F2000.00
G01 X24.3320 Y27.1079 F2000.00
G01 X24.3520 Y27.1079 F2000.00
G01 X24.3520 Y27.0880 F2000.00
G01 X24.3320 Y27.0880 F2000.00
M5
G00 X27.8920 Y25.6480
G01 F60.00
M03 S40.0
G01 F2000.00
G01 X27.8920 Y28.5479 F2000.00
G01 X30.7920 Y28.5479 F2000.00
G01 X30.7920 Y25.6480 F2000.00
G01 X27.8920 Y25.6480 F2000.00
G01 X27.9720 Y25.7280 F2000.00
G01 X27.9720 Y28.4679 F2000.00
G01 X30.7120 Y28.4679 F2000.00
G01 X30.7120 Y25.7280 F2000.00
G01 X27.9720 Y25.7280 F2000.00
G01 X28.0520 Y25.8080 F2000.00
G01 X28.0520 Y28.3879 F2000.00
G01 X30.6320 Y28.3879 F2000.00
G01 X30.6320 Y25.8080 F2000.00
G01 X28.0520 Y25.8080 F2000.00
G01 X28.1320 Y25.8880 F2000.00
G01 X28.1320 Y28.3079 F2000.00
G01 X30.5520 Y28.3079 F2000.00
G01 X30.5520 Y25.8880 F2000.00
G01 X28.1320 Y25.8880 F2000.00
G01 X28.2120 Y25.9680 F2000.00
G01 X28.2120 Y28.2279 F2000.00
G01 X30.4720 Y28.2279 F2000.00
G01 X30.4720 Y25.9680 F2000.00
G01 X28.2120 Y25.9680 F2000.00
G01 X28.2920 Y26.0480 F2000.00
G01 X28.2920 Y28.1479 F2000.00
G01 X30.3920 Y28.1479 F2000.00
G01 X30.3920 Y26.0480 F2000.00
G01 X28.2920 Y26.0480 F2000.00
G01 X28.3720 Y26.1280 F2000.00
G01 X28.3720 Y28.0679 F2000.00
G01 X30.3120 Y28.0679 F2000.00
G01 X30.3120 Y26.1280 F2000.00
G01 X28.3720 Y26.1280 F2000.00
G01 X28.4520 Y26.2080 F2000.00
G01 X28.4520 Y27.9879 F2000.00
G01 X30.2320 Y27.9879 F2000.00
G01 X30.2320 Y26.2080 F2000.00
G01 X28.4520 Y26.2080 F2000.00
G01 X28.5320 Y26.2880 F2000.00
G01 X28.5320 Y27.9079 F2000.00
G01 X30.1520 Y27.9079 F2000.00
G01 X30.1520 Y26.2880 F2000.00
G01 X28.5320 Y26.2880 F2000.00
G01 X28.6120 Y26.3680 F2000.00
G01 X28.6120 Y27.8279 F2000.00
G01 X30.0720 Y27.8279 F2000.00
G01 X30.0720 Y26.3680 F2000.00
G01 X28.6120 Y26.3680 F2000.00
G01 X28.6920 Y26.4480 F2000.00
G01 X28.6920 Y27.7479 F2000.00
G01 X29.9920 Y27.7479 F2000.00
G01 X29.9920 Y26.4480 F2000.00
G01 X28.6920 Y26.4480 F2000.00
G01 X28.7720 Y26.5280 F2000.00
G01 X28.7720 Y27.6679 F2000.00
G01 X29.9120 Y27.6679 F2000.00
G01 X29.9120 Y26.5280 F2000.00
G01 X28.7720 Y26.5280 F2000.00
G01 X28.8520 Y26.6080 F2000.00
G01 X28.8520 Y27.5879 F2000.00
G01 X29.8320 Y27.5879 F2000.00
G01 X29.8320 Y26.6080 F2000.00
G01 X28.8520 Y26.6080 F2000.00
G01 X28.9320 Y26.6880 F2000.00
G01 X28.9320 Y27.5079 F2000.00
G01 X29.7520 Y27.5079 F2000.00
G01 X29.7520 Y26.6880 F2000.00
G01 X28.9320 Y26.6880 F2000.00
G01 X29.0120 Y26.7680 F2000.00
G01 X29.0120 Y27.4279 F2000.00
G01 X29.6720 Y27.4279 F2000.00
G01 X29.6720 Y26.7680 F2000.00
G01 X29.0120 Y26.7680 F2000.00
G01 X29.0920 Y26.8480 F2000.00
G01 X29.0920 Y27.3479 F2000.00
G01 X29.5920 Y27.3479 F2000.00
G01 X29.5920 Y26.8480 F2000.00
G01 X29.0920 Y26.8480 F2000.00
G01 X29.1720 Y26.9280 F2000.00
G01 X29.1720 Y27.2679 F2000.00
G01 X29.5120 Y27.2679 F2000.00
G01 X29.5120 Y26.9280 F2000.00
G01 X29.1720 Y26.9280 F2000.00
G01 X29.2520 Y27.0080 F2000.00
G01 X29.2520 Y27.1879 F2000.00
G01 X29.4320 Y27.1879 F2000.00
G01 X29.4320 Y27.0080 F2000.00
G01 X29.2520 Y27.0080 F2000.00
G01 X29.3320 Y27.0880 F2000.00
G01 X29.3320 Y27.1079 F2000.00
G01 X29.3520 Y27.1079 F2000.00
G01 X29.3520 Y27.0880 F2000.00
G01 X29.3320 Y27.0880 F2000.00
M5
G00 X32.8920 Y25.6480
G01 F60.00
M03 S40.0
G01 F2000.00
G01 X32.8920 Y28.5479 F2000.00
G01 X35.7920 Y28.5479 F2000.00
G01 X35.7920 Y25.6480 F2000.00
G01 X32.8920 Y25.6480 F2000.00
G01 X32.9720 Y25.7280 F2000.00
G01 X32.9720 Y28.4679 F2000.00
G01 X35.7120 Y28.4679 F2000.00
G01 X35.7120 Y25.7280 F2000.00
G01 X32.9720 Y25.7280 F2000.00
G01 X33.0520 Y25.8080 F2000.00
G01 X33.0520 Y28.3879 F2000.00
G01 X35.6320 Y28.3879 F2000.00
G01 X35.6320 Y25.8080 F2000.00
G01 X33.0520 Y25.8080 F2000.00
G01 X33.1320 Y25.8880 F2000.00
G01 X33.1320 Y28.3079 F2000.00
G01 X35.5520 Y28.3079 F2000.00
G01 X35.5520 Y25.8880 F2000.00
G01 X33.1320 Y25.8880 F2000.00
G01 X33.2120 Y25.9680 F2000.00
G01 X33.2120 Y28.2279 F2000.00
G01 X35.4720 Y28.2279 F2000.00
G01 X35.4720 Y25.9680 F2000.00
G01 X33.2120 Y25.9680 F2000.00
G01 X33.2920 Y26.0480 F2000.00
G01 X33.2920 Y28.1479 F2000.00
G01 X35.3920 Y28.1479 F2000.00
G01 X35.3920 Y26.0480 F2000.00
G01 X33.2920 Y26.0480 F2000.00
G01 X33.3720 Y26.1280 F2000.00
G01 X33.3720 Y28.0679 F2000.00
G01 X35.3120 Y28.0679 F2000.00
G01 X35.3120 Y26.1280 F2000.00
G01 X33.3720 Y26.1280 F2000.00
G01 X33.4520 Y26.2080 F2000.00
G01 X33.4520 Y27.9879 F2000.00
G01 X35.2320 Y27.9879 F2000.00
G01 X35.2320 Y26.2080 F2000.00
G01 X33.4520 Y26.2080 F2000.00
G01 X33.5320 Y26.2880 F2000.00
G01 X33.5320 Y27.9079 F2000.00
G01 X35.1520 Y27.9079 F2000.00
G01 X35.1520 Y26.2880 F2000.00
G01 X33.5320 Y26.2880 F2000.00
G01 X33.6120 Y26.3680 F2000.00
G01 X33.6120 Y27.8279 F2000.00
G01 X35.0720 Y27.8279 F2000.00
G01 X35.0720 Y26.3680 F2000.00
G01 X33.6120 Y26.3680 F2000.00
G01 X33.6920 Y26.4480 F2000.00
G01 X33.6920 Y27.7479 F2000.00
G01 X34.9920 Y27.7479 F2000.00
G01 X34.9920 Y26.4480 F2000.00
G01 X33.6920 Y26.4480 F2000.00
G01 X33.7720 Y26.5280 F2000.00
G01 X33.7720 Y27.6679 F2000.00
G01 X34.9120 Y27.6679 F2000.00
G01 X34.9120 Y26.5280 F2000.00
G01 X33.7720 Y26.5280 F2000.00
G01 X33.8520 Y26.6080 F2000.00
G01 X33.8520 Y27.5879 F2000.00
G01 X34.8320 Y27.5879 F2000.00
G01 X34.8320 Y26.6080 F2000.00
G01 X33.8520 Y26.6080 F2000.00
G01 X33.9320 Y26.6880 F2000.00
G01 X33.9320 Y27.5079 F2000.00
G01 X34.7520 Y27.5079 F2000.00
G01 X34.7520 Y26.6880 F2000.00
G01 X33.9320 Y26.6880 F2000.00
G01 X34.0120 Y26.7680 F2000.00
G01 X34.0120 Y27.4279 F2000.00
G01 X34.6720 Y27.4279 F2000.00
G01 X34.6720 Y26.7680 F2000.00
G01 X34.0120 Y26.7680 F2000.00
G01 X34.0920 Y26.8480 F2000.00
G01 X34.0920 Y27.3479 F2000.00
G01 X34.5920 Y27.3479 F2000.00
G01 X34.5920 Y26.8480 F2000.00
G01 X34.0920 Y26.8480 F2000.00
G01 X34.1720 Y26.9280 F2000.00
G01 X34.1720 Y27.2679 F2000.00
G01 X34.5120 Y27.2679 F2000.00
G01 X34.5120 Y26.9280 F2000.00
G01 X34.1720 Y26.9280 F2000.00
G01 X34.2520 Y27.0080 F2000.00
G01 X34.2520 Y27.1879 F2000.00
G01 X34.4320 Y27.1879 F2000.00
G01 X34.4320 Y27.0080 F2000.00
G01 X34.2520 Y27.0080 F2000.00
G01 X34.3320 Y27.0880 F2000.00
G01 X34.3320 Y27.1079 F2000.00
G01 X34.3520 Y27.1079 F2000.00
G01 X34.3520 Y27.0880 F2000.00
G01 X34.3320 Y27.0880 F2000.00
M5
G00 X38.8234 Y25.6480
G01 F60.00
M03 S40.0
G01 F2000.00
G01 X38.8234 Y28.5479 F2000.00
G01 X41.7234 Y28.5479 F2000.00
G01 X41.7234 Y25.6480 F2000.00
G01 X38.8234 Y25.6480 F2000.00
G01 X38.9034 Y25.7280 F2000.00
G01 X38.9034 Y28.4679 F2000.00
G01 X41.6434 Y28.4679 F2000.00
G01 X41.6434 Y25.7280 F2000.00
G01 X38.9034 Y25.7280 F2000.00
G01 X38.9834 Y25.8080 F2000.00
G01 X38.9834 Y28.3879 F2000.00
G01 X41.5634 Y28.3879 F2000.00
G01 X41.5634 Y25.8080 F2000.00
G01 X38.9834 Y25.8080 F2000.00
G01 X39.0634 Y25.8880 F2000.00
G01 X39.0634 Y28.3079 F2000.00
G01 X41.4834 Y28.3079 F2000.00
G01 X41.4834 Y25.8880 F2000.00
G01 X39.0634 Y25.8880 F2000.00
G01 X39.1434 Y25.9680 F2000.00
G01 X39.1434 Y28.2279 F2000.00
G01 X41.4034 Y28.2279 F2000.00
G01 X41.4034 Y25.9680 F2000.00
G01 X39.1434 Y25.9680 F2000.00
G01 X39.2234 Y26.0480 F2000.00
G01 X39.2234 Y28.1479 F2000.00
G01 X41.3234 Y28.1479 F2000.00
G01 X41.3234 Y26.0480 F2000.00
G01 X39.2234 Y26.0480 F2000.00
G01 X39.3034 Y26.1280 F2000.00
G01 X39.3034 Y28.0679 F2000.00
G01 X41.2434 Y28.0679 F2000.00
G01 X41.2434 Y26.1280 F2000.00
G01 X39.3034 Y26.1280 F2000.00
G01 X39.3834 Y26.2080 F2000.00
G01 X39.3834 Y27.9879 F2000.00
G01 X41.1634 Y27.9879 F2000.00
G01 X41.1634 Y26.2080 F2000.00
G01 X39.3834 Y26.2080 F2000.00
G01 X39.4634 Y26.2880 F2000.00
G01 X39.4634 Y27.9079 F2000.00
G01 X41.0834 Y27.9079 F2000.00
G01 X41.0834 Y26.2880 F2000.00
G01 X39.4634 Y26.2880 F2000.00
G01 X39.5434 Y26.3680 F2000.00
G01 X39.5434 Y27.8279 F2000.00
G01 X41.0034 Y27.8279 F2000.00
G01 X41.0034 Y26.3680 F2000.00
G01 X39.5434 Y26.3680 F2000.00
G01 X39.6234 Y26.4480 F2000.00
G01 X39.6234 Y27.7479 F2000.00
G01 X40.9234 Y27.7479 F2000.00
G01 X40.9234 Y26.4480 F2000.00
G01 X39.6234 Y26.4480 F2000.00
G01 X39.7034 Y26.5280 F2000.00
G01 X39.7034 Y27.6679 F2000.00
G01 X40.8434 Y27.6679 F2000.00
G01 X40.8434 Y26.5280 F2000.00
G01 X39.7034 Y26.5280 F2000.00
G01 X39.7834 Y26.6080 F2000.00
G01 X39.7834 Y27.5879 F2000.00
G01 X40.7634 Y27.5879 F2000.00
G01 X40.7634 Y26.6080 F2000.00
G01 X39.7834 Y26.6080 F2000.00
G01 X39.8634 Y26.6880 F2000.00
G01 X39.8634 Y27.5079 F2000.00
G01 X40.6834 Y27.5079 F2000.00
G01 X40.6834 Y26.6880 F2000.00
G01 X39.8634 Y26.6880 F2000.00
G01 X39.9434 Y26.7680 F2000.00
G01 X39.9434 Y27.4279 F2000.00
G01 X40.6034 Y27.4279 F2000.00
G01 X40.6034 Y26.7680 F2000.00
G01 X39.9434 Y26.7680 F2000.00
G01 X40.0234 Y26.8480 F2000.00
G01 X40.0234 Y27.3479 F2000.00
G01 X40.5234 Y27.3479 F2000.00
G01 X40.5234 Y26.8480 F2000.00
G01 X40.0234 Y26.8480 F2000.00
G01 X40.1034 Y26.9280 F2000.00
G01 X40.1034 Y27.2679 F2000.00
G01 X40.4434 Y27.2679 F2000.00
G01 X40.4434 Y26.9280 F2000.00
G01 X40.1034 Y26.9280 F2000.00
G01 X40.1834 Y27.0080 F2000.00
G01 X40.1834 Y27.1879 F2000.00
G01 X40.3634 Y27.1879 F2000.00
G01 X40.3634 Y27.0080 F2000.00
G01 X40.1834 Y27.0080 F2000.00
G01 X40.2634 Y27.0880 F2000.00
G01 X40.2634 Y27.1079 F2000.00
G01 X40.2834 Y27.1079 F2000.00
G01 X40.2834 Y27.0880 F2000.00
G01 X40.2634 Y27.0880 F2000.00
M5
G00 X43.8234 Y25.6480
G01 F60.00
M03 S40.0
G01 F2000.00
G01 X43.8234 Y28.5479 F2000.00
G01 X46.7234 Y28.5479 F2000.00
G01 X46.7234 Y25.6480 F2000.00
G01 X43.8234 Y25.6480 F2000.00
G01 X43.9034 Y25.7280 F2000.00
G01 X43.9034 Y28.4679 F2000.00
G01 X46.6434 Y28.4679 F2000.00
G01 X46.6434 Y25.7280 F2000.00
G01 X43.9034 Y25.7280 F2000.00
G01 X43.9834 Y25.8080 F2000.00
G01 X43.9834 Y28.3879 F2000.00
G01 X46.5634 Y28.3879 F2000.00
G01 X46.5634 Y25.8080 F2000.00
G01 X43.9834 Y25.8080 F2000.00
G01 X44.0634 Y25.8880 F2000.00
G01 X44.0634 Y28.3079 F2000.00
G01 X46.4834 Y28.3079 F2000.00
G01 X46.4834 Y25.8880 F2000.00
G01 X44.0634 Y25.8880 F2000.00
G01 X44.1434 Y25.9680 F2000.00
G01 X44.1434 Y28.2279 F2000.00
G01 X46.4034 Y28.2279 F2000.00
G01 X46.4034 Y25.9680 F2000.00
G01 X44.1434 Y25.9680 F2000.00
G01 X44.2234 Y26.0480 F2000.00
G01 X44.2234 Y28.1479 F2000.00
G01 X46.3234 Y28.1479 F2000.00
G01 X46.3234 Y26.0480 F2000.00
G01 X44.2234 Y26.0480 F2000.00
G01 X44.3034 Y26.1280 F2000.00
G01 X44.3034 Y28.0679 F2000.00
G01 X46.2434 Y28.0679 F2000.00
G01 X46.2434 Y26.1280 F2000.00
G01 X44.3034 Y26.1280 F2000.00
G01 X44.3834 Y26.2080 F2000.00
G01 X44.3834 Y27.9879 F2000.00
G01 X46.1634 Y27.9879 F2000.00
G01 X46.1634 Y26.2080 F2000.00
G01 X44.3834 Y26.2080 F2000.00
G01 X44.4634 Y26.2880 F2000.00
G01 X44.4634 Y27.9079 F2000.00
G01 X46.0834 Y27.9079 F2000.00
G01 X46.0834 Y26.2880 F2000.00
G01 X44.4634 Y26.2880 F2000.00
G01 X44.5434 Y26.3680 F2000.00
G01 X44.5434 Y27.8279 F2000.00
G01 X46.0034 Y27.8279 F2000.00
G01 X46.0034 Y26.3680 F2000.00
G01 X44.5434 Y26.3680 F2000.00
G01 X44.6234 Y26.4480 F2000.00
G01 X44.6234 Y27.7479 F2000.00
G01 X45.9234 Y27.7479 F2000.00
G01 X45.9234 Y26.4480 F2000.00
G01 X44.6234 Y26.4480 F2000.00
G01 X44.7034 Y26.5280 F2000.00
G01 X44.7034 Y27.6679 F2000.00
G01 X45.8434 Y27.6679 F2000.00
G01 X45.8434 Y26.5280 F2000.00
G01 X44.7034 Y26.5280 F2000.00
G01 X44.7834 Y26.6080 F2000.00
G01 X44.7834 Y27.5879 F2000.00
G01 X45.7634 Y27.5879 F2000.00
G01 X45.7634 Y26.6080 F2000.00
G01 X44.7834 Y26.6080 F2000.00
G01 X44.8634 Y26.6880 F2000.00
G01 X44.8634 Y27.5079 F2000.00
G01 X45.6834 Y27.5079 F2000.00
G01 X45.6834 Y26.6880 F2000.00
G01 X44.8634 Y26.6880 F2000.00
G01 X44.9434 Y26.7680 F2000.00
G01 X44.9434 Y27.4279 F2000.00
G01 X45.6034 Y27.4279 F2000.00
G01 X45.6034 Y26.7680 F2000.00
G01 X44.9434 Y26.7680 F2000.00
G01 X45.0234 Y26.8480 F2000.00
G01 X45.0234 Y27.3479 F2000.00
G01 X45.5234 Y27.3479 F2000.00
G01 X45.5234 Y26.8480 F2000.00
G01 X45.0234 Y26.8480 F2000.00
G01 X45.1034 Y26.9280 F2000.00
G01 X45.1034 Y27.2679 F2000.00
G01 X45.4434 Y27.2679 F2000.00
G01 X45.4434 Y26.9280 F2000.00
G01 X45.1034 Y26.9280 F2000.00
G01 X45.1834 Y27.0080 F2000.00
G01 X45.1834 Y27.1879 F2000.00
G01 X45.3634 Y27.1879 F2000.00
G01 X45.3634 Y27.0080 F2000.00
G01 X45.1834 Y27.0080 F2000.00
G01 X45.2634 Y27.0880 F2000.00
G01 X45.2634 Y27.1079 F2000.00
G01 X45.2834 Y27.1079 F2000.00
G01 X45.2834 Y27.0880 F2000.00
G01 X45.2634 Y27.0880 F2000.00
M5
G00 X48.8234 Y25.6480
G01 F60.00
M03 S40.0
G01 F2000.00
G01 X48.8234 Y28.5479 F2000.00
G01 X51.7234 Y28.5479 F2000.00
G01 X51.7234 Y25.6480 F2000.00
G01 X48.8234 Y25.6480 F2000.00
G01 X48.9034 Y25.7280 F2000.00
G01 X48.9034 Y28.4679 F2000.00
G01 X51.6434 Y28.4679 F2000.00
G01 X51.6434 Y25.7280 F2000.00
G01 X48.9034 Y25.7280 F2000.00
G01 X48.9834 Y25.8080 F2000.00
G01 X48.9834 Y28.3879 F2000.00
G01 X51.5634 Y28.3879 F2000.00
G01 X51.5634 Y25.8080 F2000.00
G01 X48.9834 Y25.8080 F2000.00
G01 X49.0634 Y25.8880 F2000.00
G01 X49.0634 Y28.3079 F2000.00
G01 X51.4834 Y28.3079 F2000.00
G01 X51.4834 Y25.8880 F2000.00
G01 X49.0634 Y25.8880 F2000.00
G01 X49.1434 Y25.9680 F2000.00
G01 X49.1434 Y28.2279 F2000.00
G01 X51.4034 Y28.2279 F2000.00
G01 X51.4034 Y25.9680 F2000.00
G01 X49.1434 Y25.9680 F2000.00
G01 X49.2234 Y26.0480 F2000.00
G01 X49.2234 Y28.1479 F2000.00
G01 X51.3234 Y28.1479 F2000.00
G01 X51.3234 Y26.0480 F2000.00
G01 X49.2234 Y26.0480 F2000.00
G01 X49.3034 Y26.1280 F2000.00
G01 X49.3034 Y28.0679 F2000.00
G01 X51.2434 Y28.0679 F2000.00
G01 X51.2434 Y26.1280 F2000.00
G01 X49.3034 Y26.1280 F2000.00
G01 X49.3834 Y26.2080 F2000.00
G01 X49.3834 Y27.9879 F2000.00
G01 X51.1634 Y27.9879 F2000.00
G01 X51.1634 Y26.2080 F2000.00
G01 X49.3834 Y26.2080 F2000.00
G01 X49.4634 Y26.2880 F2000.00
G01 X49.4634 Y27.9079 F2000.00
G01 X51.0834 Y27.9079 F2000.00
G01 X51.0834 Y26.2880 F2000.00
G01 X49.4634 Y26.2880 F2000.00
G01 X49.5434 Y26.3680 F2000.00
G01 X49.5434 Y27.8279 F2000.00
G01 X51.0034 Y27.8279 F2000.00
G01 X51.0034 Y26.3680 F2000.00
G01 X49.5434 Y26.3680 F2000.00
G01 X49.6234 Y26.4480 F2000.00
G01 X49.6234 Y27.7479 F2000.00
G01 X50.9234 Y27.7479 F2000.00
G01 X50.9234 Y26.4480 F2000.00
G01 X49.6234 Y26.4480 F2000.00
G01 X49.7034 Y26.5280 F2000.00
G01 X49.7034 Y27.6679 F2000.00
G01 X50.8434 Y27.6679 F2000.00
G01 X50.8434 Y26.5280 F2000.00
G01 X49.7034 Y26.5280 F2000.00
G01 X49.7834 Y26.6080 F2000.00
G01 X49.7834 Y27.5879 F2000.00
G01 X50.7634 Y27.5879 F2000.00
G01 X50.7634 Y26.6080 F2000.00
G01 X49.7834 Y26.6080 F2000.00
G01 X49.8634 Y26.6880 F2000.00
G01 X49.8634 Y27.5079 F2000.00
G01 X50.6834 Y27.5079 F2000.00
G01 X50.6834 Y26.6880 F2000.00
G01 X49.8634 Y26.6880 F2000.00
G01 X49.9434 Y26.7680 F2000.00
G01 X49.9434 Y27.4279 F2000.00
G01 X50.6034 Y27.4279 F2000.00
G01 X50.6034 Y26.7680 F2000.00
G01 X49.9434 Y26.7680 F2000.00
G01 X50.0234 Y26.8480 F2000.00
G01 X50.0234 Y27.3479 F2000.00
G01 X50.5234 Y27.3479 F2000.00
G01 X50.5234 Y26.8480 F2000.00
G01 X50.0234 Y26.8480 F2000.00
G01 X50.1034 Y26.9280 F2000.00
G01 X50.1034 Y27.2679 F2000.00
G01 X50.4434 Y27.2679 F2000.00
G01 X50.4434 Y26.9280 F2000.00
G01 X50.1034 Y26.9280 F2000.00
G01 X50.1834 Y27.0080 F2000.00
G01 X50.1834 Y27.1879 F2000.00
G01 X50.3634 Y27.1879 F2000.00
G01 X50.3634 Y27.0080 F2000.00
G01 X50.1834 Y27.0080 F2000.00
G01 X50.2634 Y27.0880 F2000.00
G01 X50.2634 Y27.1079 F2000.00
G01 X50.2834 Y27.1079 F2000.00
G01 X50.2834 Y27.0880 F2000.00
G01 X50.2634 Y27.0880 F2000.00
M5
G00 X54.7548 Y25.6480
G01 F60.00
M03 S40.0
G01 F2000.00
G01 X54.7548 Y28.5479 F2000.00
G01 X57.6548 Y28.5479 F2000.00
G01 X57.6548 Y25.6480 F2000.00
G01 X54.7548 Y25.6480 F2000.00
G01 X54.8348 Y25.7280 F2000.00
G01 X54.8348 Y28.4679 F2000.00
G01 X57.5748 Y28.4679 F2000.00
G01 X57.5748 Y25.7280 F2000.00
G01 X54.8348 Y25.7280 F2000.00
G01 X54.9148 Y25.8080 F2000.00
G01 X54.9148 Y28.3879 F2000.00
G01 X57.4948 Y28.3879 F2000.00
G01 X57.4948 Y25.8080 F2000.00
G01 X54.9148 Y25.8080 F2000.00
G01 X54.9948 Y25.8880 F2000.00
G01 X54.9948 Y28.3079 F2000.00
G01 X57.4148 Y28.3079 F2000.00
G01 X57.4148 Y25.8880 F2000.00
G01 X54.9948 Y25.8880 F2000.00
G01 X55.0748 Y25.9680 F2000.00
G01 X55.0748 Y28.2279 F2000.00
G01 X57.3348 Y28.2279 F2000.00
G01 X57.3348 Y25.9680 F2000.00
G01 X55.0748 Y25.9680 F2000.00
G01 X55.1548 Y26.0480 F2000.00
G01 X55.1548 Y28.1479 F2000.00
G01 X57.2548 Y28.1479 F2000.00
G01 X57.2548 Y26.0480 F2000.00
G01 X55.1548 Y26.0480 F2000.00
G01 X55.2348 Y26.1280 F2000.00
G01 X55.2348 Y28.0679 F2000.00
G01 X57.1748 Y28.0679 F2000.00
G01 X57.1748 Y26.1280 F2000.00
G01 X55.2348 Y26.1280 F2000.00
G01 X55.3148 Y26.2080 F2000.00
G01 X55.3148 Y27.9879 F2000.00
G01 X57.0948 Y27.9879 F2000.00
G01 X57.0948 Y26.2080 F2000.00
G01 X55.3148 Y26.2080 F2000.00
G01 X55.3948 Y26.2880 F2000.00
G01 X55.3948 Y27.9079 F2000.00
G01 X57.0148 Y27.9079 F2000.00
G01 X57.0148 Y26.2880 F2000.00
G01 X55.3948 Y26.2880 F2000.00
G01 X55.4748 Y26.3680 F2000.00
G01 X55.4748 Y27.8279 F2000.00
G01 X56.9348 Y27.8279 F2000.00
G01 X56.9348 Y26.3680 F2000.00
G01 X55.4748 Y26.3680 F2000.00
G01 X55.5548 Y26.4480 F2000.00
G01 X55.5548 Y27.7479 F2000.00
G01 X56.8548 Y27.7479 F2000.00
G01 X56.8548 Y26.4480 F2000.00
G01 X55.5548 Y26.4480 F2000.00
G01 X55.6348 Y26.5280 F2000.00
G01 X55.6348 Y27.6679 F2000.00
G01 X56.7748 Y27.6679 F2000.00
G01 X56.7748 Y26.5280 F2000.00
G01 X55.6348 Y26.5280 F2000.00
G01 X55.7148 Y26.6080 F2000.00
G01 X55.7148 Y27.5879 F2000.00
G01 X56.6948 Y27.5879 F2000.00
G01 X56.6948 Y26.6080 F2000.00
G01 X55.7148 Y26.6080 F2000.00
G01 X55.7948 Y26.6880 F2000.00
G01 X55.7948 Y27.5079 F2000.00
G01 X56.6148 Y27.5079 F2000.00
G01 X56.6148 Y26.6880 F2000.00
G01 X55.7948 Y26.6880 F2000.00
G01 X55.8748 Y26.7680 F2000.00
G01 X55.8748 Y27.4279 F2000.00
G01 X56.5348 Y27.4279 F2000.00
G01 X56.5348 Y26.7680 F2000.00
G01 X55.8748 Y26.7680 F2000.00
G01 X55.9548 Y26.8480 F2000.00
G01 X55.9548 Y27.3479 F2000.00
G01 X56.4548 Y27.3479 F2000.00
G01 X56.4548 Y26.8480 F2000.00
G01 X55.9548 Y26.8480 F2000.00
G01 X56.0348 Y26.9280 F2000.00
G01 X56.0348 Y27.2679 F2000.00
G01 X56.3748 Y27.2679 F2000.00
G01 X56.3748 Y26.9280 F2000.00
G01 X56.0348 Y26.9280 F2000.00
G01 X56.1148 Y27.0080 F2000.00
G01 X56.1148 Y27.1879 F2000.00
G01 X56.2948 Y27.1879 F2000.00
G01 X56.2948 Y27.0080 F2000.00
G01 X56.1148 Y27.0080 F2000.00
G01 X56.1948 Y27.0880 F2000.00
G01 X56.1948 Y27.1079 F2000.00
G01 X56.2148 Y27.1079 F2000.00
G01 X56.2148 Y27.0880 F2000.00
G01 X56.1948 Y27.0880 F2000.00
M5
G00 X59.7548 Y25.6480
G01 F60.00
M03 S40.0
G01 F2000.00
G01 X59.7548 Y28.5479 F2000.00
G01 X62.6548 Y28.5479 F2000.00
G01 X62.6548 Y25.6480 F2000.00
G01 X59.7548 Y25.6480 F2000.00
G01 X59.8348 Y25.7280 F2000.00
G01 X59.8348 Y28.4679 F2000.00
G01 X62.5748 Y28.4679 F2000.00
G01 X62.5748 Y25.7280 F2000.00
G01 X59.8348 Y25.7280 F2000.00
G01 X59.9148 Y25.8080 F2000.00
G01 X59.9148 Y28.3879 F2000.00
G01 X62.4948 Y28.3879 F2000.00
G01 X62.4948 Y25.8080 F2000.00
G01 X59.9148 Y25.8080 F2000.00
G01 X59.9948 Y25.8880 F2000.00
G01 X59.9948 Y28.3079 F2000.00
G01 X62.4148 Y28.3079 F2000.00
G01 X62.4148 Y25.8880 F2000.00
G01 X59.9948 Y25.8880 F2000.00
G01 X60.0748 Y25.9680 F2000.00
G01 X60.0748 Y28.2279 F2000.00
G01 X62.3348 Y28.2279 F2000.00
G01 X62.3348 Y25.9680 F2000.00
G01 X60.0748 Y25.9680 F2000.00
G01 X60.1548 Y26.0480 F2000.00
G01 X60.1548 Y28.1479 F2000.00
G01 X62.2548 Y28.1479 F2000.00
G01 X62.2548 Y26.0480 F2000.00
G01 X60.1548 Y26.0480 F2000.00
G01 X60.2348 Y26.1280 F2000.00
G01 X60.2348 Y28.0679 F2000.00
G01 X62.1748 Y28.0679 F2000.00
G01 X62.1748 Y26.1280 F2000.00
G01 X60.2348 Y26.1280 F2000.00
G01 X60.3148 Y26.2080 F2000.00
G01 X60.3148 Y27.9879 F2000.00
G01 X62.0948 Y27.9879 F2000.00
G01 X62.0948 Y26.2080 F2000.00
G01 X60.3148 Y26.2080 F2000.00
G01 X60.3948 Y26.2880 F2000.00
G01 X60.3948 Y27.9079 F2000.00
G01 X62.0148 Y27.9079 F2000.00
G01 X62.0148 Y26.2880 F2000.00
G01 X60.3948 Y26.2880 F2000.00
G01 X60.4748 Y26.3680 F2000.00
G01 X60.4748 Y27.8279 F2000.00
G01 X61.9348 Y27.8279 F2000.00
G01 X61.9348 Y26.3680 F2000.00
G01 X60.4748 Y26.3680 F2000.00
G01 X60.5548 Y26.4480 F2000.00
G01 X60.5548 Y27.7479 F2000.00
G01 X61.8548 Y27.7479 F2000.00
G01 X61.8548 Y26.4480 F2000.00
G01 X60.5548 Y26.4480 F2000.00
G01 X60.6348 Y26.5280 F2000.00
G01 X60.6348 Y27.6679 F2000.00
G01 X61.7748 Y27.6679 F2000.00
G01 X61.7748 Y26.5280 F2000.00
G01 X60.6348 Y26.5280 F2000.00
G01 X60.7148 Y26.6080 F2000.00
G01 X60.7148 Y27.5879 F2000.00
G01 X61.6948 Y27.5879 F2000.00
G01 X61.6948 Y26.6080 F2000.00
G01 X60.7148 Y26.6080 F2000.00
G01 X60.7948 Y26.6880 F2000.00
G01 X60.7948 Y27.5079 F2000.00
G01 X61.6148 Y27.5079 F2000.00
G01 X61.6148 Y26.6880 F2000.00
G01 X60.7948 Y26.6880 F2000.00
G01 X60.8748 Y26.7680 F2000.00
G01 X60.8748 Y27.4279 F2000.00
G01 X61.5348 Y27.4279 F2000.00
G01 X61.5348 Y26.7680 F2000.00
G01 X60.8748 Y26.7680 F2000.00
G01 X60.9548 Y26.8480 F2000.00
G01 X60.9548 Y27.3479 F2000.00
G01 X61.4548 Y27.3479 F2000.00
G01 X61.4548 Y26.8480 F2000.00
G01 X60.9548 Y26.8480 F2000.00
G01 X61.0348 Y26.9280 F2000.00
G01 X61.0348 Y27.2679 F2000.00
G01 X61.3748 Y27.2679 F2000.00
G01 X61.3748 Y26.9280 F2000.00
G01 X61.0348 Y26.9280 F2000.00
G01 X61.1148 Y27.0080 F2000.00
G01 X61.1148 Y27.1879 F2000.00
G01 X61.2948 Y27.1879 F2000.00
G01 X61.2948 Y27.0080 F2000.00
G01 X61.1148 Y27.0080 F2000.00
G01 X61.1948 Y27.0880 F2000.00
G01 X61.1948 Y27.1079 F2000.00
G01 X61.2148 Y27.1079 F2000.00
G01 X61.2148 Y27.0880 F2000.00
G01 X61.1948 Y27.0880 F2000.00
M5
G00 X64.7548 Y25.6480
G01 F60.00
M03 S40.0
G01 F2000.00
G01 X64.7548 Y28.5479 F2000.00
G01 X67.6548 Y28.5479 F2000.00
G01 X67.6548 Y25.6480 F2000.00
G01 X64.7548 Y25.6480 F2000.00
G01 X64.8348 Y25.7280 F2000.00
G01 X64.8348 Y28.4679 F2000.00
G01 X67.5748 Y28.4679 F2000.00
G01 X67.5748 Y25.7280 F2000.00
G01 X64.8348 Y25.7280 F2000.00
G01 X64.9148 Y25.8080 F2000.00
G01 X64.9148 Y28.3879 F2000.00
G01 X67.4948 Y28.3879 F2000.00
G01 X67.4948 Y25.8080 F2000.00
G01 X64.9148 Y25.8080 F2000.00
G01 X64.9948 Y25.8880 F2000.00
G01 X64.9948 Y28.3079 F2000.00
G01 X67.4148 Y28.3079 F2000.00
G01 X67.4148 Y25.8880 F2000.00
G01 X64.9948 Y25.8880 F2000.00
G01 X65.0748 Y25.9680 F2000.00
G01 X65.0748 Y28.2279 F2000.00
G01 X67.3348 Y28.2279 F2000.00
G01 X67.3348 Y25.9680 F2000.00
G01 X65.0748 Y25.9680 F2000.00
G01 X65.1548 Y26.0480 F2000.00
G01 X65.1548 Y28.1479 F2000.00
G01 X67.2548 Y28.1479 F2000.00
G01 X67.2548 Y26.0480 F2000.00
G01 X65.1548 Y26.0480 F2000.00
G01 X65.2348 Y26.1280 F2000.00
G01 X65.2348 Y28.0679 F2000.00
G01 X67.1748 Y28.0679 F2000.00
G01 X67.1748 Y26.1280 F2000.00
G01 X65.2348 Y26.1280 F2000.00
G01 X65.3148 Y26.2080 F2000.00
G01 X65.3148 Y27.9879 F2000.00
G01 X67.0948 Y27.9879 F2000.00
G01 X67.0948 Y26.2080 F2000.00
G01 X65.3148 Y26.2080 F2000.00
G01 X65.3948 Y26.2880 F2000.00
G01 X65.3948 Y27.9079 F2000.00
G01 X67.0148 Y27.9079 F2000.00
G01 X67.0148 Y26.2880 F2000.00
G01 X65.3948 Y26.2880 F2000.00
G01 X65.4748 Y26.3680 F2000.00
G01 X65.4748 Y27.8279 F2000.00
G01 X66.9348 Y27.8279 F2000.00
G01 X66.9348 Y26.3680 F2000.00
G01 X65.4748 Y26.3680 F2000.00
G01 X65.5548 Y26.4480 F2000.00
G01 X65.5548 Y27.7479 F2000.00
G01 X66.8548 Y27.7479 F2000.00
G01 X66.8548 Y26.4480 F2000.00
G01 X65.5548 Y26.4480 F2000.00
G01 X65.6348 Y26.5280 F2000.00
G01 X65.6348 Y27.6679 F2000.00
G01 X66.7748 Y27.6679 F2000.00
G01 X66.7748 Y26.5280 F2000.00
G01 X65.6348 Y26.5280 F2000.00
G01 X65.7148 Y26.6080 F2000.00
G01 X65.7148 Y27.5879 F2000.00
G01 X66.6948 Y27.5879 F2000.00
G01 X66.6948 Y26.6080 F2000.00
G01 X65.7148 Y26.6080 F2000.00
G01 X65.7948 Y26.6880 F2000.00
G01 X65.7948 Y27.5079 F2000.00
G01 X66.6148 Y27.5079 F2000.00
G01 X66.6148 Y26.6880 F2000.00
G01 X65.7948 Y26.6880 F2000.00
G01 X65.8748 Y26.7680 F2000.00
G01 X65.8748 Y27.4279 F2000.00
G01 X66.5348 Y27.4279 F2000.00
G01 X66.5348 Y26.7680 F2000.00
G01 X65.8748 Y26.7680 F2000.00
G01 X65.9548 Y26.8480 F2000.00
G01 X65.9548 Y27.3479 F2000.00
G01 X66.4548 Y27.3479 F2000.00
G01 X66.4548 Y26.8480 F2000.00
G01 X65.9548 Y26.8480 F2000.00
G01 X66.0348 Y26.9280 F2000.00
G01 X66.0348 Y27.2679 F2000.00
G01 X66.3748 Y27.2679 F2000.00
G01 X66.3748 Y26.9280 F2000.00
G01 X66.0348 Y26.9280 F2000.00
G01 X66.1148 Y27.0080 F2000.00
G01 X66.1148 Y27.1879 F2000.00
G01 X66.2948 Y27.1879 F2000.00
G01 X66.2948 Y27.0080 F2000.00
G01 X66.1148 Y27.0080 F2000.00
G01 X66.1948 Y27.0880 F2000.00
G01 X66.1948 Y27.1079 F2000.00
G01 X66.2148 Y27.1079 F2000.00
G01 X66.2148 Y27.0880 F2000.00
G01 X66.1948 Y27.0880 F2000.00
M5
G00 X71.6440 Y25.6524
G01 F60.00
M03 S40.0
G01 F2000.00
G01 X71.6440 Y28.5523 F2000.00
G01 X74.5440 Y28.5523 F2000.00
G01 X74.5440 Y25.6524 F2000.00
G01 X71.6440 Y25.6524 F2000.00
G01 X71.7240 Y25.7324 F2000.00
G01 X71.7240 Y28.4723 F2000.00
G01 X74.4640 Y28.4723 F2000.00
G01 X74.4640 Y25.7324 F2000.00
G01 X71.7240 Y25.7324 F2000.00
G01 X71.8040 Y25.8124 F2000.00
G01 X71.8040 Y28.3923 F2000.00
G01 X74.3840 Y28.3923 F2000.00
G01 X74.3840 Y25.8124 F2000.00
G01 X71.8040 Y25.8124 F2000.00
G01 X71.8840 Y25.8924 F2000.00
G01 X71.8840 Y28.3123 F2000.00
G01 X74.3040 Y28.3123 F2000.00
G01 X74.3040 Y25.8924 F2000.00
G01 X71.8840 Y25.8924 F2000.00
G01 X71.9640 Y25.9724 F2000.00
G01 X71.9640 Y28.2323 F2000.00
G01 X74.2240 Y28.2323 F2000.00
G01 X74.2240 Y25.9724 F2000.00
G01 X71.9640 Y25.9724 F2000.00
G01 X72.0440 Y26.0524 F2000.00
G01 X72.0440 Y28.1523 F2000.00
G01 X74.1440 Y28.1523 F2000.00
G01 X74.1440 Y26.0524 F2000.00
G01 X72.0440 Y26.0524 F2000.00
G01 X72.1240 Y26.1324 F2000.00
G01 X72.1240 Y28.0723 F2000.00
G01 X74.0640 Y28.0723 F2000.00
G01 X74.0640 Y26.1324 F2000.00
G01 X72.1240 Y26.1324 F2000.00
G01 X72.2040 Y26.2124 F2000.00
G01 X72.2040 Y27.9923 F2000.00
G01 X73.9840 Y27.9923 F2000.00
G01 X73.9840 Y26.2124 F2000.00
G01 X72.2040 Y26.2124 F2000.00
G01 X72.2840 Y26.2924 F2000.00
G01 X72.2840 Y27.9123 F2000.00
G01 X73.9040 Y27.9123 F2000.00
G01 X73.9040 Y26.2924 F2000.00
G01 X72.2840 Y26.2924 F2000.00
G01 X72.3640 Y26.3724 F2000.00
G01 X72.3640 Y27.8323 F2000.00
G01 X73.8240 Y27.8323 F2000.00
G01 X73.8240 Y26.3724 F2000.00
G01 X72.3640 Y26.3724 F2000.00
G01 X72.4440 Y26.4524 F2000.00
G01 X72.4440 Y27.7523 F2000.00
G01 X73.7440 Y27.7523 F2000.00
G01 X73.7440 Y26.4524 F2000.00
G01 X72.4440 Y26.4524 F2000.00
G01 X72.5240 Y26.5324 F2000.00
G01 X72.5240 Y27.6723 F2000.00
G01 X73.6640 Y27.6723 F2000.00
G01 X73.6640 Y26.5324 F2000.00
G01 X72.5240 Y26.5324 F2000.00
G01 X72.6040 Y26.6124 F2000.00
G01 X72.6040 Y27.5923 F2000.00
G01 X73.5840 Y27.5923 F2000.00
G01 X73.5840 Y26.6124 F2000.00
G01 X72.6040 Y26.6124 F2000.00
G01 X72.6840 Y26.6924 F2000.00
G01 X72.6840 Y27.5123 F2000.00
G01 X73.5040 Y27.5123 F2000.00
G01 X73.5040 Y26.6924 F2000.00
G01 X72.6840 Y26.6924 F2000.00
G01 X72.7640 Y26.7724 F2000.00
G01 X72.7640 Y27.4323 F2000.00
G01 X73.4240 Y27.4323 F2000.00
G01 X73.4240 Y26.7724 F2000.00
G01 X72.7640 Y26.7724 F2000.00
G01 X72.8440 Y26.8524 F2000.00
G01 X72.8440 Y27.3523 F2000.00
G01 X73.3440 Y27.3523 F2000.00
G01 X73.3440 Y26.8524 F2000.00
G01 X72.8440 Y26.8524 F2000.00
G01 X72.9240 Y26.9324 F2000.00
G01 X72.9240 Y27.2723 F2000.00
G01 X73.2640 Y27.2723 F2000.00
G01 X73.2640 Y26.9324 F2000.00
G01 X72.9240 Y26.9324 F2000.00
G01 X73.0040 Y27.0124 F2000.00
G01 X73.0040 Y27.1923 F2000.00
G01 X73.1840 Y27.1923 F2000.00
G01 X73.1840 Y27.0124 F2000.00
G01 X73.0040 Y27.0124 F2000.00
G01 X73.0840 Y27.0924 F2000.00
G01 X73.0840 Y27.1123 F2000.00
G01 X73.1040 Y27.1123 F2000.00
G01 X73.1040 Y27.0924 F2000.00
G01 X73.0840 Y27.0924 F2000.00
M5
G00 X76.6440 Y25.6524
G01 F60.00
M03 S40.0
G01 F2000.00
G01 X76.6440 Y28.5523 F2000.00
G01 X79.5440 Y28.5523 F2000.00
G01 X79.5440 Y25.6524 F2000.00
G01 X76.6440 Y25.6524 F2000.00
G01 X76.7240 Y25.7324 F2000.00
G01 X76.7240 Y28.4723 F2000.00
G01 X79.4640 Y28.4723 F2000.00
G01 X79.4640 Y25.7324 F2000.00
G01 X76.7240 Y25.7324 F2000.00
G01 X76.8040 Y25.8124 F2000.00
G01 X76.8040 Y28.3923 F2000.00
G01 X79.3840 Y28.3923 F2000.00
G01 X79.3840 Y25.8124 F2000.00
G01 X76.8040 Y25.8124 F2000.00
G01 X76.8840 Y25.8924 F2000.00
G01 X76.8840 Y28.3123 F2000.00
G01 X79.3040 Y28.3123 F2000.00
G01 X79.3040 Y25.8924 F2000.00
G01 X76.8840 Y25.8924 F2000.00
G01 X76.9640 Y25.9724 F2000.00
G01 X76.9640 Y28.2323 F2000.00
G01 X79.2240 Y28.2323 F2000.00
G01 X79.2240 Y25.9724 F2000.00
G01 X76.9640 Y25.9724 F2000.00
G01 X77.0440 Y26.0524 F2000.00
G01 X77.0440 Y28.1523 F2000.00
G01 X79.1440 Y28.1523 F2000.00
G01 X79.1440 Y26.0524 F2000.00
G01 X77.0440 Y26.0524 F2000.00
G01 X77.1240 Y26.1324 F2000.00
G01 X77.1240 Y28.0723 F2000.00
G01 X79.0640 Y28.0723 F2000.00
G01 X79.0640 Y26.1324 F2000.00
G01 X77.1240 Y26.1324 F2000.00
G01 X77.2040 Y26.2124 F2000.00
G01 X77.2040 Y27.9923 F2000.00
G01 X78.9840 Y27.9923 F2000.00
G01 X78.9840 Y26.2124 F2000.00
G01 X77.2040 Y26.2124 F2000.00
G01 X77.2840 Y26.2924 F2000.00
G01 X77.2840 Y27.9123 F2000.00
G01 X78.9040 Y27.9123 F2000.00
G01 X78.9040 Y26.2924 F2000.00
G01 X77.2840 Y26.2924 F2000.00
G01 X77.3640 Y26.3724 F2000.00
G01 X77.3640 Y27.8323 F2000.00
G01 X78.8240 Y27.8323 F2000.00
G01 X78.8240 Y26.3724 F2000.00
G01 X77.3640 Y26.3724 F2000.00
G01 X77.4440 Y26.4524 F2000.00
G01 X77.4440 Y27.7523 F2000.00
G01 X78.7440 Y27.7523 F2000.00
G01 X78.7440 Y26.4524 F2000.00
G01 X77.4440 Y26.4524 F2000.00
G01 X77.5240 Y26.5324 F2000.00
G01 X77.5240 Y27.6723 F2000.00
G01 X78.6640 Y27.6723 F2000.00
G01 X78.6640 Y26.5324 F2000.00
G01 X77.5240 Y26.5324 F2000.00
G01 X77.6040 Y26.6124 F2000.00
G01 X77.6040 Y27.5923 F2000.00
G01 X78.5840 Y27.5923 F2000.00
G01 X78.5840 Y26.6124 F2000.00
G01 X77.6040 Y26.6124 F2000.00
G01 X77.6840 Y26.6924 F2000.00
G01 X77.6840 Y27.5123 F2000.00
G01 X78.5040 Y27.5123 F2000.00
G01 X78.5040 Y26.6924 F2000.00
G01 X77.6840 Y26.6924 F2000.00
G01 X77.7640 Y26.7724 F2000.00
G01 X77.7640 Y27.4323 F2000.00
G01 X78.4240 Y27.4323 F2000.00
G01 X78.4240 Y26.7724 F2000.00
G01 X77.7640 Y26.7724 F2000.00
G01 X77.8440 Y26.8524 F2000.00
G01 X77.8440 Y27.3523 F2000.00
G01 X78.3440 Y27.3523 F2000.00
G01 X78.3440 Y26.8524 F2000.00
G01 X77.8440 Y26.8524 F2000.00
G01 X77.9240 Y26.9324 F2000.00
G01 X77.9240 Y27.2723 F2000.00
G01 X78.2640 Y27.2723 F2000.00
G01 X78.2640 Y26.9324 F2000.00
G01 X77.9240 Y26.9324 F2000.00
G01 X78.0040 Y27.0124 F2000.00
G01 X78.0040 Y27.1923 F2000.00
G01 X78.1840 Y27.1923 F2000.00
G01 X78.1840 Y27.0124 F2000.00
G01 X78.0040 Y27.0124 F2000.00
G01 X78.0840 Y27.0924 F2000.00
G01 X78.0840 Y27.1123 F2000.00
G01 X78.1040 Y27.1123 F2000.00
G01 X78.1040 Y27.0924 F2000.00
G01 X78.0840 Y27.0924 F2000.00
M5
G00 X81.6440 Y25.6524
G01 F60.00
M03 S40.0
G01 F2000.00
G01 X81.6440 Y28.5523 F2000.00
G01 X84.5440 Y28.5523 F2000.00
G01 X84.5440 Y25.6524 F2000.00
G01 X81.6440 Y25.6524 F2000.00
G01 X81.7240 Y25.7324 F2000.00
G01 X81.7240 Y28.4723 F2000.00
G01 X84.4640 Y28.4723 F2000.00
G01 X84.4640 Y25.7324 F2000.00
G01 X81.7240 Y25.7324 F2000.00
G01 X81.8040 Y25.8124 F2000.00
G01 X81.8040 Y28.3923 F2000.00
G01 X84.3840 Y28.3923 F2000.00
G01 X84.3840 Y25.8124 F2000.00
G01 X81.8040 Y25.8124 F2000.00
G01 X81.8840 Y25.8924 F2000.00
G01 X81.8840 Y28.3123 F2000.00
G01 X84.3040 Y28.3123 F2000.00
G01 X84.3040 Y25.8924 F2000.00
G01 X81.8840 Y25.8924 F2000.00
G01 X81.9640 Y25.9724 F2000.00
G01 X81.9640 Y28.2323 F2000.00
G01 X84.2240 Y28.2323 F2000.00
G01 X84.2240 Y25.9724 F2000.00
G01 X81.9640 Y25.9724 F2000.00
G01 X82.0440 Y26.0524 F2000.00
G01 X82.0440 Y28.1523 F2000.00
G01 X84.1440 Y28.1523 F2000.00
G01 X84.1440 Y26.0524 F2000.00
G01 X82.0440 Y26.0524 F2000.00
G01 X82.1240 Y26.1324 F2000.00
G01 X82.1240 Y28.0723 F2000.00
G01 X84.0640 Y28.0723 F2000.00
G01 X84.0640 Y26.1324 F2000.00
G01 X82.1240 Y26.1324 F2000.00
G01 X82.2040 Y26.2124 F2000.00
G01 X82.2040 Y27.9923 F2000.00
G01 X83.9840 Y27.9923 F2000.00
G01 X83.9840 Y26.2124 F2000.00
G01 X82.2040 Y26.2124 F2000.00
G01 X82.2840 Y26.2924 F2000.00
G01 X82.2840 Y27.9123 F2000.00
G01 X83.9040 Y27.9123 F2000.00
G01 X83.9040 Y26.2924 F2000.00
G01 X82.2840 Y26.2924 F2000.00
G01 X82.3640 Y26.3724 F2000.00
G01 X82.3640 Y27.8323 F2000.00
G01 X83.8240 Y27.8323 F2000.00
G01 X83.8240 Y26.3724 F2000.00
G01 X82.3640 Y26.3724 F2000.00
G01 X82.4440 Y26.4524 F2000.00
G01 X82.4440 Y27.7523 F2000.00
G01 X83.7440 Y27.7523 F2000.00
G01 X83.7440 Y26.4524 F2000.00
G01 X82.4440 Y26.4524 F2000.00
G01 X82.5240 Y26.5324 F2000.00
G01 X82.5240 Y27.6723 F2000.00
G01 X83.6640 Y27.6723 F2000.00
G01 X83.6640 Y26.5324 F2000.00
G01 X82.5240 Y26.5324 F2000.00
G01 X82.6040 Y26.6124 F2000.00
G01 X82.6040 Y27.5923 F2000.00
G01 X83.5840 Y27.5923 F2000.00
G01 X83.5840 Y26.6124 F2000.00
G01 X82.6040 Y26.6124 F2000.00
G01 X82.6840 Y26.6924 F2000.00
G01 X82.6840 Y27.5123 F2000.00
G01 X83.5040 Y27.5123 F2000.00
G01 X83.5040 Y26.6924 F2000.00
G01 X82.6840 Y26.6924 F2000.00
G01 X82.7640 Y26.7724 F2000.00
G01 X82.7640 Y27.4323 F2000.00
G01 X83.4240 Y27.4323 F2000.00
G01 X83.4240 Y26.7724 F2000.00
G01 X82.7640 Y26.7724 F2000.00
G01 X82.8440 Y26.8524 F2000.00
G01 X82.8440 Y27.3523 F2000.00
G01 X83.3440 Y27.3523 F2000.00
G01 X83.3440 Y26.8524 F2000.00
G01 X82.8440 Y26.8524 F2000.00
G01 X82.9240 Y26.9324 F2000.00
G01 X82.9240 Y27.2723 F2000.00
G01 X83.2640 Y27.2723 F2000.00
G01 X83.2640 Y26.9324 F2000.00
G01 X82.9240 Y26.9324 F2000.00
G01 X83.0040 Y27.0124 F2000.00
G01 X83.0040 Y27.1923 F2000.00
G01 X83.1840 Y27.1923 F2000.00
G01 X83.1840 Y27.0124 F2000.00
G01 X83.0040 Y27.0124 F2000.00
G01 X83.0840 Y27.0924 F2000.00
G01 X83.0840 Y27.1123 F2000.00
G01 X83.1040 Y27.1123 F2000.00
G01 X83.1040 Y27.0924 F2000.00
G01 X83.0840 Y27.0924 F2000.00
M5
G00 X87.5754 Y25.6524
G01 F60.00
M03 S40.0
G01 F2000.00
G01 X87.5754 Y28.5523 F2000.00
G01 X90.4754 Y28.5523 F2000.00
G01 X90.4754 Y25.6524 F2000.00
G01 X87.5754 Y25.6524 F2000.00
G01 X87.6554 Y25.7324 F2000.00
G01 X87.6554 Y28.4723 F2000.00
G01 X90.3954 Y28.4723 F2000.00
G01 X90.3954 Y25.7324 F2000.00
G01 X87.6554 Y25.7324 F2000.00
G01 X87.7354 Y25.8124 F2000.00
G01 X87.7354 Y28.3923 F2000.00
G01 X90.3154 Y28.3923 F2000.00
G01 X90.3154 Y25.8124 F2000.00
G01 X87.7354 Y25.8124 F2000.00
G01 X87.8154 Y25.8924 F2000.00
G01 X87.8154 Y28.3123 F2000.00
G01 X90.2354 Y28.3123 F2000.00
G01 X90.2354 Y25.8924 F2000.00
G01 X87.8154 Y25.8924 F2000.00
G01 X87.8954 Y25.9724 F2000.00
G01 X87.8954 Y28.2323 F2000.00
G01 X90.1554 Y28.2323 F2000.00
G01 X90.1554 Y25.9724 F2000.00
G01 X87.8954 Y25.9724 F2000.00
G01 X87.9754 Y26.0524 F2000.00
G01 X87.9754 Y28.1523 F2000.00
G01 X90.0754 Y28.1523 F2000.00
G01 X90.0754 Y26.0524 F2000.00
G01 X87.9754 Y26.0524 F2000.00
G01 X88.0554 Y26.1324 F2000.00
G01 X88.0554 Y28.0723 F2000.00
G01 X89.9954 Y28.0723 F2000.00
G01 X89.9954 Y26.1324 F2000.00
G01 X88.0554 Y26.1324 F2000.00
G01 X88.1354 Y26.2124 F2000.00
G01 X88.1354 Y27.9923 F2000.00
G01 X89.9154 Y27.9923 F2000.00
G01 X89.9154 Y26.2124 F2000.00
G01 X88.1354 Y26.2124 F2000.00
G01 X88.2154 Y26.2924 F2000.00
G01 X88.2154 Y27.9123 F2000.00
G01 X89.8354 Y27.9123 F2000.00
G01 X89.8354 Y26.2924 F2000.00
G01 X88.2154 Y26.2924 F2000.00
G01 X88.2954 Y26.3724 F2000.00
G01 X88.2954 Y27.8323 F2000.00
G01 X89.7554 Y27.8323 F2000.00
G01 X89.7554 Y26.3724 F2000.00
G01 X88.2954 Y26.3724 F2000.00
G01 X88.3754 Y26.4524 F2000.00
G01 X88.3754 Y27.7523 F2000.00
G01 X89.6754 Y27.7523 F2000.00
G01 X89.6754 Y26.4524 F2000.00
G01 X88.3754 Y26.4524 F2000.00
G01 X88.4554 Y26.5324 F2000.00
G01 X88.4554 Y27.6723 F2000.00
G01 X89.5954 Y27.6723 F2000.00
G01 X89.5954 Y26.5324 F2000.00
G01 X88.4554 Y26.5324 F2000.00
G01 X88.5354 Y26.6124 F2000.00
G01 X88.5354 Y27.5923 F2000.00
G01 X89.5154 Y27.5923 F2000.00
G01 X89.5154 Y26.6124 F2000.00
G01 X88.5354 Y26.6124 F2000.00
G01 X88.6154 Y26.6924 F2000.00
G01 X88.6154 Y27.5123 F2000.00
G01 X89.4354 Y27.5123 F2000.00
G01 X89.4354 Y26.6924 F2000.00
G01 X88.6154 Y26.6924 F2000.00
G01 X88.6954 Y26.7724 F2000.00
G01 X88.6954 Y27.4323 F2000.00
G01 X89.3554 Y27.4323 F2000.00
G01 X89.3554 Y26.7724 F2000.00
G01 X88.6954 Y26.7724 F2000.00
G01 X88.7754 Y26.8524 F2000.00
G01 X88.7754 Y27.3523 F2000.00
G01 X89.2754 Y27.3523 F2000.00
G01 X89.2754 Y26.8524 F2000.00
G01 X88.7754 Y26.8524 F2000.00
G01 X88.8554 Y26.9324 F2000.00
G01 X88.8554 Y27.2723 F2000.00
G01 X89.1954 Y27.2723 F2000.00
G01 X89.1954 Y26.9324 F2000.00
G01 X88.8554 Y26.9324 F2000.00
G01 X88.9354 Y27.0124 F2000.00
G01 X88.9354 Y27.1923 F2000.00
G01 X89.1154 Y27.1923 F2000.00
G01 X89.1154 Y27.0124 F2000.00
G01 X88.9354 Y27.0124 F2000.00
G01 X89.0154 Y27.0924 F2000.00
G01 X89.0154 Y27.1123 F2000.00
G01 X89.0354 Y27.1123 F2000.00
G01 X89.0354 Y27.0924 F2000.00
G01 X89.0154 Y27.0924 F2000.00
M5
G00 X92.5754 Y25.6524
G01 F60.00
M03 S40.0
G01 F2000.00
G01 X92.5754 Y28.5523 F2000.00
G01 X95.4754 Y28.5523 F2000.00
G01 X95.4754 Y25.6524 F2000.00
G01 X92.5754 Y25.6524 F2000.00
G01 X92.6554 Y25.7324 F2000.00
G01 X92.6554 Y28.4723 F2000.00
G01 X95.3954 Y28.4723 F2000.00
G01 X95.3954 Y25.7324 F2000.00
G01 X92.6554 Y25.7324 F2000.00
G01 X92.7354 Y25.8124 F2000.00
G01 X92.7354 Y28.3923 F2000.00
G01 X95.3154 Y28.3923 F2000.00
G01 X95.3154 Y25.8124 F2000.00
G01 X92.7354 Y25.8124 F2000.00
G01 X92.8154 Y25.8924 F2000.00
G01 X92.8154 Y28.3123 F2000.00
G01 X95.2354 Y28.3123 F2000.00
G01 X95.2354 Y25.8924 F2000.00
G01 X92.8154 Y25.8924 F2000.00
G01 X92.8954 Y25.9724 F2000.00
G01 X92.8954 Y28.2323 F2000.00
G01 X95.1554 Y28.2323 F2000.00
G01 X95.1554 Y25.9724 F2000.00
G01 X92.8954 Y25.9724 F2000.00
G01 X92.9754 Y26.0524 F2000.00
G01 X92.9754 Y28.1523 F2000.00
G01 X95.0754 Y28.1523 F2000.00
G01 X95.0754 Y26.0524 F2000.00
G01 X92.9754 Y26.0524 F2000.00
G01 X93.0554 Y26.1324 F2000.00
G01 X93.0554 Y28.0723 F2000.00
G01 X94.9954 Y28.0723 F2000.00
G01 X94.9954 Y26.1324 F2000.00
G01 X93.0554 Y26.1324 F2000.00
G01 X93.1354 Y26.2124 F2000.00
G01 X93.1354 Y27.9923 F2000.00
G01 X94.9154 Y27.9923 F2000.00
G01 X94.9154 Y26.2124 F2000.00
G01 X93.1354 Y26.2124 F2000.00
G01 X93.2154 Y26.2924 F2000.00
G01 X93.2154 Y27.9123 F2000.00
G01 X94.8354 Y27.9123 F2000.00
G01 X94.8354 Y26.2924 F2000.00
G01 X93.2154 Y26.2924 F2000.00
G01 X93.2954 Y26.3724 F2000.00
G01 X93.2954 Y27.8323 F2000.00
G01 X94.7554 Y27.8323 F2000.00
G01 X94.7554 Y26.3724 F2000.00
G01 X93.2954 Y26.3724 F2000.00
G01 X93.3754 Y26.4524 F2000.00
G01 X93.3754 Y27.7523 F2000.00
G01 X94.6754 Y27.7523 F2000.00
G01 X94.6754 Y26.4524 F2000.00
G01 X93.3754 Y26.4524 F2000.00
G01 X93.4554 Y26.5324 F2000.00
G01 X93.4554 Y27.6723 F2000.00
G01 X94.5954 Y27.6723 F2000.00
G01 X94.5954 Y26.5324 F2000.00
G01 X93.4554 Y26.5324 F2000.00
G01 X93.5354 Y26.6124 F2000.00
G01 X93.5354 Y27.5923 F2000.00
G01 X94.5154 Y27.5923 F2000.00
G01 X94.5154 Y26.6124 F2000.00
G01 X93.5354 Y26.6124 F2000.00
G01 X93.6154 Y26.6924 F2000.00
G01 X93.6154 Y27.5123 F2000.00
G01 X94.4354 Y27.5123 F2000.00
G01 X94.4354 Y26.6924 F2000.00
G01 X93.6154 Y26.6924 F2000.00
G01 X93.6954 Y26.7724 F2000.00
G01 X93.6954 Y27.4323 F2000.00
G01 X94.3554 Y27.4323 F2000.00
G01 X94.3554 Y26.7724 F2000.00
G01 X93.6954 Y26.7724 F2000.00
G01 X93.7754 Y26.8524 F2000.00
G01 X93.7754 Y27.3523 F2000.00
G01 X94.2754 Y27.3523 F2000.00
G01 X94.2754 Y26.8524 F2000.00
G01 X93.7754 Y26.8524 F2000.00
G01 X93.8554 Y26.9324 F2000.00
G01 X93.8554 Y27.2723 F2000.00
G01 X94.1954 Y27.2723 F2000.00
G01 X94.1954 Y26.9324 F2000.00
G01 X93.8554 Y26.9324 F2000.00
G01 X93.9354 Y27.0124 F2000.00
G01 X93.9354 Y27.1923 F2000.00
G01 X94.1154 Y27.1923 F2000.00
G01 X94.1154 Y27.0124 F2000.00
G01 X93.9354 Y27.0124 F2000.00
G01 X94.0154 Y27.0924 F2000.00
G01 X94.0154 Y27.1123 F2000.00
G01 X94.0354 Y27.1123 F2000.00
G01 X94.0354 Y27.0924 F2000.00
G01 X94.0154 Y27.0924 F2000.00
M5
G00 X97.5754 Y25.6524
G01 F60.00
M03 S40.0
G01 F2000.00
G01 X97.5754 Y28.5523 F2000.00
G01 X100.4754 Y28.5523 F2000.00
G01 X100.4754 Y25.6524 F2000.00
G01 X97.5754 Y25.6524 F2000.00
G01 X97.6554 Y25.7324 F2000.00
G01 X97.6554 Y28.4723 F2000.00
G01 X100.3954 Y28.4723 F2000.00
G01 X100.3954 Y25.7324 F2000.00
G01 X97.6554 Y25.7324 F2000.00
G01 X97.7354 Y25.8124 F2000.00
G01 X97.7354 Y28.3923 F2000.00
G01 X100.3154 Y28.3923 F2000.00
G01 X100.3154 Y25.8124 F2000.00
G01 X97.7354 Y25.8124 F2000.00
G01 X97.8154 Y25.8924 F2000.00
G01 X97.8154 Y28.3123 F2000.00
G01 X100.2354 Y28.3123 F2000.00
G01 X100.2354 Y25.8924 F2000.00
G01 X97.8154 Y25.8924 F2000.00
G01 X97.8954 Y25.9724 F2000.00
G01 X97.8954 Y28.2323 F2000.00
G01 X100.1554 Y28.2323 F2000.00
G01 X100.1554 Y25.9724 F2000.00
G01 X97.8954 Y25.9724 F2000.00
G01 X97.9754 Y26.0524 F2000.00
G01 X97.9754 Y28.1523 F2000.00
G01 X100.0754 Y28.1523 F2000.00
G01 X100.0754 Y26.0524 F2000.00
G01 X97.9754 Y26.0524 F2000.00
G01 X98.0554 Y26.1324 F2000.00
G01 X98.0554 Y28.0723 F2000.00
G01 X99.9954 Y28.0723 F2000.00
G01 X99.9954 Y26.1324 F2000.00
G01 X98.0554 Y26.1324 F2000.00
G01 X98.1354 Y26.2124 F2000.00
G01 X98.1354 Y27.9923 F2000.00
G01 X99.9154 Y27.9923 F2000.00
G01 X99.9154 Y26.2124 F2000.00
G01 X98.1354 Y26.2124 F2000.00
G01 X98.2154 Y26.2924 F2000.00
G01 X98.2154 Y27.9123 F2000.00
G01 X99.8354 Y27.9123 F2000.00
G01 X99.8354 Y26.2924 F2000.00
G01 X98.2154 Y26.2924 F2000.00
G01 X98.2954 Y26.3724 F2000.00
G01 X98.2954 Y27.8323 F2000.00
G01 X99.7554 Y27.8323 F2000.00
G01 X99.7554 Y26.3724 F2000.00
G01 X98.2954 Y26.3724 F2000.00
G01 X98.3754 Y26.4524 F2000.00
G01 X98.3754 Y27.7523 F2000.00
G01 X99.6754 Y27.7523 F2000.00
G01 X99.6754 Y26.4524 F2000.00
G01 X98.3754 Y26.4524 F2000.00
G01 X98.4554 Y26.5324 F2000.00
G01 X98.4554 Y27.6723 F2000.00
G01 X99.5954 Y27.6723 F2000.00
G01 X99.5954 Y26.5324 F2000.00
G01 X98.4554 Y26.5324 F2000.00
G01 X98.5354 Y26.6124 F2000.00
G01 X98.5354 Y27.5923 F2000.00
G01 X99.5154 Y27.5923 F2000.00
G01 X99.5154 Y26.6124 F2000.00
G01 X98.5354 Y26.6124 F2000.00
G01 X98.6154 Y26.6924 F2000.00
G01 X98.6154 Y27.5123 F2000.00
G01 X99.4354 Y27.5123 F2000.00
G01 X99.4354 Y26.6924 F2000.00
G01 X98.6154 Y26.6924 F2000.00
G01 X98.6954 Y26.7724 F2000.00
G01 X98.6954 Y27.4323 F2000.00
G01 X99.3554 Y27.4323 F2000.00
G01 X99.3554 Y26.7724 F2000.00
G01 X98.6954 Y26.7724 F2000.00
G01 X98.7754 Y26.8524 F2000.00
G01 X98.7754 Y27.3523 F2000.00
G01 X99.2754 Y27.3523 F2000.00
G01 X99.2754 Y26.8524 F2000.00
G01 X98.7754 Y26.8524 F2000.00
G01 X98.8554 Y26.9324 F2000.00
G01 X98.8554 Y27.2723 F2000.00
G01 X99.1954 Y27.2723 F2000.00
G01 X99.1954 Y26.9324 F2000.00
G01 X98.8554 Y26.9324 F2000.00
G01 X98.9354 Y27.0124 F2000.00
G01 X98.9354 Y27.1923 F2000.00
G01 X99.1154 Y27.1923 F2000.00
G01 X99.1154 Y27.0124 F2000.00
G01 X98.9354 Y27.0124 F2000.00
G01 X99.0154 Y27.0924 F2000.00
G01 X99.0154 Y27.1123 F2000.00
G01 X99.0354 Y27.1123 F2000.00
G01 X99.0354 Y27.0924 F2000.00
G01 X99.0154 Y27.0924 F2000.00
M5
G00 X103.5068 Y25.6524
G01 F60.00
M03 S40.0
G01 F2000.00
G01 X103.5068 Y28.5523 F2000.00
G01 X106.4068 Y28.5523 F2000.00
G01 X106.4068 Y25.6524 F2000.00
G01 X103.5068 Y25.6524 F2000.00
G01 X103.5868 Y25.7324 F2000.00
G01 X103.5868 Y28.4723 F2000.00
G01 X106.3268 Y28.4723 F2000.00
G01 X106.3268 Y25.7324 F2000.00
G01 X103.5868 Y25.7324 F2000.00
G01 X103.6668 Y25.8124 F2000.00
G01 X103.6668 Y28.3923 F2000.00
G01 X106.2468 Y28.3923 F2000.00
G01 X106.2468 Y25.8124 F2000.00
G01 X103.6668 Y25.8124 F2000.00
G01 X103.7468 Y25.8924 F2000.00
G01 X103.7468 Y28.3123 F2000.00
G01 X106.1668 Y28.3123 F2000.00
G01 X106.1668 Y25.8924 F2000.00
G01 X103.7468 Y25.8924 F2000.00
G01 X103.8268 Y25.9724 F2000.00
G01 X103.8268 Y28.2323 F2000.00
G01 X106.0868 Y28.2323 F2000.00
G01 X106.0868 Y25.9724 F2000.00
G01 X103.8268 Y25.9724 F2000.00
G01 X103.9068 Y26.0524 F2000.00
G01 X103.9068 Y28.1523 F2000.00
G01 X106.0068 Y28.1523 F2000.00
G01 X106.0068 Y26.0524 F2000.00
G01 X103.9068 Y26.0524 F2000.00
G01 X103.9868 Y26.1324 F2000.00
G01 X103.9868 Y28.0723 F2000.00
G01 X105.9268 Y28.0723 F2000.00
G01 X105.9268 Y26.1324 F2000.00
G01 X103.9868 Y26.1324 F2000.00
G01 X104.0668 Y26.2124 F2000.00
G01 X104.0668 Y27.9923 F2000.00
G01 X105.8468 Y27.9923 F2000.00
G01 X105.8468 Y26.2124 F2000.00
G01 X104.0668 Y26.2124 F2000.00
G01 X104.1468 Y26.2924 F2000.00
G01 X104.1468 Y27.9123 F2000.00
G01 X105.7668 Y27.9123 F2000.00
G01 X105.7668 Y26.2924 F2000.00
G01 X104.1468 Y26.2924 F2000.00
G01 X104.2268 Y26.3724 F2000.00
G01 X104.2268 Y27.8323 F2000.00
G01 X105.6868 Y27.8323 F2000.00
G01 X105.6868 Y26.3724 F2000.00
G01 X104.2268 Y26.3724 F2000.00
G01 X104.3068 Y26.4524 F2000.00
G01 X104.3068 Y27.7523 F2000.00
G01 X105.6068 Y27.7523 F2000.00
G01 X105.6068 Y26.4524 F2000.00
G01 X104.3068 Y26.4524 F2000.00
G01 X104.3868 Y26.5324 F2000.00
G01 X104.3868 Y27.6723 F2000.00
G01 X105.5268 Y27.6723 F2000.00
G01 X105.5268 Y26.5324 F2000.00
G01 X104.3868 Y26.5324 F2000.00
G01 X104.4668 Y26.6124 F2000.00
G01 X104.4668 Y27.5923 F2000.00
G01 X105.4468 Y27.5923 F2000.00
G01 X105.4468 Y26.6124 F2000.00
G01 X104.4668 Y26.6124 F2000.00
G01 X104.5468 Y26.6924 F2000.00
G01 X104.5468 Y27.5123 F2000.00
G01 X105.3668 Y27.5123 F2000.00
G01 X105.3668 Y26.6924 F2000.00
G01 X104.5468 Y26.6924 F2000.00
G01 X104.6268 Y26.7724 F2000.00
G01 X104.6268 Y27.4323 F2000.00
G01 X105.2868 Y27.4323 F2000.00
G01 X105.2868 Y26.7724 F2000.00
G01 X104.6268 Y26.7724 F2000.00
G01 X104.7068 Y26.8524 F2000.00
G01 X104.7068 Y27.3523 F2000.00
G01 X105.2068 Y27.3523 F2000.00
G01 X105.2068 Y26.8524 F2000.00
G01 X104.7068 Y26.8524 F2000.00
G01 X104.7868 Y26.9324 F2000.00
G01 X104.7868 Y27.2723 F2000.00
G01 X105.1268 Y27.2723 F2000.00
G01 X105.1268 Y26.9324 F2000.00
G01 X104.7868 Y26.9324 F2000.00
G01 X104.8668 Y27.0124 F2000.00
G01 X104.8668 Y27.1923 F2000.00
G01 X105.0468 Y27.1923 F2000.00
G01 X105.0468 Y27.0124 F2000.00
G01 X104.8668 Y27.0124 F2000.00
G01 X104.9468 Y27.0924 F2000.00
G01 X104.9468 Y27.1123 F2000.00
G01 X104.9668 Y27.1123 F2000.00
G01 X104.9668 Y27.0924 F2000.00
G01 X104.9468 Y27.0924 F2000.00
M5
G00 X108.5068 Y25.6524
G01 F60.00
M03 S40.0
G01 F2000.00
G01 X108.5068 Y28.5523 F2000.00
G01 X111.4068 Y28.5523 F2000.00
G01 X111.4068 Y25.6524 F2000.00
G01 X108.5068 Y25.6524 F2000.00
G01 X108.5868 Y25.7324 F2000.00
G01 X108.5868 Y28.4723 F2000.00
G01 X111.3268 Y28.4723 F2000.00
G01 X111.3268 Y25.7324 F2000.00
G01 X108.5868 Y25.7324 F2000.00
G01 X108.6668 Y25.8124 F2000.00
G01 X108.6668 Y28.3923 F2000.00
G01 X111.2468 Y28.3923 F2000.00
G01 X111.2468 Y25.8124 F2000.00
G01 X108.6668 Y25.8124 F2000.00
G01 X108.7468 Y25.8924 F2000.00
G01 X108.7468 Y28.3123 F2000.00
G01 X111.1668 Y28.3123 F2000.00
G01 X111.1668 Y25.8924 F2000.00
G01 X108.7468 Y25.8924 F2000.00
G01 X108.8268 Y25.9724 F2000.00
G01 X108.8268 Y28.2323 F2000.00
G01 X111.0868 Y28.2323 F2000.00
G01 X111.0868 Y25.9724 F2000.00
G01 X108.8268 Y25.9724 F2000.00
G01 X108.9068 Y26.0524 F2000.00
G01 X108.9068 Y28.1523 F2000.00
G01 X111.0068 Y28.1523 F2000.00
G01 X111.0068 Y26.0524 F2000.00
G01 X108.9068 Y26.0524 F2000.00
G01 X108.9868 Y26.1324 F2000.00
G01 X108.9868 Y28.0723 F2000.00
G01 X110.9268 Y28.0723 F2000.00
G01 X110.9268 Y26.1324 F2000.00
G01 X108.9868 Y26.1324 F2000.00
G01 X109.0668 Y26.2124 F2000.00
G01 X109.0668 Y27.9923 F2000.00
G01 X110.8468 Y27.9923 F2000.00
G01 X110.8468 Y26.2124 F2000.00
G01 X109.0668 Y26.2124 F2000.00
G01 X109.1468 Y26.2924 F2000.00
G01 X109.1468 Y27.9123 F2000.00
G01 X110.7668 Y27.9123 F2000.00
G01 X110.7668 Y26.2924 F2000.00
G01 X109.1468 Y26.2924 F2000.00
G01 X109.2268 Y26.3724 F2000.00
G01 X109.2268 Y27.8323 F2000.00
G01 X110.6868 Y27.8323 F2000.00
G01 X110.6868 Y26.3724 F2000.00
G01 X109.2268 Y26.3724 F2000.00
G01 X109.3068 Y26.4524 F2000.00
G01 X109.3068 Y27.7523 F2000.00
G01 X110.6068 Y27.7523 F2000.00
G01 X110.6068 Y26.4524 F2000.00
G01 X109.3068 Y26.4524 F2000.00
G01 X109.3868 Y26.5324 F2000.00
G01 X109.3868 Y27.6723 F2000.00
G01 X110.5268 Y27.6723 F2000.00
G01 X110.5268 Y26.5324 F2000.00
G01 X109.3868 Y26.5324 F2000.00
G01 X109.4668 Y26.6124 F2000.00
G01 X109.4668 Y27.5923 F2000.00
G01 X110.4468 Y27.5923 F2000.00
G01 X110.4468 Y26.6124 F2000.00
G01 X109.4668 Y26.6124 F2000.00
G01 X109.5468 Y26.6924 F2000.00
G01 X109.5468 Y27.5123 F2000.00
G01 X110.3668 Y27.5123 F2000.00
G01 X110.3668 Y26.6924 F2000.00
G01 X109.5468 Y26.6924 F2000.00
G01 X109.6268 Y26.7724 F2000.00
G01 X109.6268 Y27.4323 F2000.00
G01 X110.2868 Y27.4323 F2000.00
G01 X110.2868 Y26.7724 F2000.00
G01 X109.6268 Y26.7724 F2000.00
G01 X109.7068 Y26.8524 F2000.00
G01 X109.7068 Y27.3523 F2000.00
G01 X110.2068 Y27.3523 F2000.00
G01 X110.2068 Y26.8524 F2000.00
G01 X109.7068 Y26.8524 F2000.00
G01 X109.7868 Y26.9324 F2000.00
G01 X109.7868 Y27.2723 F2000.00
G01 X110.1268 Y27.2723 F2000.00
G01 X110.1268 Y26.9324 F2000.00
G01 X109.7868 Y26.9324 F2000.00
G01 X109.8668 Y27.0124 F2000.00
G01 X109.8668 Y27.1923 F2000.00
G01 X110.0468 Y27.1923 F2000.00
G01 X110.0468 Y27.0124 F2000.00
G01 X109.8668 Y27.0124 F2000.00
G01 X109.9468 Y27.0924 F2000.00
G01 X109.9468 Y27.1123 F2000.00
G01 X109.9668 Y27.1123 F2000.00
G01 X109.9668 Y27.0924 F2000.00
G01 X109.9468 Y27.0924 F2000.00
M5
G00 X113.5068 Y25.6524
G01 F60.00
M03 S40.0
G01 F2000.00
G01 X113.5068 Y28.5523 F2000.00
G01 X116.4068 Y28.5523 F2000.00
G01 X116.4068 Y25.6524 F2000.00
G01 X113.5068 Y25.6524 F2000.00
G01 X113.5868 Y25.7324 F2000.00
G01 X113.5868 Y28.4723 F2000.00
G01 X116.3268 Y28.4723 F2000.00
G01 X116.3268 Y25.7324 F2000.00
G01 X113.5868 Y25.7324 F2000.00
G01 X113.6668 Y25.8124 F2000.00
G01 X113.6668 Y28.3923 F2000.00
G01 X116.2468 Y28.3923 F2000.00
G01 X116.2468 Y25.8124 F2000.00
G01 X113.6668 Y25.8124 F2000.00
G01 X113.7468 Y25.8924 F2000.00
G01 X113.7468 Y28.3123 F2000.00
G01 X116.1668 Y28.3123 F2000.00
G01 X116.1668 Y25.8924 F2000.00
G01 X113.7468 Y25.8924 F2000.00
G01 X113.8268 Y25.9724 F2000.00
G01 X113.8268 Y28.2323 F2000.00
G01 X116.0868 Y28.2323 F2000.00
G01 X116.0868 Y25.9724 F2000.00
G01 X113.8268 Y25.9724 F2000.00
G01 X113.9068 Y26.0524 F2000.00
G01 X113.9068 Y28.1523 F2000.00
G01 X116.0068 Y28.1523 F2000.00
G01 X116.0068 Y26.0524 F2000.00
G01 X113.9068 Y26.0524 F2000.00
G01 X113.9868 Y26.1324 F2000.00
G01 X113.9868 Y28.0723 F2000.00
G01 X115.9268 Y28.0723 F2000.00
G01 X115.9268 Y26.1324 F2000.00
G01 X113.9868 Y26.1324 F2000.00
G01 X114.0668 Y26.2124 F2000.00
G01 X114.0668 Y27.9923 F2000.00
G01 X115.8468 Y27.9923 F2000.00
G01 X115.8468 Y26.2124 F2000.00
G01 X114.0668 Y26.2124 F2000.00
G01 X114.1468 Y26.2924 F2000.00
G01 X114.1468 Y27.9123 F2000.00
G01 X115.7668 Y27.9123 F2000.00
G01 X115.7668 Y26.2924 F2000.00
G01 X114.1468 Y26.2924 F2000.00
G01 X114.2268 Y26.3724 F2000.00
G01 X114.2268 Y27.8323 F2000.00
G01 X115.6868 Y27.8323 F2000.00
G01 X115.6868 Y26.3724 F2000.00
G01 X114.2268 Y26.3724 F2000.00
G01 X114.3068 Y26.4524 F2000.00
G01 X114.3068 Y27.7523 F2000.00
G01 X115.6068 Y27.7523 F2000.00
G01 X115.6068 Y26.4524 F2000.00
G01 X114.3068 Y26.4524 F2000.00
G01 X114.3868 Y26.5324 F2000.00
G01 X114.3868 Y27.6723 F2000.00
G01 X115.5268 Y27.6723 F2000.00
G01 X115.5268 Y26.5324 F2000.00
G01 X114.3868 Y26.5324 F2000.00
G01 X114.4668 Y26.6124 F2000.00
G01 X114.4668 Y27.5923 F2000.00
G01 X115.4468 Y27.5923 F2000.00
G01 X115.4468 Y26.6124 F2000.00
G01 X114.4668 Y26.6124 F2000.00
G01 X114.5468 Y26.6924 F2000.00
G01 X114.5468 Y27.5123 F2000.00
G01 X115.3668 Y27.5123 F2000.00
G01 X115.3668 Y26.6924 F2000.00
G01 X114.5468 Y26.6924 F2000.00
G01 X114.6268 Y26.7724 F2000.00
G01 X114.6268 Y27.4323 F2000.00
G01 X115.2868 Y27.4323 F2000.00
G01 X115.2868 Y26.7724 F2000.00
G01 X114.6268 Y26.7724 F2000.00
G01 X114.7068 Y26.8524 F2000.00
G01 X114.7068 Y27.3523 F2000.00
G01 X115.2068 Y27.3523 F2000.00
G01 X115.2068 Y26.8524 F2000.00
G01 X114.7068 Y26.8524 F2000.00
G01 X114.7868 Y26.9324 F2000.00
G01 X114.7868 Y27.2723 F2000.00
G01 X115.1268 Y27.2723 F2000.00
G01 X115.1268 Y26.9324 F2000.00
G01 X114.7868 Y26.9324 F2000.00
G01 X114.8668 Y27.0124 F2000.00
G01 X114.8668 Y27.1923 F2000.00
G01 X115.0468 Y27.1923 F2000.00
G01 X115.0468 Y27.0124 F2000.00
G01 X114.8668 Y27.0124 F2000.00
G01 X114.9468 Y27.0924 F2000.00
G01 X114.9468 Y27.1123 F2000.00
G01 X114.9668 Y27.1123 F2000.00
G01 X114.9668 Y27.0924 F2000.00
G01 X114.9468 Y27.0924 F2000.00
M5
G00 X120.3960 Y25.6568
G01 F60.00
M03 S40.0
G01 F2000.00
G01 X120.3960 Y28.5567 F2000.00
G01 X123.2960 Y28.5567 F2000.00
G01 X123.2960 Y25.6568 F2000.00
G01 X120.3960 Y25.6568 F2000.00
G01 X120.4760 Y25.7368 F2000.00
G01 X120.4760 Y28.4767 F2000.00
G01 X123.2160 Y28.4767 F2000.00
G01 X123.2160 Y25.7368 F2000.00
G01 X120.4760 Y25.7368 F2000.00
G01 X120.5560 Y25.8168 F2000.00
G01 X120.5560 Y28.3967 F2000.00
G01 X123.1360 Y28.3967 F2000.00
G01 X123.1360 Y25.8168 F2000.00
G01 X120.5560 Y25.8168 F2000.00
G01 X120.6360 Y25.8968 F2000.00
G01 X120.6360 Y28.3167 F2000.00
G01 X123.0560 Y28.3167 F2000.00
G01 X123.0560 Y25.8968 F2000.00
G01 X120.6360 Y25.8968 F2000.00
G01 X120.7160 Y25.9768 F2000.00
G01 X120.7160 Y28.2367 F2000.00
G01 X122.9760 Y28.2367 F2000.00
G01 X122.9760 Y25.9768 F2000.00
G01 X120.7160 Y25.9768 F2000.00
G01 X120.7960 Y26.0568 F2000.00
G01 X120.7960 Y28.1567 F2000.00
G01 X122.8960 Y28.1567 F2000.00
G01 X122.8960 Y26.0568 F2000.00
G01 X120.7960 Y26.0568 F2000.00
G01 X120.8760 Y26.1368 F2000.00
G01 X120.8760 Y28.0767 F2000.00
G01 X122.8160 Y28.0767 F2000.00
G01 X122.8160 Y26.1368 F2000.00
G01 X120.8760 Y26.1368 F2000.00
G01 X120.9560 Y26.2168 F2000.00
G01 X120.9560 Y27.9967 F2000.00
G01 X122.7360 Y27.9967 F2000.00
G01 X122.7360 Y26.2168 F2000.00
G01 X120.9560 Y26.2168 F2000.00
G01 X121.0360 Y26.2968 F2000.00
G01 X121.0360 Y27.9167 F2000.00
G01 X122.6560 Y27.9167 F2000.00
G01 X122.6560 Y26.2968 F2000.00
G01 X121.0360 Y26.2968 F2000.00
G01 X121.1160 Y26.3768 F2000.00
G01 X121.1160 Y27.8367 F2000.00
G01 X122.5760 Y27.8367 F2000.00
G01 X122.5760 Y26.3768 F2000.00
G01 X121.1160 Y26.3768 F2000.00
G01 X121.1960 Y26.4568 F2000.00
G01 X121.1960 Y27.7567 F2000.00
G01 X122.4960 Y27.7567 F2000.00
G01 X122.4960 Y26.4568 F2000.00
G01 X121.1960 Y26.4568 F2000.00
G01 X121.2760 Y26.5368 F2000.00
G01 X121.2760 Y27.6767 F2000.00
G01 X122.4160 Y27.6767 F2000.00
G01 X122.4160 Y26.5368 F2000.00
G01 X121.2760 Y26.5368 F2000.00
G01 X121.3560 Y26.6168 F2000.00
G01 X121.3560 Y27.5967 F2000.00
G01 X122.3360 Y27.5967 F2000.00
G01 X122.3360 Y26.6168 F2000.00
G01 X121.3560 Y26.6168 F2000.00
G01 X121.4360 Y26.6968 F2000.00
G01 X121.4360 Y27.5167 F2000.00
G01 X122.2560 Y27.5167 F2000.00
G01 X122.2560 Y26.6968 F2000.00
G01 X121.4360 Y26.6968 F2000.00
G01 X121.5160 Y26.7768 F2000.00
G01 X121.5160 Y27.4367 F2000.00
G01 X122.1760 Y27.4367 F2000.00
G01 X122.1760 Y26.7768 F2000.00
G01 X121.5160 Y26.7768 F2000.00
G01 X121.5960 Y26.8568 F2000.00
G01 X121.5960 Y27.3567 F2000.00
G01 X122.0960 Y27.3567 F2000.00
G01 X122.0960 Y26.8568 F2000.00
G01 X121.5960 Y26.8568 F2000.00
G01 X121.6760 Y26.9368 F2000.00
G01 X121.6760 Y27.2767 F2000.00
G01 X122.0160 Y27.2767 F2000.00
G01 X122.0160 Y26.9368 F2000.00
G01 X121.6760 Y26.9368 F2000.00
G01 X121.7560 Y27.0168 F2000.00
G01 X121.7560 Y27.1967 F2000.00
G01 X121.9360 Y27.1967 F2000.00
G01 X121.9360 Y27.0168 F2000.00
G01 X121.7560 Y27.0168 F2000.00
G01 X121.8360 Y27.0968 F2000.00
G01 X121.8360 Y27.1167 F2000.00
G01 X121.8560 Y27.1167 F2000.00
G01 X121.8560 Y27.0968 F2000.00
G01 X121.8360 Y27.0968 F2000.00
M5
G00 X125.3960 Y25.6568
G01 F60.00
M03 S40.0
G01 F2000.00
G01 X125.3960 Y28.5567 F2000.00
G01 X128.2960 Y28.5567 F2000.00
G01 X128.2960 Y25.6568 F2000.00
G01 X125.3960 Y25.6568 F2000.00
G01 X125.4760 Y25.7368 F2000.00
G01 X125.4760 Y28.4767 F2000.00
G01 X128.2160 Y28.4767 F2000.00
G01 X128.2160 Y25.7368 F2000.00
G01 X125.4760 Y25.7368 F2000.00
G01 X125.5560 Y25.8168 F2000.00
G01 X125.5560 Y28.3967 F2000.00
G01 X128.1360 Y28.3967 F2000.00
G01 X128.1360 Y25.8168 F2000.00
G01 X125.5560 Y25.8168 F2000.00
G01 X125.6360 Y25.8968 F2000.00
G01 X125.6360 Y28.3167 F2000.00
G01 X128.0560 Y28.3167 F2000.00
G01 X128.0560 Y25.8968 F2000.00
G01 X125.6360 Y25.8968 F2000.00
G01 X125.7160 Y25.9768 F2000.00
G01 X125.7160 Y28.2367 F2000.00
G01 X127.9760 Y28.2367 F2000.00
G01 X127.9760 Y25.9768 F2000.00
G01 X125.7160 Y25.9768 F2000.00
G01 X125.7960 Y26.0568 F2000.00
G01 X125.7960 Y28.1567 F2000.00
G01 X127.8960 Y28.1567 F2000.00
G01 X127.8960 Y26.0568 F2000.00
G01 X125.7960 Y26.0568 F2000.00
G01 X125.8760 Y26.1368 F2000.00
G01 X125.8760 Y28.0767 F2000.00
G01 X127.8160 Y28.0767 F2000.00
G01 X127.8160 Y26.1368 F2000.00
G01 X125.8760 Y26.1368 F2000.00
G01 X125.9560 Y26.2168 F2000.00
G01 X125.9560 Y27.9967 F2000.00
G01 X127.7360 Y27.9967 F2000.00
G01 X127.7360 Y26.2168 F2000.00
G01 X125.9560 Y26.2168 F2000.00
G01 X126.0360 Y26.2968 F2000.00
G01 X126.0360 Y27.9167 F2000.00
G01 X127.6560 Y27.9167 F2000.00
G01 X127.6560 Y26.2968 F2000.00
G01 X126.0360 Y26.2968 F2000.00
G01 X126.1160 Y26.3768 F2000.00
G01 X126.1160 Y27.8367 F2000.00
G01 X127.5760 Y27.8367 F2000.00
G01 X127.5760 Y26.3768 F2000.00
G01 X126.1160 Y26.3768 F2000.00
G01 X126.1960 Y26.4568 F2000.00
G01 X126.1960 Y27.7567 F2000.00
G01 X127.4960 Y27.7567 F2000.00
G01 X127.4960 Y26.4568 F2000.00
G01 X126.1960 Y26.4568 F2000.00
G01 X126.2760 Y26.5368 F2000.00
G01 X126.2760 Y27.6767 F2000.00
G01 X127.4160 Y27.6767 F2000.00
G01 X127.4160 Y26.5368 F2000.00
G01 X126.2760 Y26.5368 F2000.00
G01 X126.3560 Y26.6168 F2000.00
G01 X126.3560 Y27.5967 F2000.00
G01 X127.3360 Y27.5967 F2000.00
G01 X127.3360 Y26.6168 F2000.00
G01 X126.3560 Y26.6168 F2000.00
G01 X126.4360 Y26.6968 F2000.00
G01 X126.4360 Y27.5167 F2000.00
G01 X127.2560 Y27.5167 F2000.00
G01 X127.2560 Y26.6968 F2000.00
G01 X126.4360 Y26.6968 F2000.00
G01 X126.5160 Y26.7768 F2000.00
G01 X126.5160 Y27.4367 F2000.00
G01 X127.1760 Y27.4367 F2000.00
G01 X127.1760 Y26.7768 F2000.00
G01 X126.5160 Y26.7768 F2000.00
G01 X126.5960 Y26.8568 F2000.00
G01 X126.5960 Y27.3567 F2000.00
G01 X127.0960 Y27.3567 F2000.00
G01 X127.0960 Y26.8568 F2000.00
G01 X126.5960 Y26.8568 F2000.00
G01 X126.6760 Y26.9368 F2000.00
G01 X126.6760 Y27.2767 F2000.00
G01 X127.0160 Y27.2767 F2000.00
G01 X127.0160 Y26.9368 F2000.00
G01 X126.6760 Y26.9368 F2000.00
G01 X126.7560 Y27.0168 F2000.00
G01 X126.7560 Y27.1967 F2000.00
G01 X126.9360 Y27.1967 F2000.00
G01 X126.9360 Y27.0168 F2000.00
G01 X126.7560 Y27.0168 F2000.00
G01 X126.8360 Y27.0968 F2000.00
G01 X126.8360 Y27.1167 F2000.00
G01 X126.8560 Y27.1167 F2000.00
G01 X126.8560 Y27.0968 F2000.00
G01 X126.8360 Y27.0968 F2000.00
M5
G00 X130.3960 Y25.6568
G01 F60.00
M03 S40.0
G01 F2000.00
G01 X130.3960 Y28.5567 F2000.00
G01 X133.2960 Y28.5567 F2000.00
G01 X133.2960 Y25.6568 F2000.00
G01 X130.3960 Y25.6568 F2000.00
G01 X130.4760 Y25.7368 F2000.00
G01 X130.4760 Y28.4767 F2000.00
G01 X133.2160 Y28.4767 F2000.00
G01 X133.2160 Y25.7368 F2000.00
G01 X130.4760 Y25.7368 F2000.00
G01 X130.5560 Y25.8168 F2000.00
G01 X130.5560 Y28.3967 F2000.00
G01 X133.1360 Y28.3967 F2000.00
G01 X133.1360 Y25.8168 F2000.00
G01 X130.5560 Y25.8168 F2000.00
G01 X130.6360 Y25.8968 F2000.00
G01 X130.6360 Y28.3167 F2000.00
G01 X133.0560 Y28.3167 F2000.00
G01 X133.0560 Y25.8968 F2000.00
G01 X130.6360 Y25.8968 F2000.00
G01 X130.7160 Y25.9768 F2000.00
G01 X130.7160 Y28.2367 F2000.00
G01 X132.9760 Y28.2367 F2000.00
G01 X132.9760 Y25.9768 F2000.00
G01 X130.7160 Y25.9768 F2000.00
G01 X130.7960 Y26.0568 F2000.00
G01 X130.7960 Y28.1567 F2000.00
G01 X132.8960 Y28.1567 F2000.00
G01 X132.8960 Y26.0568 F2000.00
G01 X130.7960 Y26.0568 F2000.00
G01 X130.8760 Y26.1368 F2000.00
G01 X130.8760 Y28.0767 F2000.00
G01 X132.8160 Y28.0767 F2000.00
G01 X132.8160 Y26.1368 F2000.00
G01 X130.8760 Y26.1368 F2000.00
G01 X130.9560 Y26.2168 F2000.00
G01 X130.9560 Y27.9967 F2000.00
G01 X132.7360 Y27.9967 F2000.00
G01 X132.7360 Y26.2168 F2000.00
G01 X130.9560 Y26.2168 F2000.00
G01 X131.0360 Y26.2968 F2000.00
G01 X131.0360 Y27.9167 F2000.00
G01 X132.6560 Y27.9167 F2000.00
G01 X132.6560 Y26.2968 F2000.00
G01 X131.0360 Y26.2968 F2000.00
G01 X131.1160 Y26.3768 F2000.00
G01 X131.1160 Y27.8367 F2000.00
G01 X132.5760 Y27.8367 F2000.00
G01 X132.5760 Y26.3768 F2000.00
G01 X131.1160 Y26.3768 F2000.00
G01 X131.1960 Y26.4568 F2000.00
G01 X131.1960 Y27.7567 F2000.00
G01 X132.4960 Y27.7567 F2000.00
G01 X132.4960 Y26.4568 F2000.00
G01 X131.1960 Y26.4568 F2000.00
G01 X131.2760 Y26.5368 F2000.00
G01 X131.2760 Y27.6767 F2000.00
G01 X132.4160 Y27.6767 F2000.00
G01 X132.4160 Y26.5368 F2000.00
G01 X131.2760 Y26.5368 F2000.00
G01 X131.3560 Y26.6168 F2000.00
G01 X131.3560 Y27.5967 F2000.00
G01 X132.3360 Y27.5967 F2000.00
G01 X132.3360 Y26.6168 F2000.00
G01 X131.3560 Y26.6168 F2000.00
G01 X131.4360 Y26.6968 F2000.00
G01 X131.4360 Y27.5167 F2000.00
G01 X132.2560 Y27.5167 F2000.00
G01 X132.2560 Y26.6968 F2000.00
G01 X131.4360 Y26.6968 F2000.00
G01 X131.5160 Y26.7768 F2000.00
G01 X131.5160 Y27.4367 F2000.00
G01 X132.1760 Y27.4367 F2000.00
G01 X132.1760 Y26.7768 F2000.00
G01 X131.5160 Y26.7768 F2000.00
G01 X131.5960 Y26.8568 F2000.00
G01 X131.5960 Y27.3567 F2000.00
G01 X132.0960 Y27.3567 F2000.00
G01 X132.0960 Y26.8568 F2000.00
G01 X131.5960 Y26.8568 F2000.00
G01 X131.6760 Y26.9368 F2000.00
G01 X131.6760 Y27.2767 F2000.00
G01 X132.0160 Y27.2767 F2000.00
G01 X132.0160 Y26.9368 F2000.00
G01 X131.6760 Y26.9368 F2000.00
G01 X131.7560 Y27.0168 F2000.00
G01 X131.7560 Y27.1967 F2000.00
G01 X131.9360 Y27.1967 F2000.00
G01 X131.9360 Y27.0168 F2000.00
G01 X131.7560 Y27.0168 F2000.00
G01 X131.8360 Y27.0968 F2000.00
G01 X131.8360 Y27.1167 F2000.00
G01 X131.8560 Y27.1167 F2000.00
G01 X131.8560 Y27.0968 F2000.00
G01 X131.8360 Y27.0968 F2000.00
M5
G00 X136.3274 Y25.6568
G01 F60.00
M03 S40.0
G01 F2000.00
G01 X136.3274 Y28.5567 F2000.00
G01 X139.2274 Y28.5567 F2000.00
G01 X139.2274 Y25.6568 F2000.00
G01 X136.3274 Y25.6568 F2000.00
G01 X136.4074 Y25.7368 F2000.00
G01 X136.4074 Y28.4767 F2000.00
G01 X139.1474 Y28.4767 F2000.00
G01 X139.1474 Y25.7368 F2000.00
G01 X136.4074 Y25.7368 F2000.00
G01 X136.4874 Y25.8168 F2000.00
G01 X136.4874 Y28.3967 F2000.00
G01 X139.0674 Y28.3967 F2000.00
G01 X139.0674 Y25.8168 F2000.00
G01 X136.4874 Y25.8168 F2000.00
G01 X136.5674 Y25.8968 F2000.00
G01 X136.5674 Y28.3167 F2000.00
G01 X138.9874 Y28.3167 F2000.00
G01 X138.9874 Y25.8968 F2000.00
G01 X136.5674 Y25.8968 F2000.00
G01 X136.6474 Y25.9768 F2000.00
G01 X136.6474 Y28.2367 F2000.00
G01 X138.9074 Y28.2367 F2000.00
G01 X138.9074 Y25.9768 F2000.00
G01 X136.6474 Y25.9768 F2000.00
G01 X136.7274 Y26.0568 F2000.00
G01 X136.7274 Y28.1567 F2000.00
G01 X138.8274 Y28.1567 F2000.00
G01 X138.8274 Y26.0568 F2000.00
G01 X136.7274 Y26.0568 F2000.00
G01 X136.8074 Y26.1368 F2000.00
G01 X136.8074 Y28.0767 F2000.00
G01 X138.7474 Y28.0767 F2000.00
G01 X138.7474 Y26.1368 F2000.00
G01 X136.8074 Y26.1368 F2000.00
G01 X136.8874 Y26.2168 F2000.00
G01 X136.8874 Y27.9967 F2000.00
G01 X138.6674 Y27.9967 F2000.00
G01 X138.6674 Y26.2168 F2000.00
G01 X136.8874 Y26.2168 F2000.00
G01 X136.9674 Y26.2968 F2000.00
G01 X136.9674 Y27.9167 F2000.00
G01 X138.5874 Y27.9167 F2000.00
G01 X138.5874 Y26.2968 F2000.00
G01 X136.9674 Y26.2968 F2000.00
G01 X137.0474 Y26.3768 F2000.00
G01 X137.0474 Y27.8367 F2000.00
G01 X138.5074 Y27.8367 F2000.00
G01 X138.5074 Y26.3768 F2000.00
G01 X137.0474 Y26.3768 F2000.00
G01 X137.1274 Y26.4568 F2000.00
G01 X137.1274 Y27.7567 F2000.00
G01 X138.4274 Y27.7567 F2000.00
G01 X138.4274 Y26.4568 F2000.00
G01 X137.1274 Y26.4568 F2000.00
G01 X137.2074 Y26.5368 F2000.00
G01 X137.2074 Y27.6767 F2000.00
G01 X138.3474 Y27.6767 F2000.00
G01 X138.3474 Y26.5368 F2000.00
G01 X137.2074 Y26.5368 F2000.00
G01 X137.2874 Y26.6168 F2000.00
G01 X137.2874 Y27.5967 F2000.00
G01 X138.2674 Y27.5967 F2000.00
G01 X138.2674 Y26.6168 F2000.00
G01 X137.2874 Y26.6168 F2000.00
G01 X137.3674 Y26.6968 F2000.00
G01 X137.3674 Y27.5167 F2000.00
G01 X138.1874 Y27.5167 F2000.00
G01 X138.1874 Y26.6968 F2000.00
G01 X137.3674 Y26.6968 F2000.00
G01 X137.4474 Y26.7768 F2000.00
G01 X137.4474 Y27.4367 F2000.00
G01 X138.1074 Y27.4367 F2000.00
G01 X138.1074 Y26.7768 F2000.00
G01 X137.4474 Y26.7768 F2000.00
G01 X137.5274 Y26.8568 F2000.00
G01 X137.5274 Y27.3567 F2000.00
G01 X138.0274 Y27.3567 F2000.00
G01 X138.0274 Y26.8568 F2000.00
G01 X137.5274 Y26.8568 F2000.00
G01 X137.6074 Y26.9368 F2000.00
G01 X137.6074 Y27.2767 F2000.00
G01 X137.9474 Y27.2767 F2000.00
G01 X137.9474 Y26.9368 F2000.00
G01 X137.6074 Y26.9368 F2000.00
G01 X137.6874 Y27.0168 F2000.00
G01 X137.6874 Y27.1967 F2000.00
G01 X137.8674 Y27.1967 F2000.00
G01 X137.8674 Y27.0168 F2000.00
G01 X137.6874 Y27.0168 F2000.00
G01 X137.7674 Y27.0968 F2000.00
G01 X137.7674 Y27.1167 F2000.00
G01 X137.7874 Y27.1167 F2000.00
G01 X137.7874 Y27.0968 F2000.00
G01 X137.7674 Y27.0968 F2000.00
M5
G00 X141.3274 Y25.6568
G01 F60.00
M03 S40.0
G01 F2000.00
G01 X141.3274 Y28.5567 F2000.00
G01 X144.2274 Y28.5567 F2000.00
G01 X144.2274 Y25.6568 F2000.00
G01 X141.3274 Y25.6568 F2000.00
G01 X141.4074 Y25.7368 F2000.00
G01 X141.4074 Y28.4767 F2000.00
G01 X144.1474 Y28.4767 F2000.00
G01 X144.1474 Y25.7368 F2000.00
G01 X141.4074 Y25.7368 F2000.00
G01 X141.4874 Y25.8168 F2000.00
G01 X141.4874 Y28.3967 F2000.00
G01 X144.0674 Y28.3967 F2000.00
G01 X144.0674 Y25.8168 F2000.00
G01 X141.4874 Y25.8168 F2000.00
G01 X141.5674 Y25.8968 F2000.00
G01 X141.5674 Y28.3167 F2000.00
G01 X143.9874 Y28.3167 F2000.00
G01 X143.9874 Y25.8968 F2000.00
G01 X141.5674 Y25.8968 F2000.00
G01 X141.6474 Y25.9768 F2000.00
G01 X141.6474 Y28.2367 F2000.00
G01 X143.9074 Y28.2367 F2000.00
G01 X143.9074 Y25.9768 F2000.00
G01 X141.6474 Y25.9768 F2000.00
G01 X141.7274 Y26.0568 F2000.00
G01 X141.7274 Y28.1567 F2000.00
G01 X143.8274 Y28.1567 F2000.00
G01 X143.8274 Y26.0568 F2000.00
G01 X141.7274 Y26.0568 F2000.00
G01 X141.8074 Y26.1368 F2000.00
G01 X141.8074 Y28.0767 F2000.00
G01 X143.7474 Y28.0767 F2000.00
G01 X143.7474 Y26.1368 F2000.00
G01 X141.8074 Y26.1368 F2000.00
G01 X141.8874 Y26.2168 F2000.00
G01 X141.8874 Y27.9967 F2000.00
G01 X143.6674 Y27.9967 F2000.00
G01 X143.6674 Y26.2168 F2000.00
G01 X141.8874 Y26.2168 F2000.00
G01 X141.9674 Y26.2968 F2000.00
G01 X141.9674 Y27.9167 F2000.00
G01 X143.5874 Y27.9167 F2000.00
G01 X143.5874 Y26.2968 F2000.00
G01 X141.9674 Y26.2968 F2000.00
G01 X142.0474 Y26.3768 F2000.00
G01 X142.0474 Y27.8367 F2000.00
G01 X143.5074 Y27.8367 F2000.00
G01 X143.5074 Y26.3768 F2000.00
G01 X142.0474 Y26.3768 F2000.00
G01 X142.1274 Y26.4568 F2000.00
G01 X142.1274 Y27.7567 F2000.00
G01 X143.4274 Y27.7567 F2000.00
G01 X143.4274 Y26.4568 F2000.00
G01 X142.1274 Y26.4568 F2000.00
G01 X142.2074 Y26.5368 F2000.00
G01 X142.2074 Y27.6767 F2000.00
G01 X143.3474 Y27.6767 F2000.00
G01 X143.3474 Y26.5368 F2000.00
G01 X142.2074 Y26.5368 F2000.00
G01 X142.2874 Y26.6168 F2000.00
G01 X142.2874 Y27.5967 F2000.00
G01 X143.2674 Y27.5967 F2000.00
G01 X143.2674 Y26.6168 F2000.00
G01 X142.2874 Y26.6168 F2000.00
G01 X142.3674 Y26.6968 F2000.00
G01 X142.3674 Y27.5167 F2000.00
G01 X143.1874 Y27.5167 F2000.00
G01 X143.1874 Y26.6968 F2000.00
G01 X142.3674 Y26.6968 F2000.00
G01 X142.4474 Y26.7768 F2000.00
G01 X142.4474 Y27.4367 F2000.00
G01 X143.1074 Y27.4367 F2000.00
G01 X143.1074 Y26.7768 F2000.00
G01 X142.4474 Y26.7768 F2000.00
G01 X142.5274 Y26.8568 F2000.00
G01 X142.5274 Y27.3567 F2000.00
G01 X143.0274 Y27.3567 F2000.00
G01 X143.0274 Y26.8568 F2000.00
G01 X142.5274 Y26.8568 F2000.00
G01 X142.6074 Y26.9368 F2000.00
G01 X142.6074 Y27.2767 F2000.00
G01 X142.9474 Y27.2767 F2000.00
G01 X142.9474 Y26.9368 F2000.00
G01 X142.6074 Y26.9368 F2000.00
G01 X142.6874 Y27.0168 F2000.00
G01 X142.6874 Y27.1967 F2000.00
G01 X142.8674 Y27.1967 F2000.00
G01 X142.8674 Y27.0168 F2000.00
G01 X142.6874 Y27.0168 F2000.00
G01 X142.7674 Y27.0968 F2000.00
G01 X142.7674 Y27.1167 F2000.00
G01 X142.7874 Y27.1167 F2000.00
G01 X142.7874 Y27.0968 F2000.00
G01 X142.7674 Y27.0968 F2000.00
M5
G00 X146.3274 Y25.6568
G01 F60.00
M03 S40.0
G01 F2000.00
G01 X146.3274 Y28.5567 F2000.00
G01 X149.2274 Y28.5567 F2000.00
G01 X149.2274 Y25.6568 F2000.00
G01 X146.3274 Y25.6568 F2000.00
G01 X146.4074 Y25.7368 F2000.00
G01 X146.4074 Y28.4767 F2000.00
G01 X149.1474 Y28.4767 F2000.00
G01 X149.1474 Y25.7368 F2000.00
G01 X146.4074 Y25.7368 F2000.00
G01 X146.4874 Y25.8168 F2000.00
G01 X146.4874 Y28.3967 F2000.00
G01 X149.0674 Y28.3967 F2000.00
G01 X149.0674 Y25.8168 F2000.00
G01 X146.4874 Y25.8168 F2000.00
G01 X146.5674 Y25.8968 F2000.00
G01 X146.5674 Y28.3167 F2000.00
G01 X148.9874 Y28.3167 F2000.00
G01 X148.9874 Y25.8968 F2000.00
G01 X146.5674 Y25.8968 F2000.00
G01 X146.6474 Y25.9768 F2000.00
G01 X146.6474 Y28.2367 F2000.00
G01 X148.9074 Y28.2367 F2000.00
G01 X148.9074 Y25.9768 F2000.00
G01 X146.6474 Y25.9768 F2000.00
G01 X146.7274 Y26.0568 F2000.00
G01 X146.7274 Y28.1567 F2000.00
G01 X148.8274 Y28.1567 F2000.00
G01 X148.8274 Y26.0568 F2000.00
G01 X146.7274 Y26.0568 F2000.00
G01 X146.8074 Y26.1368 F2000.00
G01 X146.8074 Y28.0767 F2000.00
G01 X148.7474 Y28.0767 F2000.00
G01 X148.7474 Y26.1368 F2000.00
G01 X146.8074 Y26.1368 F2000.00
G01 X146.8874 Y26.2168 F2000.00
G01 X146.8874 Y27.9967 F2000.00
G01 X148.6674 Y27.9967 F2000.00
G01 X148.6674 Y26.2168 F2000.00
G01 X146.8874 Y26.2168 F2000.00
G01 X146.9674 Y26.2968 F2000.00
G01 X146.9674 Y27.9167 F2000.00
G01 X148.5874 Y27.9167 F2000.00
G01 X148.5874 Y26.2968 F2000.00
G01 X146.9674 Y26.2968 F2000.00
G01 X147.0474 Y26.3768 F2000.00
G01 X147.0474 Y27.8367 F2000.00
G01 X148.5074 Y27.8367 F2000.00
G01 X148.5074 Y26.3768 F2000.00
G01 X147.0474 Y26.3768 F2000.00
G01 X147.1274 Y26.4568 F2000.00
G01 X147.1274 Y27.7567 F2000.00
G01 X148.4274 Y27.7567 F2000.00
G01 X148.4274 Y26.4568 F2000.00
G01 X147.1274 Y26.4568 F2000.00
G01 X147.2074 Y26.5368 F2000.00
G01 X147.2074 Y27.6767 F2000.00
G01 X148.3474 Y27.6767 F2000.00
G01 X148.3474 Y26.5368 F2000.00
G01 X147.2074 Y26.5368 F2000.00
G01 X147.2874 Y26.6168 F2000.00
G01 X147.2874 Y27.5967 F2000.00
G01 X148.2674 Y27.5967 F2000.00
G01 X148.2674 Y26.6168 F2000.00
G01 X147.2874 Y26.6168 F2000.00
G01 X147.3674 Y26.6968 F2000.00
G01 X147.3674 Y27.5167 F2000.00
G01 X148.1874 Y27.5167 F2000.00
G01 X148.1874 Y26.6968 F2000.00
G01 X147.3674 Y26.6968 F2000.00
G01 X147.4474 Y26.7768 F2000.00
G01 X147.4474 Y27.4367 F2000.00
G01 X148.1074 Y27.4367 F2000.00
G01 X148.1074 Y26.7768 F2000.00
G01 X147.4474 Y26.7768 F2000.00
G01 X147.5274 Y26.8568 F2000.00
G01 X147.5274 Y27.3567 F2000.00
G01 X148.0274 Y27.3567 F2000.00
G01 X148.0274 Y26.8568 F2000.00
G01 X147.5274 Y26.8568 F2000.00
G01 X147.6074 Y26.9368 F2000.00
G01 X147.6074 Y27.2767 F2000.00
G01 X147.9474 Y27.2767 F2000.00
G01 X147.9474 Y26.9368 F2000.00
G01 X147.6074 Y26.9368 F2000.00
G01 X147.6874 Y27.0168 F2000.00
G01 X147.6874 Y27.1967 F2000.00
G01 X147.8674 Y27.1967 F2000.00
G01 X147.8674 Y27.0168 F2000.00
G01 X147.6874 Y27.0168 F2000.00
G01 X147.7674 Y27.0968 F2000.00
G01 X147.7674 Y27.1167 F2000.00
G01 X147.7874 Y27.1167 F2000.00
G01 X147.7874 Y27.0968 F2000.00
G01 X147.7674 Y27.0968 F2000.00
M5
G00 X152.2588 Y25.6568
G01 F60.00
M03 S40.0
G01 F2000.00
G01 X152.2588 Y28.5567 F2000.00
G01 X155.1588 Y28.5567 F2000.00
G01 X155.1588 Y25.6568 F2000.00
G01 X152.2588 Y25.6568 F2000.00
G01 X152.3388 Y25.7368 F2000.00
G01 X152.3388 Y28.4767 F2000.00
G01 X155.0788 Y28.4767 F2000.00
G01 X155.0788 Y25.7368 F2000.00
G01 X152.3388 Y25.7368 F2000.00
G01 X152.4188 Y25.8168 F2000.00
G01 X152.4188 Y28.3967 F2000.00
G01 X154.9988 Y28.3967 F2000.00
G01 X154.9988 Y25.8168 F2000.00
G01 X152.4188 Y25.8168 F2000.00
G01 X152.4988 Y25.8968 F2000.00
G01 X152.4988 Y28.3167 F2000.00
G01 X154.9188 Y28.3167 F2000.00
G01 X154.9188 Y25.8968 F2000.00
G01 X152.4988 Y25.8968 F2000.00
G01 X152.5788 Y25.9768 F2000.00
G01 X152.5788 Y28.2367 F2000.00
G01 X154.8388 Y28.2367 F2000.00
G01 X154.8388 Y25.9768 F2000.00
G01 X152.5788 Y25.9768 F2000.00
G01 X152.6588 Y26.0568 F2000.00
G01 X152.6588 Y28.1567 F2000.00
G01 X154.7588 Y28.1567 F2000.00
G01 X154.7588 Y26.0568 F2000.00
G01 X152.6588 Y26.0568 F2000.00
G01 X152.7388 Y26.1368 F2000.00
G01 X152.7388 Y28.0767 F2000.00
G01 X154.6788 Y28.0767 F2000.00
G01 X154.6788 Y26.1368 F2000.00
G01 X152.7388 Y26.1368 F2000.00
G01 X152.8188 Y26.2168 F2000.00
G01 X152.8188 Y27.9967 F2000.00
G01 X154.5988 Y27.9967 F2000.00
G01 X154.5988 Y26.2168 F2000.00
G01 X152.8188 Y26.2168 F2000.00
G01 X152.8988 Y26.2968 F2000.00
G01 X152.8988 Y27.9167 F2000.00
G01 X154.5188 Y27.9167 F2000.00
G01 X154.5188 Y26.2968 F2000.00
G01 X152.8988 Y26.2968 F2000.00
G01 X152.9788 Y26.3768 F2000.00
G01 X152.9788 Y27.8367 F2000.00
G01 X154.4388 Y27.8367 F2000.00
G01 X154.4388 Y26.3768 F2000.00
G01 X152.9788 Y26.3768 F2000.00
G01 X153.0588 Y26.4568 F2000.00
G01 X153.0588 Y27.7567 F2000.00
G01 X154.3588 Y27.7567 F2000.00
G01 X154.3588 Y26.4568 F2000.00
G01 X153.0588 Y26.4568 F2000.00
G01 X153.1388 Y26.5368 F2000.00
G01 X153.1388 Y27.6767 F2000.00
G01 X154.2788 Y27.6767 F2000.00
G01 X154.2788 Y26.5368 F2000.00
G01 X153.1388 Y26.5368 F2000.00
G01 X153.2188 Y26.6168 F2000.00
G01 X153.2188 Y27.5967 F2000.00
G01 X154.1988 Y27.5967 F2000.00
G01 X154.1988 Y26.6168 F2000.00
G01 X153.2188 Y26.6168 F2000.00
G01 X153.2988 Y26.6968 F2000.00
G01 X153.2988 Y27.5167 F2000.00
G01 X154.1188 Y27.5167 F2000.00
G01 X154.1188 Y26.6968 F2000.00
G01 X153.2988 Y26.6968 F2000.00
G01 X153.3788 Y26.7768 F2000.00
G01 X153.3788 Y27.4367 F2000.00
G01 X154.0388 Y27.4367 F2000.00
G01 X154.0388 Y26.7768 F2000.00
G01 X153.3788 Y26.7768 F2000.00
G01 X153.4588 Y26.8568 F2000.00
G01 X153.4588 Y27.3567 F2000.00
G01 X153.9588 Y27.3567 F2000.00
G01 X153.9588 Y26.8568 F2000.00
G01 X153.4588 Y26.8568 F2000.00
G01 X153.5388 Y26.9368 F2000.00
G01 X153.5388 Y27.2767 F2000.00
G01 X153.8788 Y27.2767 F2000.00
G01 X153.8788 Y26.9368 F2000.00
G01 X153.5388 Y26.9368 F2000.00
G01 X153.6188 Y27.0168 F2000.00
G01 X153.6188 Y27.1967 F2000.00
G01 X153.7988 Y27.1967 F2000.00
G01 X153.7988 Y27.0168 F2000.00
G01 X153.6188 Y27.0168 F2000.00
G01 X153.6988 Y27.0968 F2000.00
G01 X153.6988 Y27.1167 F2000.00
G01 X153.7188 Y27.1167 F2000.00
G01 X153.7188 Y27.0968 F2000.00
G01 X153.6988 Y27.0968 F2000.00
M5
G00 X157.2588 Y25.6568
G01 F60.00
M03 S40.0
G01 F2000.00
G01 X157.2588 Y28.5567 F2000.00
G01 X160.1588 Y28.5567 F2000.00
G01 X160.1588 Y25.6568 F2000.00
G01 X157.2588 Y25.6568 F2000.00
G01 X157.3388 Y25.7368 F2000.00
G01 X157.3388 Y28.4767 F2000.00
G01 X160.0788 Y28.4767 F2000.00
G01 X160.0788 Y25.7368 F2000.00
G01 X157.3388 Y25.7368 F2000.00
G01 X157.4188 Y25.8168 F2000.00
G01 X157.4188 Y28.3967 F2000.00
G01 X159.9988 Y28.3967 F2000.00
G01 X159.9988 Y25.8168 F2000.00
G01 X157.4188 Y25.8168 F2000.00
G01 X157.4988 Y25.8968 F2000.00
G01 X157.4988 Y28.3167 F2000.00
G01 X159.9188 Y28.3167 F2000.00
G01 X159.9188 Y25.8968 F2000.00
G01 X157.4988 Y25.8968 F2000.00
G01 X157.5788 Y25.9768 F2000.00
G01 X157.5788 Y28.2367 F2000.00
G01 X159.8388 Y28.2367 F2000.00
G01 X159.8388 Y25.9768 F2000.00
G01 X157.5788 Y25.9768 F2000.00
G01 X157.6588 Y26.0568 F2000.00
G01 X157.6588 Y28.1567 F2000.00
G01 X159.7588 Y28.1567 F2000.00
G01 X159.7588 Y26.0568 F2000.00
G01 X157.6588 Y26.0568 F2000.00
G01 X157.7388 Y26.1368 F2000.00
G01 X157.7388 Y28.0767 F2000.00
G01 X159.6788 Y28.0767 F2000.00
G01 X159.6788 Y26.1368 F2000.00
G01 X157.7388 Y26.1368 F2000.00
G01 X157.8188 Y26.2168 F2000.00
G01 X157.8188 Y27.9967 F2000.00
G01 X159.5988 Y27.9967 F2000.00
G01 X159.5988 Y26.2168 F2000.00
G01 X157.8188 Y26.2168 F2000.00
G01 X157.8988 Y26.2968 F2000.00
G01 X157.8988 Y27.9167 F2000.00
G01 X159.5188 Y27.9167 F2000.00
G01 X159.5188 Y26.2968 F2000.00
G01 X157.8988 Y26.2968 F2000.00
G01 X157.9788 Y26.3768 F2000.00
G01 X157.9788 Y27.8367 F2000.00
G01 X159.4388 Y27.8367 F2000.00
G01 X159.4388 Y26.3768 F2000.00
G01 X157.9788 Y26.3768 F2000.00
G01 X158.0588 Y26.4568 F2000.00
G01 X158.0588 Y27.7567 F2000.00
G01 X159.3588 Y27.7567 F2000.00
G01 X159.3588 Y26.4568 F2000.00
G01 X158.0588 Y26.4568 F2000.00
G01 X158.1388 Y26.5368 F2000.00
G01 X158.1388 Y27.6767 F2000.00
G01 X159.2788 Y27.6767 F2000.00
G01 X159.2788 Y26.5368 F2000.00
G01 X158.1388 Y26.5368 F2000.00
G01 X158.2188 Y26.6168 F2000.00
G01 X158.2188 Y27.5967 F2000.00
G01 X159.1988 Y27.5967 F2000.00
G01 X159.1988 Y26.6168 F2000.00
G01 X158.2188 Y26.6168 F2000.00
G01 X158.2988 Y26.6968 F2000.00
G01 X158.2988 Y27.5167 F2000.00
G01 X159.1188 Y27.5167 F2000.00
G01 X159.1188 Y26.6968 F2000.00
G01 X158.2988 Y26.6968 F2000.00
G01 X158.3788 Y26.7768 F2000.00
G01 X158.3788 Y27.4367 F2000.00
G01 X159.0388 Y27.4367 F2000.00
G01 X159.0388 Y26.7768 F2000.00
G01 X158.3788 Y26.7768 F2000.00
G01 X158.4588 Y26.8568 F2000.00
G01 X158.4588 Y27.3567 F2000.00
G01 X158.9588 Y27.3567 F2000.00
G01 X158.9588 Y26.8568 F2000.00
G01 X158.4588 Y26.8568 F2000.00
G01 X158.5388 Y26.9368 F2000.00
G01 X158.5388 Y27.2767 F2000.00
G01 X158.8788 Y27.2767 F2000.00
G01 X158.8788 Y26.9368 F2000.00
G01 X158.5388 Y26.9368 F2000.00
G01 X158.6188 Y27.0168 F2000.00
G01 X158.6188 Y27.1967 F2000.00
G01 X158.7988 Y27.1967 F2000.00
G01 X158.7988 Y27.0168 F2000.00
G01 X158.6188 Y27.0168 F2000.00
G01 X158.6988 Y27.0968 F2000.00
G01 X158.6988 Y27.1167 F2000.00
G01 X158.7188 Y27.1167 F2000.00
G01 X158.7188 Y27.0968 F2000.00
G01 X158.6988 Y27.0968 F2000.00
M5
G00 X162.2588 Y25.6568
G01 F60.00
M03 S40.0
G01 F2000.00
G01 X162.2588 Y28.5567 F2000.00
G01 X165.1588 Y28.5567 F2000.00
G01 X165.1588 Y25.6568 F2000.00
G01 X162.2588 Y25.6568 F2000.00
G01 X162.3388 Y25.7368 F2000.00
G01 X162.3388 Y28.4767 F2000.00
G01 X165.0788 Y28.4767 F2000.00
G01 X165.0788 Y25.7368 F2000.00
G01 X162.3388 Y25.7368 F2000.00
G01 X162.4188 Y25.8168 F2000.00
G01 X162.4188 Y28.3967 F2000.00
G01 X164.9988 Y28.3967 F2000.00
G01 X164.9988 Y25.8168 F2000.00
G01 X162.4188 Y25.8168 F2000.00
G01 X162.4988 Y25.8968 F2000.00
G01 X162.4988 Y28.3167 F2000.00
G01 X164.9188 Y28.3167 F2000.00
G01 X164.9188 Y25.8968 F2000.00
G01 X162.4988 Y25.8968 F2000.00
G01 X162.5788 Y25.9768 F2000.00
G01 X162.5788 Y28.2367 F2000.00
G01 X164.8388 Y28.2367 F2000.00
G01 X164.8388 Y25.9768 F2000.00
G01 X162.5788 Y25.9768 F2000.00
G01 X162.6588 Y26.0568 F2000.00
G01 X162.6588 Y28.1567 F2000.00
G01 X164.7588 Y28.1567 F2000.00
G01 X164.7588 Y26.0568 F2000.00
G01 X162.6588 Y26.0568 F2000.00
G01 X162.7388 Y26.1368 F2000.00
G01 X162.7388 Y28.0767 F2000.00
G01 X164.6788 Y28.0767 F2000.00
G01 X164.6788 Y26.1368 F2000.00
G01 X162.7388 Y26.1368 F2000.00
G01 X162.8188 Y26.2168 F2000.00
G01 X162.8188 Y27.9967 F2000.00
G01 X164.5988 Y27.9967 F2000.00
G01 X164.5988 Y26.2168 F2000.00
G01 X162.8188 Y26.2168 F2000.00
G01 X162.8988 Y26.2968 F2000.00
G01 X162.8988 Y27.9167 F2000.00
G01 X164.5188 Y27.9167 F2000.00
G01 X164.5188 Y26.2968 F2000.00
G01 X162.8988 Y26.2968 F2000.00
G01 X162.9788 Y26.3768 F2000.00
G01 X162.9788 Y27.8367 F2000.00
G01 X164.4388 Y27.8367 F2000.00
G01 X164.4388 Y26.3768 F2000.00
G01 X162.9788 Y26.3768 F2000.00
G01 X163.0588 Y26.4568 F2000.00
G01 X163.0588 Y27.7567 F2000.00
G01 X164.3588 Y27.7567 F2000.00
G01 X164.3588 Y26.4568 F2000.00
G01 X163.0588 Y26.4568 F2000.00
G01 X163.1388 Y26.5368 F2000.00
G01 X163.1388 Y27.6767 F2000.00
G01 X164.2788 Y27.6767 F2000.00
G01 X164.2788 Y26.5368 F2000.00
G01 X163.1388 Y26.5368 F2000.00
G01 X163.2188 Y26.6168 F2000.00
G01 X163.2188 Y27.5967 F2000.00
G01 X164.1988 Y27.5967 F2000.00
G01 X164.1988 Y26.6168 F2000.00
G01 X163.2188 Y26.6168 F2000.00
G01 X163.2988 Y26.6968 F2000.00
G01 X163.2988 Y27.5167 F2000.00
G01 X164.1188 Y27.5167 F2000.00
G01 X164.1188 Y26.6968 F2000.00
G01 X163.2988 Y26.6968 F2000.00
G01 X163.3788 Y26.7768 F2000.00
G01 X163.3788 Y27.4367 F2000.00
G01 X164.0388 Y27.4367 F2000.00
G01 X164.0388 Y26.7768 F2000.00
G01 X163.3788 Y26.7768 F2000.00
G01 X163.4588 Y26.8568 F2000.00
G01 X163.4588 Y27.3567 F2000.00
G01 X163.9588 Y27.3567 F2000.00
G01 X163.9588 Y26.8568 F2000.00
G01 X163.4588 Y26.8568 F2000.00
G01 X163.5388 Y26.9368 F2000.00
G01 X163.5388 Y27.2767 F2000.00
G01 X163.8788 Y27.2767 F2000.00
G01 X163.8788 Y26.9368 F2000.00
G01 X163.5388 Y26.9368 F2000.00
G01 X163.6188 Y27.0168 F2000.00
G01 X163.6188 Y27.1967 F2000.00
G01 X163.7988 Y27.1967 F2000.00
G01 X163.7988 Y27.0168 F2000.00
G01 X163.6188 Y27.0168 F2000.00
G01 X163.6988 Y27.0968 F2000.00
G01 X163.6988 Y27.1167 F2000.00
G01 X163.7188 Y27.1167 F2000.00
G01 X163.7188 Y27.0968 F2000.00
G01 X163.6988 Y27.0968 F2000.00
M5
G00 X163.2860 Y36.0752
G01 F60.00
M03 S40.0
G01 F2000.00
G01 X163.2860 Y38.9752 F2000.00
G01 X166.1860 Y38.9752 F2000.00
G01 X166.1860 Y36.0752 F2000.00
G01 X163.2860 Y36.0752 F2000.00
G01 X163.3660 Y36.1552 F2000.00
G01 X163.3660 Y38.8952 F2000.00
G01 X166.1060 Y38.8952 F2000.00
G01 X166.1060 Y36.1552 F2000.00
G01 X163.3660 Y36.1552 F2000.00
G01 X163.4460 Y36.2352 F2000.00
G01 X163.4460 Y38.8152 F2000.00
G01 X166.0260 Y38.8152 F2000.00
G01 X166.0260 Y36.2352 F2000.00
G01 X163.4460 Y36.2352 F2000.00
G01 X163.5260 Y36.3152 F2000.00
G01 X163.5260 Y38.7352 F2000.00
G01 X165.9460 Y38.7352 F2000.00
G01 X165.9460 Y36.3152 F2000.00
G01 X163.5260 Y36.3152 F2000.00
G01 X163.6060 Y36.3952 F2000.00
G01 X163.6060 Y38.6552 F2000.00
G01 X165.8660 Y38.6552 F2000.00
G01 X165.8660 Y36.3952 F2000.00
G01 X163.6060 Y36.3952 F2000.00
G01 X163.6860 Y36.4752 F2000.00
G01 X163.6860 Y38.5752 F2000.00
G01 X165.7860 Y38.5752 F2000.00
G01 X165.7860 Y36.4752 F2000.00
G01 X163.6860 Y36.4752 F2000.00
G01 X163.7660 Y36.5552 F2000.00
G01 X163.7660 Y38.4952 F2000.00
G01 X165.7060 Y38.4952 F2000.00
G01 X165.7060 Y36.5552 F2000.00
G01 X163.7660 Y36.5552 F2000.00
G01 X163.8460 Y36.6352 F2000.00
G01 X163.8460 Y38.4152 F2000.00
G01 X165.6260 Y38.4152 F2000.00
G01 X165.6260 Y36.6352 F2000.00
G01 X163.8460 Y36.6352 F2000.00
G01 X163.9260 Y36.7152 F2000.00
G01 X163.9260 Y38.3352 F2000.00
G01 X165.5460 Y38.3352 F2000.00
G01 X165.5460 Y36.7152 F2000.00
G01 X163.9260 Y36.7152 F2000.00
G01 X164.0060 Y36.7952 F2000.00
G01 X164.0060 Y38.2552 F2000.00
G01 X165.4660 Y38.2552 F2000.00
G01 X165.4660 Y36.7952 F2000.00
G01 X164.0060 Y36.7952 F2000.00
G01 X164.0860 Y36.8752 F2000.00
G01 X164.0860 Y38.1752 F2000.00
G01 X165.3860 Y38.1752 F2000.00
G01 X165.3860 Y36.8752 F2000.00
G01 X164.0860 Y36.8752 F2000.00
G01 X164.1660 Y36.9552 F2000.00
G01 X164.1660 Y38.0952 F2000.00
G01 X165.3060 Y38.0952 F2000.00
G01 X165.3060 Y36.9552 F2000.00
G01 X164.1660 Y36.9552 F2000.00
G01 X164.2460 Y37.0352 F2000.00
G01 X164.2460 Y38.0152 F2000.00
G01 X165.2260 Y38.0152 F2000.00
G01 X165.2260 Y37.0352 F2000.00
G01 X164.2460 Y37.0352 F2000.00
G01 X164.3260 Y37.1152 F2000.00
G01 X164.3260 Y37.9352 F2000.00
G01 X165.1460 Y37.9352 F2000.00
G01 X165.1460 Y37.1152 F2000.00
G01 X164.3260 Y37.1152 F2000.00
G01 X164.4060 Y37.1952 F2000.00
G01 X164.4060 Y37.8552 F2000.00
G01 X165.0660 Y37.8552 F2000.00
G01 X165.0660 Y37.1952 F2000.00
G01 X164.4060 Y37.1952 F2000.00
G01 X164.4860 Y37.2752 F2000.00
G01 X164.4860 Y37.7752 F2000.00
G01 X164.9860 Y37.7752 F2000.00
G01 X164.9860 Y37.2752 F2000.00
G01 X164.4860 Y37.2752 F2000.00
G01 X164.5660 Y37.3552 F2000.00
G01 X164.5660 Y37.6952 F2000.00
G01 X164.9060 Y37.6952 F2000.00
G01 X164.9060 Y37.3552 F2000.00
G01 X164.5660 Y37.3552 F2000.00
G01 X164.6460 Y37.4352 F2000.00
G01 X164.6460 Y37.6152 F2000.00
G01 X164.8260 Y37.6152 F2000.00
G01 X164.8260 Y37.4352 F2000.00
G01 X164.6460 Y37.4352 F2000.00
G01 X164.7260 Y37.5152 F2000.00
G01 X164.7260 Y37.5352 F2000.00
G01 X164.7460 Y37.5352 F2000.00
G01 X164.7460 Y37.5152 F2000.00
G01 X164.7260 Y37.5152 F2000.00
M5
G00 X163.2860 Y48.2752
G01 F60.00
M03 S40.0
G01 F2000.00
G01 X163.2860 Y51.1752 F2000.00
G01 X166.1860 Y51.1752 F2000.00
G01 X166.1860 Y48.2752 F2000.00
G01 X163.2860 Y48.2752 F2000.00
G01 X163.3660 Y48.3552 F2000.00
G01 X163.3660 Y51.0952 F2000.00
G01 X166.1060 Y51.0952 F2000.00
G01 X166.1060 Y48.3552 F2000.00
G01 X163.3660 Y48.3552 F2000.00
G01 X163.4460 Y48.4352 F2000.00
G01 X163.4460 Y51.0152 F2000.00
G01 X166.0260 Y51.0152 F2000.00
G01 X166.0260 Y48.4352 F2000.00
G01 X163.4460 Y48.4352 F2000.00
G01 X163.5260 Y48.5152 F2000.00
G01 X163.5260 Y50.9352 F2000.00
G01 X165.9460 Y50.9352 F2000.00
G01 X165.9460 Y48.5152 F2000.00
G01 X163.5260 Y48.5152 F2000.00
G01 X163.6060 Y48.5952 F2000.00
G01 X163.6060 Y50.8552 F2000.00
G01 X165.8660 Y50.8552 F2000.00
G01 X165.8660 Y48.5952 F2000.00
G01 X163.6060 Y48.5952 F2000.00
G01 X163.6860 Y48.6752 F2000.00
G01 X163.6860 Y50.7752 F2000.00
G01 X165.7860 Y50.7752 F2000.00
G01 X165.7860 Y48.6752 F2000.00
G01 X163.6860 Y48.6752 F2000.00
G01 X163.7660 Y48.7552 F2000.00
G01 X163.7660 Y50.6952 F2000.00
G01 X165.7060 Y50.6952 F2000.00
G01 X165.7060 Y48.7552 F2000.00
G01 X163.7660 Y48.7552 F2000.00
G01 X163.8460 Y48.8352 F2000.00
G01 X163.8460 Y50.6152 F2000.00
G01 X165.6260 Y50.6152 F2000.00
G01 X165.6260 Y48.8352 F2000.00
G01 X163.8460 Y48.8352 F2000.00
G01 X163.9260 Y48.9152 F2000.00
G01 X163.9260 Y50.5352 F2000.00
G01 X165.5460 Y50.5352 F2000.00
G01 X165.5460 Y48.9152 F2000.00
G01 X163.9260 Y48.9152 F2000.00
G01 X164.0060 Y48.9952 F2000.00
G01 X164.0060 Y50.4552 F2000.00
G01 X165.4660 Y50.4552 F2000.00
G01 X165.4660 Y48.9952 F2000.00
G01 X164.0060 Y48.9952 F2000.00
G01 X164.0860 Y49.0752 F2000.00
G01 X164.0860 Y50.3752 F2000.00
G01 X165.3860 Y50.3752 F2000.00
G01 X165.3860 Y49.0752 F2000.00
G01 X164.0860 Y49.0752 F2000.00
G01 X164.1660 Y49.1552 F2000.00
G01 X164.1660 Y50.2952 F2000.00
G01 X165.3060 Y50.2952 F2000.00
G01 X165.3060 Y49.1552 F2000.00
G01 X164.1660 Y49.1552 F2000.00
G01 X164.2460 Y49.2352 F2000.00
G01 X164.2460 Y50.2152 F2000.00
G01 X165.2260 Y50.2152 F2000.00
G01 X165.2260 Y49.2352 F2000.00
G01 X164.2460 Y49.2352 F2000.00
G01 X164.3260 Y49.3152 F2000.00
G01 X164.3260 Y50.1352 F2000.00
G01 X165.1460 Y50.1352 F2000.00
G01 X165.1460 Y49.3152 F2000.00
G01 X164.3260 Y49.3152 F2000.00
G01 X164.4060 Y49.3952 F2000.00
G01 X164.4060 Y50.0552 F2000.00
G01 X165.0660 Y50.0552 F2000.00
G01 X165.0660 Y49.3952 F2000.00
G01 X164.4060 Y49.3952 F2000.00
G01 X164.4860 Y49.4752 F2000.00
G01 X164.4860 Y49.9752 F2000.00
G01 X164.9860 Y49.9752 F2000.00
G01 X164.9860 Y49.4752 F2000.00
G01 X164.4860 Y49.4752 F2000.00
G01 X164.5660 Y49.5552 F2000.00
G01 X164.5660 Y49.8952 F2000.00
G01 X164.9060 Y49.8952 F2000.00
G01 X164.9060 Y49.5552 F2000.00
G01 X164.5660 Y49.5552 F2000.00
G01 X164.6460 Y49.6352 F2000.00
G01 X164.6460 Y49.8152 F2000.00
G01 X164.8260 Y49.8152 F2000.00
G01 X164.8260 Y49.6352 F2000.00
G01 X164.6460 Y49.6352 F2000.00
G01 X164.7260 Y49.7152 F2000.00
G01 X164.7260 Y49.7352 F2000.00
G01 X164.7460 Y49.7352 F2000.00
G01 X164.7460 Y49.7152 F2000.00
G01 X164.7260 Y49.7152 F2000.00
M5
G00 X158.7260 Y51.7152
G01 F60.00
M03 S40.0
G01 F2000.00
G01 X158.7460 Y51.7152 F2000.00
G01 X158.7460 Y51.7352 F2000.00
G01 X158.7260 Y51.7352 F2000.00
G01 X158.7260 Y51.7152 F2000.00
G01 X158.6460 Y51.6352 F2000.00
G01 X158.8260 Y51.6352 F2000.00
G01 X158.8260 Y51.8152 F2000.00
G01 X158.6460 Y51.8152 F2000.00
G01 X158.6460 Y51.6352 F2000.00
G01 X158.5660 Y51.5552 F2000.00
G01 X158.9060 Y51.5552 F2000.00
G01 X158.9060 Y51.8952 F2000.00
G01 X158.5660 Y51.8952 F2000.00
G01 X158.5660 Y51.5552 F2000.00
G01 X158.4860 Y51.4752 F2000.00
G01 X158.9860 Y51.4752 F2000.00
G01 X158.9860 Y51.9752 F2000.00
G01 X158.4860 Y51.9752 F2000.00
G01 X158.4860 Y51.4752 F2000.00
G01 X158.4060 Y51.3952 F2000.00
G01 X159.0660 Y51.3952 F2000.00
G01 X159.0660 Y52.0552 F2000.00
G01 X158.4060 Y52.0552 F2000.00
G01 X158.4060 Y51.3952 F2000.00
G01 X158.3260 Y51.3152 F2000.00
G01 X159.1460 Y51.3152 F2000.00
G01 X159.1460 Y52.1352 F2000.00
G01 X158.3260 Y52.1352 F2000.00
G01 X158.3260 Y51.3152 F2000.00
G01 X158.2460 Y51.2352 F2000.00
G01 X159.2260 Y51.2352 F2000.00
G01 X159.2260 Y52.2152 F2000.00
G01 X158.2460 Y52.2152 F2000.00
G01 X158.2460 Y51.2352 F2000.00
G01 X158.1660 Y51.1552 F2000.00
G01 X159.3060 Y51.1552 F2000.00
G01 X159.3060 Y52.2952 F2000.00
G01 X158.1660 Y52.2952 F2000.00
G01 X158.1660 Y51.1552 F2000.00
G01 X158.0860 Y51.0752 F2000.00
G01 X159.3860 Y51.0752 F2000.00
G01 X159.3860 Y52.3752 F2000.00
G01 X158.0860 Y52.3752 F2000.00
G01 X158.0860 Y51.0752 F2000.00
G01 X158.0060 Y50.9952 F2000.00
G01 X159.4660 Y50.9952 F2000.00
G01 X159.4660 Y52.4552 F2000.00
G01 X158.0060 Y52.4552 F2000.00
G01 X158.0060 Y50.9952 F2000.00
G01 X157.9260 Y50.9152 F2000.00
G01 X159.5460 Y50.9152 F2000.00
G01 X159.5460 Y52.5352 F2000.00
G01 X157.9260 Y52.5352 F2000.00
G01 X157.9260 Y50.9152 F2000.00
G01 X157.8460 Y50.8352 F2000.00
G01 X159.6260 Y50.8352 F2000.00
G01 X159.6260 Y52.6152 F2000.00
G01 X157.8460 Y52.6152 F2000.00
G01 X157.8460 Y50.8352 F2000.00
G01 X157.7660 Y50.7552 F2000.00
G01 X159.7060 Y50.7552 F2000.00
G01 X159.7060 Y52.6952 F2000.00
G01 X157.7660 Y52.6952 F2000.00
G01 X157.7660 Y50.7552 F2000.00
G01 X157.6860 Y50.6752 F2000.00
G01 X159.7860 Y50.6752 F2000.00
G01 X159.7860 Y52.7752 F2000.00
G01 X157.6860 Y52.7752 F2000.00
G01 X157.6860 Y50.6752 F2000.00
G01 X157.6060 Y50.5952 F2000.00
G01 X159.8660 Y50.5952 F2000.00
G01 X159.8660 Y52.8552 F2000.00
G01 X157.6060 Y52.8552 F2000.00
G01 X157.6060 Y50.5952 F2000.00
G01 X157.5260 Y50.5152 F2000.00
G01 X159.9460 Y50.5152 F2000.00
G01 X159.9460 Y52.9352 F2000.00
G01 X157.5260 Y52.9352 F2000.00
G01 X157.5260 Y50.5152 F2000.00
G01 X157.4460 Y50.4352 F2000.00
G01 X160.0260 Y50.4352 F2000.00
G01 X160.0260 Y53.0152 F2000.00
G01 X157.4460 Y53.0152 F2000.00
G01 X157.4460 Y50.4352 F2000.00
G01 X157.3660 Y50.3552 F2000.00
G01 X160.1060 Y50.3552 F2000.00
G01 X160.1060 Y53.0952 F2000.00
G01 X157.3660 Y53.0952 F2000.00
G01 X157.3660 Y50.3552 F2000.00
G01 X157.2860 Y50.2752 F2000.00
G01 X160.1860 Y50.2752 F2000.00
G01 X160.1860 Y53.1752 F2000.00
G01 X157.2860 Y53.1752 F2000.00
G01 X157.2860 Y50.2752 F2000.00
M5
G00 X159.9888 Y57.0903
G01 F60.00
M03 S40.0
G01 F2000.00
G01 X159.9888 Y57.2703 F2000.00
G01 X161.0438 Y57.2703 F2000.00
G01 X161.0438 Y57.0903 F2000.00
G01 X159.9888 Y57.0903 F2000.00
G01 X160.0688 Y57.1703 F2000.00
G01 X160.0688 Y57.1903 F2000.00
G01 X160.9638 Y57.1903 F2000.00
G01 X160.9638 Y57.1703 F2000.00
G01 X160.0688 Y57.1703 F2000.00
M5
G00 X161.1238 Y57.0335
G01 F60.00
M03 S40.0
G01 F2000.00
G01 X161.1235 Y57.0284 F2000.00
G01 X161.1228 Y57.0245 F2000.00
G01 X161.1213 Y57.0209 F2000.00
G01 X161.1178 Y57.0163 F2000.00
G01 X161.1148 Y57.0138 F2000.00
G01 X161.1096 Y57.0113 F2000.00
G01 X161.1057 Y57.0106 F2000.00
G01 X161.1006 Y57.0103 F2000.00
G01 X159.9320 Y57.0103 F2000.00
G01 X159.9269 Y57.0106 F2000.00
G01 X159.9230 Y57.0113 F2000.00
G01 X159.9194 Y57.0128 F2000.00
G01 X159.9162 Y57.0150 F2000.00
G01 X159.9123 Y57.0193 F2000.00
G01 X159.9105 Y57.0227 F2000.00
G01 X159.9093 Y57.0264 F2000.00
G01 X159.9088 Y57.0335 F2000.00
G01 X159.9088 Y57.3271 F2000.00
G01 X159.9091 Y57.3322 F2000.00
G01 X159.9098 Y57.3361 F2000.00
G01 X159.9113 Y57.3397 F2000.00
G01 X159.9135 Y57.3429 F2000.00
G01 X159.9162 Y57.3456 F2000.00
G01 X159.9194 Y57.3478 F2000.00
G01 X159.9230 Y57.3493 F2000.00
G01 X159.9269 Y57.3500 F2000.00
G01 X159.9320 Y57.3503 F2000.00
G01 X161.1006 Y57.3503 F2000.00
G01 X161.1077 Y57.3498 F2000.00
G01 X161.1132 Y57.3478 F2000.00
G01 X161.1178 Y57.3443 F2000.00
G01 X161.1213 Y57.3397 F2000.00
G01 X161.1228 Y57.3361 F2000.00
G01 X161.1235 Y57.3322 F2000.00
G01 X161.1238 Y57.0335 F2000.00
G01 X161.2038 Y57.0315 F2000.00
G01 X161.2033 Y57.0205 F2000.00
G01 X161.2018 Y57.0108 F2000.00
G01 X161.1994 Y57.0013 F2000.00
G01 X161.1961 Y56.9921 F2000.00
G01 X161.1919 Y56.9832 F2000.00
G01 X161.1869 Y56.9748 F2000.00
G01 X161.1811 Y56.9669 F2000.00
G01 X161.1745 Y56.9596 F2000.00
G01 X161.1672 Y56.9530 F2000.00
G01 X161.1593 Y56.9472 F2000.00
G01 X161.1509 Y56.9422 F2000.00
G01 X161.1420 Y56.9380 F2000.00
G01 X161.1328 Y56.9347 F2000.00
G01 X161.1233 Y56.9323 F2000.00
G01 X161.1136 Y56.9308 F2000.00
G01 X161.1026 Y56.9303 F2000.00
G01 X159.9300 Y56.9303 F2000.00
G01 X159.9190 Y56.9308 F2000.00
G01 X159.9093 Y56.9323 F2000.00
G01 X159.8998 Y56.9347 F2000.00
G01 X159.8906 Y56.9380 F2000.00
G01 X159.8817 Y56.9422 F2000.00
G01 X159.8733 Y56.9472 F2000.00
G01 X159.8654 Y56.9530 F2000.00
G01 X159.8581 Y56.9596 F2000.00
G01 X159.8515 Y56.9669 F2000.00
G01 X159.8457 Y56.9748 F2000.00
G01 X159.8407 Y56.9832 F2000.00
G01 X159.8365 Y56.9921 F2000.00
G01 X159.8332 Y57.0013 F2000.00
G01 X159.8308 Y57.0108 F2000.00
G01 X159.8293 Y57.0205 F2000.00
G01 X159.8288 Y57.0315 F2000.00
G01 X159.8288 Y57.3291 F2000.00
G01 X159.8293 Y57.3401 F2000.00
G01 X159.8308 Y57.3498 F2000.00
G01 X159.8332 Y57.3593 F2000.00
G01 X159.8365 Y57.3685 F2000.00
G01 X159.8407 Y57.3774 F2000.00
G01 X159.8457 Y57.3858 F2000.00
G01 X159.8515 Y57.3937 F2000.00
G01 X159.8581 Y57.4010 F2000.00
G01 X159.8654 Y57.4076 F2000.00
G01 X159.8733 Y57.4134 F2000.00
G01 X159.8817 Y57.4184 F2000.00
G01 X159.8906 Y57.4226 F2000.00
G01 X159.8998 Y57.4259 F2000.00
G01 X159.9093 Y57.4283 F2000.00
G01 X159.9190 Y57.4298 F2000.00
G01 X159.9300 Y57.4303 F2000.00
G01 X161.1026 Y57.4303 F2000.00
G01 X161.1136 Y57.4298 F2000.00
G01 X161.1233 Y57.4283 F2000.00
G01 X161.1328 Y57.4259 F2000.00
G01 X161.1420 Y57.4226 F2000.00
G01 X161.1509 Y57.4184 F2000.00
G01 X161.1593 Y57.4134 F2000.00
G01 X161.1672 Y57.4076 F2000.00
G01 X161.1745 Y57.4010 F2000.00
G01 X161.1811 Y57.3937 F2000.00
G01 X161.1869 Y57.3858 F2000.00
G01 X161.1919 Y57.3774 F2000.00
G01 X161.1961 Y57.3685 F2000.00
G01 X161.1994 Y57.3593 F2000.00
G01 X161.2018 Y57.3498 F2000.00
G01 X161.2033 Y57.3401 F2000.00
G01 X161.2038 Y57.3291 F2000.00
G01 X161.2038 Y57.0315 F2000.00
M5
G00 X161.2038 Y58.9315
G01 F60.00
M03 S40.0
G01 F2000.00
G01 X161.2038 Y59.2291 F2000.00
G01 X161.2033 Y59.2401 F2000.00
G01 X161.2018 Y59.2498 F2000.00
G01 X161.1994 Y59.2593 F2000.00
G01 X161.1961 Y59.2685 F2000.00
G01 X161.1919 Y59.2774 F2000.00
G01 X161.1869 Y59.2858 F2000.00
G01 X161.1811 Y59.2937 F2000.00
G01 X161.1745 Y59.3010 F2000.00
G01 X161.1672 Y59.3076 F2000.00
G01 X161.1593 Y59.3134 F2000.00
G01 X161.1509 Y59.3184 F2000.00
G01 X161.1420 Y59.3226 F2000.00
G01 X161.1328 Y59.3259 F2000.00
G01 X161.1233 Y59.3283 F2000.00
G01 X161.1136 Y59.3298 F2000.00
G01 X161.1026 Y59.3303 F2000.00
G01 X159.9300 Y59.3303 F2000.00
G01 X159.9190 Y59.3298 F2000.00
G01 X159.9093 Y59.3283 F2000.00
G01 X159.8998 Y59.3259 F2000.00
G01 X159.8906 Y59.3226 F2000.00
G01 X159.8817 Y59.3184 F2000.00
G01 X159.8733 Y59.3134 F2000.00
G01 X159.8654 Y59.3076 F2000.00
G01 X159.8581 Y59.3010 F2000.00
G01 X159.8515 Y59.2937 F2000.00
G01 X159.8457 Y59.2858 F2000.00
G01 X159.8407 Y59.2774 F2000.00
G01 X159.8365 Y59.2685 F2000.00
G01 X159.8332 Y59.2593 F2000.00
G01 X159.8308 Y59.2498 F2000.00
G01 X159.8293 Y59.2401 F2000.00
G01 X159.8288 Y59.2291 F2000.00
G01 X159.8288 Y58.9315 F2000.00
G01 X159.8293 Y58.9205 F2000.00
G01 X159.8308 Y58.9108 F2000.00
G01 X159.8332 Y58.9013 F2000.00
G01 X159.8365 Y58.8921 F2000.00
G01 X159.8407 Y58.8832 F2000.00
G01 X159.8457 Y58.8748 F2000.00
G01 X159.8515 Y58.8669 F2000.00
G01 X159.8581 Y58.8596 F2000.00
G01 X159.8654 Y58.8530 F2000.00
G01 X159.8733 Y58.8472 F2000.00
G01 X159.8817 Y58.8422 F2000.00
G01 X159.8906 Y58.8380 F2000.00
G01 X159.8998 Y58.8347 F2000.00
G01 X159.9093 Y58.8323 F2000.00
G01 X159.9190 Y58.8308 F2000.00
G01 X159.9300 Y58.8303 F2000.00
G01 X161.1026 Y58.8303 F2000.00
G01 X161.1136 Y58.8308 F2000.00
G01 X161.1233 Y58.8323 F2000.00
G01 X161.1328 Y58.8347 F2000.00
G01 X161.1420 Y58.8380 F2000.00
G01 X161.1509 Y58.8422 F2000.00
G01 X161.1593 Y58.8472 F2000.00
G01 X161.1672 Y58.8530 F2000.00
G01 X161.1745 Y58.8596 F2000.00
G01 X161.1811 Y58.8669 F2000.00
G01 X161.1869 Y58.8748 F2000.00
G01 X161.1919 Y58.8832 F2000.00
G01 X161.1961 Y58.8921 F2000.00
G01 X161.1994 Y58.9013 F2000.00
G01 X161.2018 Y58.9108 F2000.00
G01 X161.2033 Y58.9205 F2000.00
G01 X161.2038 Y58.9315 F2000.00
G01 X161.1238 Y58.9335 F2000.00
G01 X161.1235 Y59.2322 F2000.00
G01 X161.1228 Y59.2361 F2000.00
G01 X161.1213 Y59.2397 F2000.00
G01 X161.1178 Y59.2443 F2000.00
G01 X161.1132 Y59.2478 F2000.00
G01 X161.1077 Y59.2498 F2000.00
G01 X161.1006 Y59.2503 F2000.00
G01 X159.9320 Y59.2503 F2000.00
G01 X159.9269 Y59.2500 F2000.00
G01 X159.9230 Y59.2493 F2000.00
G01 X159.9194 Y59.2478 F2000.00
G01 X159.9162 Y59.2456 F2000.00
G01 X159.9135 Y59.2429 F2000.00
G01 X159.9113 Y59.2397 F2000.00
G01 X159.9098 Y59.2361 F2000.00
G01 X159.9091 Y59.2322 F2000.00
G01 X159.9088 Y59.2271 F2000.00
G01 X159.9088 Y58.9335 F2000.00
G01 X159.9093 Y58.9264 F2000.00
G01 X159.9105 Y58.9227 F2000.00
G01 X159.9123 Y58.9193 F2000.00
G01 X159.9162 Y58.9150 F2000.00
G01 X159.9194 Y58.9128 F2000.00
G01 X159.9230 Y58.9113 F2000.00
G01 X159.9269 Y58.9106 F2000.00
G01 X159.9320 Y58.9103 F2000.00
G01 X161.1006 Y58.9103 F2000.00
G01 X161.1057 Y58.9106 F2000.00
G01 X161.1096 Y58.9113 F2000.00
G01 X161.1148 Y58.9138 F2000.00
G01 X161.1178 Y58.9163 F2000.00
G01 X161.1213 Y58.9209 F2000.00
G01 X161.1228 Y58.9245 F2000.00
G01 X161.1235 Y58.9284 F2000.00
G01 X161.1238 Y58.9335 F2000.00
M5
G00 X160.0688 Y59.0703
G01 F60.00
M03 S40.0
G01 F2000.00
G01 X160.9638 Y59.0703 F2000.00
G01 X160.9638 Y59.0903 F2000.00
G01 X160.0688 Y59.0903 F2000.00
G01 X160.0688 Y59.0703 F2000.00
G01 X159.9888 Y58.9903 F2000.00
G01 X161.0438 Y58.9903 F2000.00
G01 X161.0438 Y59.1703 F2000.00
G01 X159.9888 Y59.1703 F2000.00
G01 X159.9888 Y58.9903 F2000.00
M5
G00 X159.3288 Y57.9815
G01 F60.00
M03 S40.0
G01 F2000.00
G01 X159.3288 Y58.2791 F2000.00
G01 X159.3283 Y58.2901 F2000.00
G01 X159.3268 Y58.2998 F2000.00
G01 X159.3244 Y58.3093 F2000.00
G01 X159.3211 Y58.3185 F2000.00
G01 X159.3169 Y58.3274 F2000.00
G01 X159.3119 Y58.3358 F2000.00
G01 X159.3061 Y58.3437 F2000.00
G01 X159.2995 Y58.3510 F2000.00
G01 X159.2922 Y58.3576 F2000.00
G01 X159.2843 Y58.3634 F2000.00
G01 X159.2759 Y58.3684 F2000.00
G01 X159.2670 Y58.3726 F2000.00
G01 X159.2578 Y58.3759 F2000.00
G01 X159.2483 Y58.3783 F2000.00
G01 X159.2386 Y58.3798 F2000.00
G01 X159.2276 Y58.3803 F2000.00
G01 X158.0550 Y58.3803 F2000.00
G01 X158.0440 Y58.3798 F2000.00
G01 X158.0343 Y58.3783 F2000.00
G01 X158.0248 Y58.3759 F2000.00
G01 X158.0156 Y58.3726 F2000.00
G01 X158.0067 Y58.3684 F2000.00
G01 X157.9983 Y58.3634 F2000.00
G01 X157.9904 Y58.3576 F2000.00
G01 X157.9831 Y58.3510 F2000.00
G01 X157.9765 Y58.3437 F2000.00
G01 X157.9707 Y58.3358 F2000.00
G01 X157.9657 Y58.3274 F2000.00
G01 X157.9615 Y58.3185 F2000.00
G01 X157.9582 Y58.3093 F2000.00
G01 X157.9558 Y58.2998 F2000.00
G01 X157.9543 Y58.2901 F2000.00
G01 X157.9538 Y58.2791 F2000.00
G01 X157.9538 Y57.9815 F2000.00
