(G-CODE GENERATED BY FLATCAM v8.994 - www.flatcam.org - Version Date: 2020/11/7)

(Name: adaptador_central-PTH.drl_edit_1_cnc)
(Type: G-code from Geometry)
(Units: MM)

(Created on Tuesday, 30 December 2025 at 15:39)

(This preprocessor is the default preprocessor used by FlatCAM.)
(It is made to work with MACH3 compatible motion controllers.)


(TOOLS DIAMETER: )
(Tool: 1 -> Dia: 1.0)

(FEEDRATE Z: )
(Tool: 1 -> Feedrate: 100.0)

(FEEDRATE RAPIDS: )
(Tool: 1 -> Feedrate Rapids: 1500)

(Z_CUT: )
(Tool: 1 -> Z_Cut: -3.0)

(Tools Offset: )
(Tool: 1 -> Offset Z: 0.0)

(Z_MOVE: )
(Tool: 1 -> Z_Move: 5.0)

(Z Toolchange: 15 mm)
(X,Y Toolchange: 0.0000, 0.0000 mm)
(Z Start: None mm)
(Z End: 5.0 mm)
(X,Y End: 10.0000, 120.0000 mm)
(Steps per circle: 64)
(Preprocessor Excellon: default)

(X range:   62.0380 ...   89.9600  mm)
(Y range:   34.2996 ...   73.5396  mm)

(Spindle Speed: 2000 RPM)
G21
G90
G94

G01 F100.00

M5
G00 Z15.0000
T1
G00 X0.0000 Y0.0000                
M6
(MSG, Change to Tool Dia = 1.0000 ||| Total drills for tool T1 = 41)
M0
G00 Z15.0000

G01 F100.00
M03 S2000
G00 X62.5380 Y73.0396
G01 Z-3.0000
G01 Z0
G00 Z5.0000
G00 X65.0780 Y73.0396
G01 Z-3.0000
G01 Z0
G00 Z5.0000
G00 X67.6180 Y73.0396
G01 Z-3.0000
G01 Z0
G00 Z5.0000
G00 X70.1580 Y73.0396
G01 Z-3.0000
G01 Z0
G00 Z5.0000
G00 X72.6980 Y73.0396
G01 Z-3.0000
G01 Z0
G00 Z5.0000
G00 X75.2380 Y73.0396
G01 Z-3.0000
G01 Z0
G00 Z5.0000
G00 X75.2380 Y70.4996
G01 Z-3.0000
G01 Z0
G00 Z5.0000
G00 X77.7780 Y70.4996
G01 Z-3.0000
G01 Z0
G00 Z5.0000
G00 X77.7780 Y73.0396
G01 Z-3.0000
G01 Z0
G00 Z5.0000
G00 X82.9600 Y71.7316
G01 Z-3.0000
G01 Z0
G00 Z5.0000
G00 X89.4600 Y71.7316
G01 Z-3.0000
G01 Z0
G00 Z5.0000
G00 X87.9380 Y61.3196
G01 Z-3.0000
G01 Z0
G00 Z5.0000
G00 X85.3980 Y61.3196
G01 Z-3.0000
G01 Z0
G00 Z5.0000
G00 X85.3980 Y58.7796
G01 Z-3.0000
G01 Z0
G00 Z5.0000
G00 X87.9380 Y58.7796
G01 Z-3.0000
G01 Z0
G00 Z5.0000
G00 X87.9380 Y56.2396
G01 Z-3.0000
G01 Z0
G00 Z5.0000
G00 X85.3980 Y56.2396
G01 Z-3.0000
G01 Z0
G00 Z5.0000
G00 X85.3980 Y53.6996
G01 Z-3.0000
G01 Z0
G00 Z5.0000
G00 X87.9380 Y53.6996
G01 Z-3.0000
G01 Z0
G00 Z5.0000
G00 X87.9380 Y51.1596
G01 Z-3.0000
G01 Z0
G00 Z5.0000
G00 X85.3980 Y51.1596
G01 Z-3.0000
G01 Z0
G00 Z5.0000
G00 X85.3980 Y48.6196
G01 Z-3.0000
G01 Z0
G00 Z5.0000
G00 X87.9380 Y48.6196
G01 Z-3.0000
G01 Z0
G00 Z5.0000
G00 X87.9380 Y46.0796
G01 Z-3.0000
G01 Z0
G00 Z5.0000
G00 X85.3980 Y46.0796
G01 Z-3.0000
G01 Z0
G00 Z5.0000
G00 X77.7780 Y34.7996
G01 Z-3.0000
G01 Z0
G00 Z5.0000
G00 X75.2380 Y34.7996
G01 Z-3.0000
G01 Z0
G00 Z5.0000
G00 X72.6980 Y34.7996
G01 Z-3.0000
G01 Z0
G00 Z5.0000
G00 X72.6980 Y37.3396
G01 Z-3.0000
G01 Z0
G00 Z5.0000
G00 X70.1580 Y37.3396
G01 Z-3.0000
G01 Z0
G00 Z5.0000
G00 X70.1580 Y34.7996
G01 Z-3.0000
G01 Z0
G00 Z5.0000
G00 X67.6180 Y34.7996
G01 Z-3.0000
G01 Z0
G00 Z5.0000
G00 X67.6180 Y37.3396
G01 Z-3.0000
G01 Z0
G00 Z5.0000
G00 X65.0780 Y37.3396
G01 Z-3.0000
G01 Z0
G00 Z5.0000
G00 X65.0780 Y34.7996
G01 Z-3.0000
G01 Z0
G00 Z5.0000
G00 X62.5380 Y34.7996
G01 Z-3.0000
G01 Z0
G00 Z5.0000
G00 X62.5380 Y37.3396
G01 Z-3.0000
G01 Z0
G00 Z5.0000
G00 X70.1580 Y70.4996
G01 Z-3.0000
G01 Z0
G00 Z5.0000
G00 X67.6180 Y70.4996
G01 Z-3.0000
G01 Z0
G00 Z5.0000
G00 X65.0780 Y70.4996
G01 Z-3.0000
G01 Z0
G00 Z5.0000
G00 X62.5380 Y70.4996
G01 Z-3.0000
G01 Z0
G00 Z5.0000
M05
G00 Z5.00
G00 X10.0 Y120.0


