(G-CODE GENERATED BY FLATCAM v8.994 - www.flatcam.org - Version Date: 2020/11/7)

(Name: adaptador_central-F_Paste.gbr_mt_paint_cnc)
(Type: G-code from Geometry)
(Units: MM)

(Created on Monday, 29 December 2025 at 16:40)

(This preprocessor is used with a motion controller loaded with GRBL firmware. )
(It is for the case when it is used together with a LASER connected on the SPINDLE connector.)

(Feedrate: 2500.0 mm/min)
(Feedrate rapids: 1500.0 mm/min)

(Z Focus: 2.0 mm)
(Steps per circle: 64)
(Preprocessor Geometry: GRBL_laser)

(X range:   46.4728 ...  139.2892  mm)
(Y range:   45.9316 ...   79.2952  mm)

(Laser Power - Spindle Speed: 50.0)

G21
G90
G17
G94

G01 F2500.00

M5
G01 F2500.00
G00 X46.4728 Y58.0408
G01 F60.00
M03 S50.0
G01 F2500.00
G01 X46.4728 Y63.9408 F2500.00
G01 X49.3728 Y63.9408 F2500.00
G01 X49.3728 Y58.0408 F2500.00
G01 X46.4728 Y58.0408 F2500.00
G01 X46.5528 Y58.1208 F2500.00
G01 X46.5528 Y63.8608 F2500.00
G01 X49.2928 Y63.8608 F2500.00
G01 X49.2928 Y58.1208 F2500.00
G01 X46.5528 Y58.1208 F2500.00
G01 X46.6328 Y58.2008 F2500.00
G01 X46.6328 Y63.7808 F2500.00
G01 X49.2128 Y63.7808 F2500.00
G01 X49.2128 Y58.2008 F2500.00
G01 X46.6328 Y58.2008 F2500.00
G01 X46.7128 Y58.2808 F2500.00
G01 X46.7128 Y63.7008 F2500.00
G01 X49.1328 Y63.7008 F2500.00
G01 X49.1328 Y58.2808 F2500.00
G01 X46.7128 Y58.2808 F2500.00
G01 X46.7928 Y58.3608 F2500.00
G01 X46.7928 Y63.6208 F2500.00
G01 X49.0528 Y63.6208 F2500.00
G01 X49.0528 Y58.3608 F2500.00
G01 X46.7928 Y58.3608 F2500.00
G01 X46.8728 Y58.4408 F2500.00
G01 X46.8728 Y63.5408 F2500.00
G01 X48.9728 Y63.5408 F2500.00
G01 X48.9728 Y58.4408 F2500.00
G01 X46.8728 Y58.4408 F2500.00
G01 X46.9528 Y58.5208 F2500.00
G01 X46.9528 Y63.4608 F2500.00
G01 X48.8928 Y63.4608 F2500.00
G01 X48.8928 Y58.5208 F2500.00
G01 X46.9528 Y58.5208 F2500.00
G01 X47.0328 Y58.6008 F2500.00
G01 X47.0328 Y63.3808 F2500.00
G01 X48.8128 Y63.3808 F2500.00
G01 X48.8128 Y58.6008 F2500.00
G01 X47.0328 Y58.6008 F2500.00
G01 X47.1128 Y58.6808 F2500.00
G01 X47.1128 Y63.3008 F2500.00
G01 X48.7328 Y63.3008 F2500.00
G01 X48.7328 Y58.6808 F2500.00
G01 X47.1128 Y58.6808 F2500.00
G01 X47.1928 Y58.7608 F2500.00
G01 X47.1928 Y63.2208 F2500.00
G01 X48.6528 Y63.2208 F2500.00
G01 X48.6528 Y58.7608 F2500.00
G01 X47.1928 Y58.7608 F2500.00
G01 X47.2728 Y58.8408 F2500.00
G01 X47.2728 Y63.1408 F2500.00
G01 X48.5728 Y63.1408 F2500.00
G01 X48.5728 Y58.8408 F2500.00
G01 X47.2728 Y58.8408 F2500.00
G01 X47.3528 Y58.9208 F2500.00
G01 X47.3528 Y63.0608 F2500.00
G01 X48.4928 Y63.0608 F2500.00
G01 X48.4928 Y58.9208 F2500.00
G01 X47.3528 Y58.9208 F2500.00
G01 X47.4328 Y59.0008 F2500.00
G01 X47.4328 Y62.9808 F2500.00
G01 X48.4128 Y62.9808 F2500.00
G01 X48.4128 Y59.0008 F2500.00
G01 X47.4328 Y59.0008 F2500.00
G01 X47.5128 Y59.0808 F2500.00
G01 X47.5128 Y62.9008 F2500.00
G01 X48.3328 Y62.9008 F2500.00
G01 X48.3328 Y59.0808 F2500.00
G01 X47.5128 Y59.0808 F2500.00
G01 X47.5928 Y59.1608 F2500.00
G01 X47.5928 Y62.8208 F2500.00
G01 X48.2528 Y62.8208 F2500.00
G01 X48.2528 Y59.1608 F2500.00
G01 X47.5928 Y59.1608 F2500.00
G01 X47.6728 Y59.2408 F2500.00
G01 X47.6728 Y62.7408 F2500.00
G01 X48.1728 Y62.7408 F2500.00
G01 X48.1728 Y59.2408 F2500.00
G01 X47.6728 Y59.2408 F2500.00
G01 X47.7528 Y59.3208 F2500.00
G01 X47.7528 Y62.6608 F2500.00
G01 X48.0928 Y62.6608 F2500.00
G01 X48.0928 Y59.3208 F2500.00
G01 X47.7528 Y59.3208 F2500.00
G01 X47.8328 Y59.4008 F2500.00
G01 X47.8328 Y62.5808 F2500.00
G01 X48.0128 Y62.5808 F2500.00
G01 X48.0128 Y59.4008 F2500.00
G01 X47.8328 Y59.4008 F2500.00
G01 X47.9128 Y59.4808 F2500.00
G01 X47.9128 Y62.5008 F2500.00
G01 X47.9328 Y62.5008 F2500.00
G01 X47.9328 Y59.4808 F2500.00
G01 X47.9128 Y59.4808 F2500.00
M5
G00 X52.2561 Y69.1685
G01 F60.00
M03 S50.0
G01 F2500.00
G01 X52.2383 Y69.1769 F2500.00
G01 X52.2215 Y69.1870 F2500.00
G01 X52.2058 Y69.1986 F2500.00
G01 X52.1912 Y69.2118 F2500.00
G01 X52.1780 Y69.2264 F2500.00
G01 X52.1664 Y69.2421 F2500.00
G01 X52.1563 Y69.2589 F2500.00
G01 X52.1479 Y69.2767 F2500.00
G01 X52.1413 Y69.2952 F2500.00
G01 X52.1365 Y69.3142 F2500.00
G01 X52.1336 Y69.3336 F2500.00
G01 X52.1326 Y69.3544 F2500.00
G01 X52.1326 Y70.1520 F2500.00
G01 X52.1336 Y70.1728 F2500.00
G01 X52.1365 Y70.1922 F2500.00
G01 X52.1413 Y70.2112 F2500.00
G01 X52.1479 Y70.2297 F2500.00
G01 X52.1563 Y70.2475 F2500.00
G01 X52.1664 Y70.2643 F2500.00
G01 X52.1780 Y70.2800 F2500.00
G01 X52.1912 Y70.2946 F2500.00
G01 X52.2058 Y70.3078 F2500.00
G01 X52.2215 Y70.3194 F2500.00
G01 X52.2383 Y70.3295 F2500.00
G01 X52.2561 Y70.3379 F2500.00
G01 X52.2746 Y70.3445 F2500.00
G01 X52.2936 Y70.3493 F2500.00
G01 X52.3130 Y70.3522 F2500.00
G01 X52.3338 Y70.3532 F2500.00
G01 X53.5814 Y70.3532 F2500.00
G01 X53.6022 Y70.3522 F2500.00
G01 X53.6216 Y70.3493 F2500.00
G01 X53.6406 Y70.3445 F2500.00
G01 X53.6591 Y70.3379 F2500.00
G01 X53.6769 Y70.3295 F2500.00
G01 X53.6937 Y70.3194 F2500.00
G01 X53.7094 Y70.3078 F2500.00
G01 X53.7240 Y70.2946 F2500.00
G01 X53.7372 Y70.2800 F2500.00
G01 X53.7488 Y70.2643 F2500.00
G01 X53.7589 Y70.2475 F2500.00
G01 X53.7673 Y70.2297 F2500.00
G01 X53.7739 Y70.2112 F2500.00
G01 X53.7787 Y70.1922 F2500.00
G01 X53.7816 Y70.1728 F2500.00
G01 X53.7826 Y70.1520 F2500.00
G01 X53.7826 Y69.3544 F2500.00
G01 X53.7816 Y69.3336 F2500.00
G01 X53.7787 Y69.3142 F2500.00
G01 X53.7739 Y69.2952 F2500.00
G01 X53.7673 Y69.2767 F2500.00
G01 X53.7589 Y69.2589 F2500.00
G01 X53.7488 Y69.2421 F2500.00
G01 X53.7372 Y69.2264 F2500.00
G01 X53.7240 Y69.2118 F2500.00
G01 X53.7094 Y69.1986 F2500.00
G01 X53.6937 Y69.1870 F2500.00
G01 X53.6769 Y69.1769 F2500.00
G01 X53.6591 Y69.1685 F2500.00
G01 X53.6406 Y69.1619 F2500.00
G01 X53.6216 Y69.1571 F2500.00
G01 X53.6022 Y69.1542 F2500.00
G01 X53.5814 Y69.1532 F2500.00
G01 X52.3338 Y69.1532 F2500.00
G01 X52.3130 Y69.1542 F2500.00
G01 X52.2936 Y69.1571 F2500.00
G01 X52.2746 Y69.1619 F2500.00
G01 X52.2561 Y69.1685 F2500.00
G01 X52.2867 Y69.2425 F2500.00
G01 X52.2761 Y69.2475 F2500.00
G01 X52.2660 Y69.2536 F2500.00
G01 X52.2566 Y69.2606 F2500.00
G01 X52.2479 Y69.2685 F2500.00
G01 X52.2400 Y69.2772 F2500.00
G01 X52.2330 Y69.2866 F2500.00
G01 X52.2269 Y69.2967 F2500.00
G01 X52.2219 Y69.3073 F2500.00
G01 X52.2179 Y69.3184 F2500.00
G01 X52.2151 Y69.3298 F2500.00
G01 X52.2133 Y69.3415 F2500.00
G01 X52.2126 Y69.3564 F2500.00
G01 X52.2126 Y70.1500 F2500.00
G01 X52.2133 Y70.1649 F2500.00
G01 X52.2151 Y70.1766 F2500.00
G01 X52.2179 Y70.1880 F2500.00
G01 X52.2219 Y70.1991 F2500.00
G01 X52.2269 Y70.2097 F2500.00
G01 X52.2330 Y70.2198 F2500.00
G01 X52.2400 Y70.2292 F2500.00
G01 X52.2479 Y70.2379 F2500.00
G01 X52.2566 Y70.2458 F2500.00
G01 X52.2660 Y70.2528 F2500.00
G01 X52.2761 Y70.2589 F2500.00
G01 X52.2867 Y70.2639 F2500.00
G01 X52.2978 Y70.2679 F2500.00
G01 X52.3092 Y70.2707 F2500.00
G01 X52.3209 Y70.2725 F2500.00
G01 X52.3358 Y70.2732 F2500.00
G01 X53.5794 Y70.2732 F2500.00
G01 X53.5943 Y70.2725 F2500.00
G01 X53.6060 Y70.2707 F2500.00
G01 X53.6174 Y70.2679 F2500.00
G01 X53.6285 Y70.2639 F2500.00
G01 X53.6391 Y70.2589 F2500.00
G01 X53.6492 Y70.2528 F2500.00
G01 X53.6586 Y70.2458 F2500.00
G01 X53.6673 Y70.2379 F2500.00
G01 X53.6752 Y70.2292 F2500.00
G01 X53.6822 Y70.2198 F2500.00
G01 X53.6883 Y70.2097 F2500.00
G01 X53.6933 Y70.1991 F2500.00
G01 X53.6973 Y70.1880 F2500.00
G01 X53.7001 Y70.1766 F2500.00
G01 X53.7019 Y70.1649 F2500.00
G01 X53.7026 Y70.1500 F2500.00
G01 X53.7026 Y69.3564 F2500.00
G01 X53.7019 Y69.3415 F2500.00
G01 X53.7001 Y69.3298 F2500.00
G01 X53.6973 Y69.3184 F2500.00
G01 X53.6933 Y69.3073 F2500.00
G01 X53.6883 Y69.2967 F2500.00
G01 X53.6822 Y69.2866 F2500.00
G01 X53.6752 Y69.2772 F2500.00
G01 X53.6673 Y69.2685 F2500.00
G01 X53.6586 Y69.2606 F2500.00
G01 X53.6492 Y69.2536 F2500.00
G01 X53.6391 Y69.2475 F2500.00
G01 X53.6285 Y69.2425 F2500.00
G01 X53.6174 Y69.2385 F2500.00
G01 X53.6060 Y69.2357 F2500.00
G01 X53.5943 Y69.2339 F2500.00
G01 X53.5794 Y69.2332 F2500.00
G01 X52.3358 Y69.2332 F2500.00
G01 X52.3209 Y69.2339 F2500.00
G01 X52.3092 Y69.2357 F2500.00
G01 X52.2978 Y69.2385 F2500.00
G01 X52.2867 Y69.2425 F2500.00
G01 X52.3174 Y69.3165 F2500.00
G01 X52.3105 Y69.3202 F2500.00
G01 X52.3045 Y69.3251 F2500.00
G01 X52.2996 Y69.3311 F2500.00
G01 X52.2975 Y69.3345 F2500.00
G01 X52.2946 Y69.3417 F2500.00
G01 X52.2936 Y69.3454 F2500.00
G01 X52.2930 Y69.3493 F2500.00
G01 X52.2926 Y69.3584 F2500.00
G01 X52.2926 Y70.1480 F2500.00
G01 X52.2930 Y70.1571 F2500.00
G01 X52.2936 Y70.1610 F2500.00
G01 X52.2959 Y70.1684 F2500.00
G01 X52.2975 Y70.1719 F2500.00
G01 X52.3019 Y70.1784 F2500.00
G01 X52.3045 Y70.1813 F2500.00
G01 X52.3105 Y70.1862 F2500.00
G01 X52.3139 Y70.1883 F2500.00
G01 X52.3211 Y70.1912 F2500.00
G01 X52.3287 Y70.1928 F2500.00
G01 X52.3378 Y70.1932 F2500.00
G01 X53.5774 Y70.1932 F2500.00
G01 X53.5865 Y70.1928 F2500.00
G01 X53.5904 Y70.1922 F2500.00
G01 X53.5941 Y70.1912 F2500.00
G01 X53.6013 Y70.1883 F2500.00
G01 X53.6078 Y70.1839 F2500.00
G01 X53.6107 Y70.1813 F2500.00
G01 X53.6156 Y70.1753 F2500.00
G01 X53.6177 Y70.1719 F2500.00
G01 X53.6206 Y70.1647 F2500.00
G01 X53.6216 Y70.1610 F2500.00
G01 X53.6222 Y70.1571 F2500.00
G01 X53.6226 Y70.1480 F2500.00
G01 X53.6226 Y69.3584 F2500.00
G01 X53.6222 Y69.3493 F2500.00
G01 X53.6216 Y69.3454 F2500.00
G01 X53.6193 Y69.3380 F2500.00
G01 X53.6177 Y69.3345 F2500.00
G01 X53.6133 Y69.3280 F2500.00
G01 X53.6107 Y69.3251 F2500.00
G01 X53.6047 Y69.3202 F2500.00
G01 X53.6013 Y69.3181 F2500.00
G01 X53.5941 Y69.3152 F2500.00
G01 X53.5904 Y69.3142 F2500.00
G01 X53.5865 Y69.3136 F2500.00
G01 X53.5774 Y69.3132 F2500.00
G01 X52.3378 Y69.3132 F2500.00
G01 X52.3287 Y69.3136 F2500.00
G01 X52.3248 Y69.3142 F2500.00
G01 X52.3174 Y69.3165 F2500.00
G01 X52.3726 Y69.3932 F2500.00
G01 X52.3726 Y70.1132 F2500.00
G01 X53.5426 Y70.1132 F2500.00
G01 X53.5426 Y69.3932 F2500.00
G01 X52.3726 Y69.3932 F2500.00
G01 X52.4526 Y69.4732 F2500.00
G01 X52.4526 Y70.0332 F2500.00
G01 X53.4626 Y70.0332 F2500.00
G01 X53.4626 Y69.4732 F2500.00
G01 X52.4526 Y69.4732 F2500.00
G01 X52.5326 Y69.5532 F2500.00
G01 X52.5326 Y69.9532 F2500.00
G01 X53.3826 Y69.9532 F2500.00
G01 X53.3826 Y69.5532 F2500.00
G01 X52.5326 Y69.5532 F2500.00
G01 X52.6126 Y69.6332 F2500.00
G01 X52.6126 Y69.8732 F2500.00
G01 X53.3026 Y69.8732 F2500.00
G01 X53.3026 Y69.6332 F2500.00
G01 X52.6126 Y69.6332 F2500.00
G01 X52.6926 Y69.7132 F2500.00
G01 X52.6926 Y69.7932 F2500.00
G01 X53.2226 Y69.7932 F2500.00
G01 X53.2226 Y69.7132 F2500.00
G01 X52.6926 Y69.7132 F2500.00
M5
G00 X54.7961 Y69.1933
G01 F60.00
M03 S50.0
G01 F2500.00
G01 X54.7783 Y69.2017 F2500.00
G01 X54.7615 Y69.2118 F2500.00
G01 X54.7458 Y69.2234 F2500.00
G01 X54.7312 Y69.2366 F2500.00
G01 X54.7180 Y69.2512 F2500.00
G01 X54.7064 Y69.2669 F2500.00
G01 X54.6963 Y69.2837 F2500.00
G01 X54.6879 Y69.3015 F2500.00
G01 X54.6813 Y69.3200 F2500.00
G01 X54.6765 Y69.3390 F2500.00
G01 X54.6736 Y69.3584 F2500.00
G01 X54.6726 Y69.3792 F2500.00
G01 X54.6726 Y70.1768 F2500.00
G01 X54.6736 Y70.1976 F2500.00
G01 X54.6765 Y70.2170 F2500.00
G01 X54.6813 Y70.2360 F2500.00
G01 X54.6879 Y70.2545 F2500.00
G01 X54.6963 Y70.2723 F2500.00
G01 X54.7064 Y70.2891 F2500.00
G01 X54.7180 Y70.3048 F2500.00
G01 X54.7312 Y70.3194 F2500.00
G01 X54.7458 Y70.3326 F2500.00
G01 X54.7615 Y70.3442 F2500.00
G01 X54.7783 Y70.3543 F2500.00
G01 X54.7961 Y70.3627 F2500.00
G01 X54.8146 Y70.3693 F2500.00
G01 X54.8336 Y70.3741 F2500.00
G01 X54.8530 Y70.3770 F2500.00
G01 X54.8738 Y70.3780 F2500.00
G01 X56.1214 Y70.3780 F2500.00
G01 X56.1422 Y70.3770 F2500.00
G01 X56.1616 Y70.3741 F2500.00
G01 X56.1806 Y70.3693 F2500.00
G01 X56.1991 Y70.3627 F2500.00
G01 X56.2169 Y70.3543 F2500.00
G01 X56.2337 Y70.3442 F2500.00
G01 X56.2494 Y70.3326 F2500.00
G01 X56.2640 Y70.3194 F2500.00
G01 X56.2772 Y70.3048 F2500.00
G01 X56.2888 Y70.2891 F2500.00
G01 X56.2989 Y70.2723 F2500.00
G01 X56.3073 Y70.2545 F2500.00
G01 X56.3139 Y70.2360 F2500.00
G01 X56.3187 Y70.2170 F2500.00
G01 X56.3216 Y70.1976 F2500.00
G01 X56.3226 Y70.1768 F2500.00
G01 X56.3226 Y69.3792 F2500.00
G01 X56.3216 Y69.3584 F2500.00
G01 X56.3187 Y69.3390 F2500.00
G01 X56.3139 Y69.3200 F2500.00
G01 X56.3073 Y69.3015 F2500.00
G01 X56.2989 Y69.2837 F2500.00
G01 X56.2888 Y69.2669 F2500.00
G01 X56.2772 Y69.2512 F2500.00
G01 X56.2640 Y69.2366 F2500.00
G01 X56.2494 Y69.2234 F2500.00
G01 X56.2337 Y69.2118 F2500.00
G01 X56.2169 Y69.2017 F2500.00
G01 X56.1991 Y69.1933 F2500.00
G01 X56.1806 Y69.1867 F2500.00
G01 X56.1616 Y69.1819 F2500.00
G01 X56.1422 Y69.1790 F2500.00
G01 X56.1214 Y69.1780 F2500.00
G01 X54.8738 Y69.1780 F2500.00
G01 X54.8530 Y69.1790 F2500.00
G01 X54.8336 Y69.1819 F2500.00
G01 X54.8146 Y69.1867 F2500.00
G01 X54.7961 Y69.1933 F2500.00
G01 X54.8267 Y69.2673 F2500.00
G01 X54.8161 Y69.2723 F2500.00
G01 X54.8060 Y69.2784 F2500.00
G01 X54.7966 Y69.2854 F2500.00
G01 X54.7879 Y69.2933 F2500.00
G01 X54.7800 Y69.3020 F2500.00
G01 X54.7730 Y69.3114 F2500.00
G01 X54.7669 Y69.3215 F2500.00
G01 X54.7619 Y69.3321 F2500.00
G01 X54.7579 Y69.3432 F2500.00
G01 X54.7551 Y69.3546 F2500.00
G01 X54.7533 Y69.3663 F2500.00
G01 X54.7526 Y69.3812 F2500.00
G01 X54.7526 Y70.1748 F2500.00
G01 X54.7533 Y70.1897 F2500.00
G01 X54.7551 Y70.2014 F2500.00
G01 X54.7579 Y70.2128 F2500.00
G01 X54.7619 Y70.2239 F2500.00
G01 X54.7669 Y70.2345 F2500.00
G01 X54.7730 Y70.2446 F2500.00
G01 X54.7800 Y70.2540 F2500.00
G01 X54.7879 Y70.2627 F2500.00
G01 X54.7966 Y70.2706 F2500.00
G01 X54.8060 Y70.2776 F2500.00
G01 X54.8161 Y70.2837 F2500.00
G01 X54.8267 Y70.2887 F2500.00
G01 X54.8378 Y70.2927 F2500.00
G01 X54.8492 Y70.2955 F2500.00
G01 X54.8609 Y70.2973 F2500.00
G01 X54.8758 Y70.2980 F2500.00
G01 X56.1194 Y70.2980 F2500.00
G01 X56.1343 Y70.2973 F2500.00
G01 X56.1460 Y70.2955 F2500.00
G01 X56.1574 Y70.2927 F2500.00
G01 X56.1685 Y70.2887 F2500.00
G01 X56.1791 Y70.2837 F2500.00
G01 X56.1892 Y70.2776 F2500.00
G01 X56.1986 Y70.2706 F2500.00
G01 X56.2073 Y70.2627 F2500.00
G01 X56.2152 Y70.2540 F2500.00
G01 X56.2222 Y70.2446 F2500.00
G01 X56.2283 Y70.2345 F2500.00
G01 X56.2333 Y70.2239 F2500.00
G01 X56.2373 Y70.2128 F2500.00
G01 X56.2401 Y70.2014 F2500.00
G01 X56.2419 Y70.1897 F2500.00
G01 X56.2426 Y70.1748 F2500.00
G01 X56.2426 Y69.3812 F2500.00
G01 X56.2419 Y69.3663 F2500.00
G01 X56.2401 Y69.3546 F2500.00
G01 X56.2373 Y69.3432 F2500.00
G01 X56.2333 Y69.3321 F2500.00
G01 X56.2283 Y69.3215 F2500.00
G01 X56.2222 Y69.3114 F2500.00
G01 X56.2152 Y69.3020 F2500.00
G01 X56.2073 Y69.2933 F2500.00
G01 X56.1986 Y69.2854 F2500.00
G01 X56.1892 Y69.2784 F2500.00
G01 X56.1791 Y69.2723 F2500.00
G01 X56.1685 Y69.2673 F2500.00
G01 X56.1574 Y69.2633 F2500.00
G01 X56.1460 Y69.2605 F2500.00
G01 X56.1343 Y69.2587 F2500.00
G01 X56.1194 Y69.2580 F2500.00
G01 X54.8758 Y69.2580 F2500.00
G01 X54.8609 Y69.2587 F2500.00
G01 X54.8492 Y69.2605 F2500.00
G01 X54.8378 Y69.2633 F2500.00
G01 X54.8267 Y69.2673 F2500.00
G01 X54.8574 Y69.3413 F2500.00
G01 X54.8505 Y69.3450 F2500.00
G01 X54.8445 Y69.3499 F2500.00
G01 X54.8396 Y69.3559 F2500.00
G01 X54.8375 Y69.3593 F2500.00
G01 X54.8346 Y69.3665 F2500.00
G01 X54.8336 Y69.3702 F2500.00
G01 X54.8330 Y69.3741 F2500.00
G01 X54.8326 Y69.3832 F2500.00
G01 X54.8326 Y70.1728 F2500.00
G01 X54.8330 Y70.1819 F2500.00
G01 X54.8336 Y70.1858 F2500.00
G01 X54.8359 Y70.1932 F2500.00
G01 X54.8375 Y70.1967 F2500.00
G01 X54.8419 Y70.2032 F2500.00
G01 X54.8445 Y70.2061 F2500.00
G01 X54.8505 Y70.2110 F2500.00
G01 X54.8539 Y70.2131 F2500.00
G01 X54.8611 Y70.2160 F2500.00
G01 X54.8687 Y70.2176 F2500.00
G01 X54.8778 Y70.2180 F2500.00
G01 X56.1174 Y70.2180 F2500.00
G01 X56.1265 Y70.2176 F2500.00
G01 X56.1304 Y70.2170 F2500.00
G01 X56.1341 Y70.2160 F2500.00
G01 X56.1413 Y70.2131 F2500.00
G01 X56.1478 Y70.2087 F2500.00
G01 X56.1507 Y70.2061 F2500.00
G01 X56.1556 Y70.2001 F2500.00
G01 X56.1577 Y70.1967 F2500.00
G01 X56.1606 Y70.1895 F2500.00
G01 X56.1616 Y70.1858 F2500.00
G01 X56.1622 Y70.1819 F2500.00
G01 X56.1626 Y70.1728 F2500.00
G01 X56.1626 Y69.3832 F2500.00
G01 X56.1622 Y69.3741 F2500.00
G01 X56.1616 Y69.3702 F2500.00
G01 X56.1593 Y69.3628 F2500.00
G01 X56.1577 Y69.3593 F2500.00
G01 X56.1533 Y69.3528 F2500.00
G01 X56.1507 Y69.3499 F2500.00
G01 X56.1447 Y69.3450 F2500.00
G01 X56.1413 Y69.3429 F2500.00
G01 X56.1341 Y69.3400 F2500.00
G01 X56.1304 Y69.3390 F2500.00
G01 X56.1265 Y69.3384 F2500.00
G01 X56.1174 Y69.3380 F2500.00
G01 X54.8778 Y69.3380 F2500.00
G01 X54.8687 Y69.3384 F2500.00
G01 X54.8648 Y69.3390 F2500.00
G01 X54.8574 Y69.3413 F2500.00
G01 X54.9126 Y69.4180 F2500.00
G01 X54.9126 Y70.1380 F2500.00
G01 X56.0826 Y70.1380 F2500.00
G01 X56.0826 Y69.4180 F2500.00
G01 X54.9126 Y69.4180 F2500.00
G01 X54.9926 Y69.4980 F2500.00
G01 X54.9926 Y70.0580 F2500.00
G01 X56.0026 Y70.0580 F2500.00
G01 X56.0026 Y69.4980 F2500.00
G01 X54.9926 Y69.4980 F2500.00
G01 X55.0726 Y69.5780 F2500.00
G01 X55.0726 Y69.9780 F2500.00
G01 X55.9226 Y69.9780 F2500.00
G01 X55.9226 Y69.5780 F2500.00
G01 X55.0726 Y69.5780 F2500.00
G01 X55.1526 Y69.6580 F2500.00
G01 X55.1526 Y69.8980 F2500.00
G01 X55.8426 Y69.8980 F2500.00
G01 X55.8426 Y69.6580 F2500.00
G01 X55.1526 Y69.6580 F2500.00
G01 X55.2326 Y69.7380 F2500.00
G01 X55.2326 Y69.8180 F2500.00
G01 X55.7626 Y69.8180 F2500.00
G01 X55.7626 Y69.7380 F2500.00
G01 X55.2326 Y69.7380 F2500.00
M5
G00 X57.3361 Y69.1945
G01 F60.00
M03 S50.0
G01 F2500.00
G01 X57.3183 Y69.2029 F2500.00
G01 X57.3015 Y69.2130 F2500.00
G01 X57.2858 Y69.2246 F2500.00
G01 X57.2712 Y69.2378 F2500.00
G01 X57.2580 Y69.2524 F2500.00
G01 X57.2464 Y69.2681 F2500.00
G01 X57.2363 Y69.2849 F2500.00
G01 X57.2279 Y69.3027 F2500.00
G01 X57.2213 Y69.3212 F2500.00
G01 X57.2165 Y69.3402 F2500.00
G01 X57.2136 Y69.3596 F2500.00
G01 X57.2126 Y69.3804 F2500.00
G01 X57.2126 Y70.1780 F2500.00
G01 X57.2136 Y70.1988 F2500.00
G01 X57.2165 Y70.2182 F2500.00
G01 X57.2213 Y70.2372 F2500.00
G01 X57.2279 Y70.2557 F2500.00
G01 X57.2363 Y70.2735 F2500.00
G01 X57.2464 Y70.2903 F2500.00
G01 X57.2580 Y70.3060 F2500.00
G01 X57.2712 Y70.3206 F2500.00
G01 X57.2858 Y70.3338 F2500.00
G01 X57.3015 Y70.3454 F2500.00
G01 X57.3183 Y70.3555 F2500.00
G01 X57.3361 Y70.3639 F2500.00
G01 X57.3546 Y70.3705 F2500.00
G01 X57.3736 Y70.3753 F2500.00
G01 X57.3930 Y70.3782 F2500.00
G01 X57.4138 Y70.3792 F2500.00
G01 X58.6614 Y70.3792 F2500.00
G01 X58.6822 Y70.3782 F2500.00
G01 X58.7016 Y70.3753 F2500.00
G01 X58.7206 Y70.3705 F2500.00
G01 X58.7391 Y70.3639 F2500.00
G01 X58.7569 Y70.3555 F2500.00
G01 X58.7737 Y70.3454 F2500.00
G01 X58.7894 Y70.3338 F2500.00
G01 X58.8040 Y70.3206 F2500.00
G01 X58.8172 Y70.3060 F2500.00
G01 X58.8288 Y70.2903 F2500.00
G01 X58.8389 Y70.2735 F2500.00
G01 X58.8473 Y70.2557 F2500.00
G01 X58.8539 Y70.2372 F2500.00
G01 X58.8587 Y70.2182 F2500.00
G01 X58.8616 Y70.1988 F2500.00
G01 X58.8626 Y70.1780 F2500.00
G01 X58.8626 Y69.3804 F2500.00
G01 X58.8616 Y69.3596 F2500.00
G01 X58.8587 Y69.3402 F2500.00
G01 X58.8539 Y69.3212 F2500.00
G01 X58.8473 Y69.3027 F2500.00
G01 X58.8389 Y69.2849 F2500.00
G01 X58.8288 Y69.2681 F2500.00
G01 X58.8172 Y69.2524 F2500.00
G01 X58.8040 Y69.2378 F2500.00
G01 X58.7894 Y69.2246 F2500.00
G01 X58.7737 Y69.2130 F2500.00
G01 X58.7569 Y69.2029 F2500.00
G01 X58.7391 Y69.1945 F2500.00
G01 X58.7206 Y69.1879 F2500.00
G01 X58.7016 Y69.1831 F2500.00
G01 X58.6822 Y69.1802 F2500.00
G01 X58.6614 Y69.1792 F2500.00
G01 X57.4138 Y69.1792 F2500.00
G01 X57.3930 Y69.1802 F2500.00
G01 X57.3736 Y69.1831 F2500.00
G01 X57.3546 Y69.1879 F2500.00
G01 X57.3361 Y69.1945 F2500.00
G01 X57.3667 Y69.2685 F2500.00
G01 X57.3561 Y69.2735 F2500.00
G01 X57.3460 Y69.2796 F2500.00
G01 X57.3366 Y69.2866 F2500.00
G01 X57.3279 Y69.2945 F2500.00
G01 X57.3200 Y69.3032 F2500.00
G01 X57.3130 Y69.3126 F2500.00
G01 X57.3069 Y69.3227 F2500.00
G01 X57.3019 Y69.3333 F2500.00
G01 X57.2979 Y69.3444 F2500.00
G01 X57.2951 Y69.3558 F2500.00
G01 X57.2933 Y69.3675 F2500.00
G01 X57.2926 Y69.3824 F2500.00
G01 X57.2926 Y70.1760 F2500.00
G01 X57.2933 Y70.1909 F2500.00
G01 X57.2951 Y70.2026 F2500.00
G01 X57.2979 Y70.2140 F2500.00
G01 X57.3019 Y70.2251 F2500.00
G01 X57.3069 Y70.2357 F2500.00
G01 X57.3130 Y70.2458 F2500.00
G01 X57.3200 Y70.2552 F2500.00
G01 X57.3279 Y70.2639 F2500.00
G01 X57.3366 Y70.2718 F2500.00
G01 X57.3460 Y70.2788 F2500.00
G01 X57.3561 Y70.2849 F2500.00
G01 X57.3667 Y70.2899 F2500.00
G01 X57.3778 Y70.2939 F2500.00
G01 X57.3892 Y70.2967 F2500.00
G01 X57.4009 Y70.2985 F2500.00
G01 X57.4158 Y70.2992 F2500.00
G01 X58.6594 Y70.2992 F2500.00
G01 X58.6743 Y70.2985 F2500.00
G01 X58.6860 Y70.2967 F2500.00
G01 X58.6974 Y70.2939 F2500.00
G01 X58.7085 Y70.2899 F2500.00
G01 X58.7191 Y70.2849 F2500.00
G01 X58.7292 Y70.2788 F2500.00
G01 X58.7386 Y70.2718 F2500.00
G01 X58.7473 Y70.2639 F2500.00
G01 X58.7552 Y70.2552 F2500.00
G01 X58.7622 Y70.2458 F2500.00
G01 X58.7683 Y70.2357 F2500.00
G01 X58.7733 Y70.2251 F2500.00
G01 X58.7773 Y70.2140 F2500.00
G01 X58.7801 Y70.2026 F2500.00
G01 X58.7819 Y70.1909 F2500.00
G01 X58.7826 Y70.1760 F2500.00
G01 X58.7826 Y69.3824 F2500.00
G01 X58.7819 Y69.3675 F2500.00
G01 X58.7801 Y69.3558 F2500.00
G01 X58.7773 Y69.3444 F2500.00
G01 X58.7733 Y69.3333 F2500.00
G01 X58.7683 Y69.3227 F2500.00
G01 X58.7622 Y69.3126 F2500.00
G01 X58.7552 Y69.3032 F2500.00
G01 X58.7473 Y69.2945 F2500.00
G01 X58.7386 Y69.2866 F2500.00
G01 X58.7292 Y69.2796 F2500.00
G01 X58.7191 Y69.2735 F2500.00
G01 X58.7085 Y69.2685 F2500.00
G01 X58.6974 Y69.2645 F2500.00
G01 X58.6860 Y69.2617 F2500.00
G01 X58.6743 Y69.2599 F2500.00
G01 X58.6594 Y69.2592 F2500.00
G01 X57.4158 Y69.2592 F2500.00
G01 X57.4009 Y69.2599 F2500.00
G01 X57.3892 Y69.2617 F2500.00
G01 X57.3778 Y69.2645 F2500.00
G01 X57.3667 Y69.2685 F2500.00
G01 X57.3974 Y69.3425 F2500.00
G01 X57.3905 Y69.3462 F2500.00
G01 X57.3845 Y69.3511 F2500.00
G01 X57.3796 Y69.3571 F2500.00
G01 X57.3775 Y69.3605 F2500.00
G01 X57.3746 Y69.3677 F2500.00
G01 X57.3736 Y69.3714 F2500.00
G01 X57.3730 Y69.3753 F2500.00
G01 X57.3726 Y69.3844 F2500.00
G01 X57.3726 Y70.1740 F2500.00
G01 X57.3730 Y70.1831 F2500.00
G01 X57.3736 Y70.1870 F2500.00
G01 X57.3759 Y70.1944 F2500.00
G01 X57.3775 Y70.1979 F2500.00
G01 X57.3819 Y70.2044 F2500.00
G01 X57.3845 Y70.2073 F2500.00
G01 X57.3905 Y70.2122 F2500.00
G01 X57.3939 Y70.2143 F2500.00
G01 X57.4011 Y70.2172 F2500.00
G01 X57.4087 Y70.2188 F2500.00
G01 X57.4178 Y70.2192 F2500.00
G01 X58.6574 Y70.2192 F2500.00
G01 X58.6665 Y70.2188 F2500.00
G01 X58.6704 Y70.2182 F2500.00
G01 X58.6741 Y70.2172 F2500.00
G01 X58.6813 Y70.2143 F2500.00
G01 X58.6878 Y70.2099 F2500.00
G01 X58.6907 Y70.2073 F2500.00
G01 X58.6956 Y70.2013 F2500.00
G01 X58.6977 Y70.1979 F2500.00
G01 X58.7006 Y70.1907 F2500.00
G01 X58.7016 Y70.1870 F2500.00
G01 X58.7022 Y70.1831 F2500.00
G01 X58.7026 Y70.1740 F2500.00
G01 X58.7026 Y69.3844 F2500.00
G01 X58.7022 Y69.3753 F2500.00
G01 X58.7016 Y69.3714 F2500.00
G01 X58.6993 Y69.3640 F2500.00
G01 X58.6977 Y69.3605 F2500.00
G01 X58.6933 Y69.3540 F2500.00
G01 X58.6907 Y69.3511 F2500.00
G01 X58.6847 Y69.3462 F2500.00
G01 X58.6813 Y69.3441 F2500.00
G01 X58.6741 Y69.3412 F2500.00
G01 X58.6704 Y69.3402 F2500.00
G01 X58.6665 Y69.3396 F2500.00
G01 X58.6574 Y69.3392 F2500.00
G01 X57.4178 Y69.3392 F2500.00
G01 X57.4087 Y69.3396 F2500.00
G01 X57.4048 Y69.3402 F2500.00
G01 X57.3974 Y69.3425 F2500.00
G01 X57.4526 Y69.4192 F2500.00
G01 X57.4526 Y70.1392 F2500.00
G01 X58.6226 Y70.1392 F2500.00
G01 X58.6226 Y69.4192 F2500.00
G01 X57.4526 Y69.4192 F2500.00
G01 X57.5326 Y69.4992 F2500.00
G01 X57.5326 Y70.0592 F2500.00
G01 X58.5426 Y70.0592 F2500.00
G01 X58.5426 Y69.4992 F2500.00
G01 X57.5326 Y69.4992 F2500.00
G01 X57.6126 Y69.5792 F2500.00
G01 X57.6126 Y69.9792 F2500.00
G01 X58.4626 Y69.9792 F2500.00
G01 X58.4626 Y69.5792 F2500.00
G01 X57.6126 Y69.5792 F2500.00
G01 X57.6926 Y69.6592 F2500.00
G01 X57.6926 Y69.8992 F2500.00
G01 X58.3826 Y69.8992 F2500.00
G01 X58.3826 Y69.6592 F2500.00
G01 X57.6926 Y69.6592 F2500.00
G01 X57.7726 Y69.7392 F2500.00
G01 X57.7726 Y69.8192 F2500.00
G01 X58.3026 Y69.8192 F2500.00
G01 X58.3026 Y69.7392 F2500.00
G01 X57.7726 Y69.7392 F2500.00
M5
G00 X57.3361 Y72.2945
G01 F60.00
M03 S50.0
G01 F2500.00
G01 X57.3183 Y72.3029 F2500.00
G01 X57.3015 Y72.3130 F2500.00
G01 X57.2858 Y72.3246 F2500.00
G01 X57.2712 Y72.3378 F2500.00
G01 X57.2580 Y72.3524 F2500.00
G01 X57.2464 Y72.3681 F2500.00
G01 X57.2363 Y72.3849 F2500.00
G01 X57.2279 Y72.4027 F2500.00
G01 X57.2213 Y72.4212 F2500.00
G01 X57.2165 Y72.4402 F2500.00
G01 X57.2136 Y72.4596 F2500.00
G01 X57.2126 Y72.4804 F2500.00
G01 X57.2126 Y73.2780 F2500.00
G01 X57.2136 Y73.2988 F2500.00
G01 X57.2165 Y73.3182 F2500.00
G01 X57.2213 Y73.3372 F2500.00
G01 X57.2279 Y73.3557 F2500.00
G01 X57.2363 Y73.3735 F2500.00
G01 X57.2464 Y73.3903 F2500.00
G01 X57.2580 Y73.4060 F2500.00
G01 X57.2712 Y73.4206 F2500.00
G01 X57.2858 Y73.4338 F2500.00
G01 X57.3015 Y73.4454 F2500.00
G01 X57.3183 Y73.4555 F2500.00
G01 X57.3361 Y73.4639 F2500.00
G01 X57.3546 Y73.4705 F2500.00
G01 X57.3736 Y73.4753 F2500.00
G01 X57.3930 Y73.4782 F2500.00
G01 X57.4138 Y73.4792 F2500.00
G01 X58.6614 Y73.4792 F2500.00
G01 X58.6822 Y73.4782 F2500.00
G01 X58.7016 Y73.4753 F2500.00
G01 X58.7206 Y73.4705 F2500.00
G01 X58.7391 Y73.4639 F2500.00
G01 X58.7569 Y73.4555 F2500.00
G01 X58.7737 Y73.4454 F2500.00
G01 X58.7894 Y73.4338 F2500.00
G01 X58.8040 Y73.4206 F2500.00
G01 X58.8172 Y73.4060 F2500.00
G01 X58.8288 Y73.3903 F2500.00
G01 X58.8389 Y73.3735 F2500.00
G01 X58.8473 Y73.3557 F2500.00
G01 X58.8539 Y73.3372 F2500.00
G01 X58.8587 Y73.3182 F2500.00
G01 X58.8616 Y73.2988 F2500.00
G01 X58.8626 Y73.2780 F2500.00
G01 X58.8626 Y72.4804 F2500.00
G01 X58.8616 Y72.4596 F2500.00
G01 X58.8587 Y72.4402 F2500.00
G01 X58.8539 Y72.4212 F2500.00
G01 X58.8473 Y72.4027 F2500.00
G01 X58.8389 Y72.3849 F2500.00
G01 X58.8288 Y72.3681 F2500.00
G01 X58.8172 Y72.3524 F2500.00
G01 X58.8040 Y72.3378 F2500.00
G01 X58.7894 Y72.3246 F2500.00
G01 X58.7737 Y72.3130 F2500.00
G01 X58.7569 Y72.3029 F2500.00
G01 X58.7391 Y72.2945 F2500.00
G01 X58.7206 Y72.2879 F2500.00
G01 X58.7016 Y72.2831 F2500.00
G01 X58.6822 Y72.2802 F2500.00
G01 X58.6614 Y72.2792 F2500.00
G01 X57.4138 Y72.2792 F2500.00
G01 X57.3930 Y72.2802 F2500.00
G01 X57.3736 Y72.2831 F2500.00
G01 X57.3546 Y72.2879 F2500.00
G01 X57.3361 Y72.2945 F2500.00
G01 X57.3667 Y72.3685 F2500.00
G01 X57.3561 Y72.3735 F2500.00
G01 X57.3460 Y72.3796 F2500.00
G01 X57.3366 Y72.3866 F2500.00
G01 X57.3279 Y72.3945 F2500.00
G01 X57.3200 Y72.4032 F2500.00
G01 X57.3130 Y72.4126 F2500.00
G01 X57.3069 Y72.4227 F2500.00
G01 X57.3019 Y72.4333 F2500.00
G01 X57.2979 Y72.4444 F2500.00
G01 X57.2951 Y72.4558 F2500.00
G01 X57.2933 Y72.4675 F2500.00
G01 X57.2926 Y72.4824 F2500.00
G01 X57.2926 Y73.2760 F2500.00
G01 X57.2933 Y73.2909 F2500.00
G01 X57.2951 Y73.3026 F2500.00
G01 X57.2979 Y73.3140 F2500.00
G01 X57.3019 Y73.3251 F2500.00
G01 X57.3069 Y73.3357 F2500.00
G01 X57.3130 Y73.3458 F2500.00
G01 X57.3200 Y73.3552 F2500.00
G01 X57.3279 Y73.3639 F2500.00
G01 X57.3366 Y73.3718 F2500.00
G01 X57.3460 Y73.3788 F2500.00
G01 X57.3561 Y73.3849 F2500.00
G01 X57.3667 Y73.3899 F2500.00
G01 X57.3778 Y73.3939 F2500.00
G01 X57.3892 Y73.3967 F2500.00
G01 X57.4009 Y73.3985 F2500.00
G01 X57.4158 Y73.3992 F2500.00
G01 X58.6594 Y73.3992 F2500.00
G01 X58.6743 Y73.3985 F2500.00
G01 X58.6860 Y73.3967 F2500.00
G01 X58.6974 Y73.3939 F2500.00
G01 X58.7085 Y73.3899 F2500.00
G01 X58.7191 Y73.3849 F2500.00
G01 X58.7292 Y73.3788 F2500.00
G01 X58.7386 Y73.3718 F2500.00
G01 X58.7473 Y73.3639 F2500.00
G01 X58.7552 Y73.3552 F2500.00
G01 X58.7622 Y73.3458 F2500.00
G01 X58.7683 Y73.3357 F2500.00
G01 X58.7733 Y73.3251 F2500.00
G01 X58.7773 Y73.3140 F2500.00
G01 X58.7801 Y73.3026 F2500.00
G01 X58.7819 Y73.2909 F2500.00
G01 X58.7826 Y73.2760 F2500.00
G01 X58.7826 Y72.4824 F2500.00
G01 X58.7819 Y72.4675 F2500.00
G01 X58.7801 Y72.4558 F2500.00
G01 X58.7773 Y72.4444 F2500.00
G01 X58.7733 Y72.4333 F2500.00
G01 X58.7683 Y72.4227 F2500.00
G01 X58.7622 Y72.4126 F2500.00
G01 X58.7552 Y72.4032 F2500.00
G01 X58.7473 Y72.3945 F2500.00
G01 X58.7386 Y72.3866 F2500.00
G01 X58.7292 Y72.3796 F2500.00
G01 X58.7191 Y72.3735 F2500.00
G01 X58.7085 Y72.3685 F2500.00
G01 X58.6974 Y72.3645 F2500.00
G01 X58.6860 Y72.3617 F2500.00
G01 X58.6743 Y72.3599 F2500.00
G01 X58.6594 Y72.3592 F2500.00
G01 X57.4158 Y72.3592 F2500.00
G01 X57.4009 Y72.3599 F2500.00
G01 X57.3892 Y72.3617 F2500.00
G01 X57.3778 Y72.3645 F2500.00
G01 X57.3667 Y72.3685 F2500.00
G01 X57.3974 Y72.4425 F2500.00
G01 X57.3905 Y72.4462 F2500.00
G01 X57.3845 Y72.4511 F2500.00
G01 X57.3796 Y72.4571 F2500.00
G01 X57.3775 Y72.4605 F2500.00
G01 X57.3746 Y72.4677 F2500.00
G01 X57.3736 Y72.4714 F2500.00
G01 X57.3730 Y72.4753 F2500.00
G01 X57.3726 Y72.4844 F2500.00
G01 X57.3726 Y73.2740 F2500.00
G01 X57.3730 Y73.2831 F2500.00
G01 X57.3736 Y73.2870 F2500.00
G01 X57.3759 Y73.2944 F2500.00
G01 X57.3775 Y73.2979 F2500.00
G01 X57.3819 Y73.3044 F2500.00
G01 X57.3845 Y73.3073 F2500.00
G01 X57.3905 Y73.3122 F2500.00
G01 X57.3939 Y73.3143 F2500.00
G01 X57.4011 Y73.3172 F2500.00
G01 X57.4087 Y73.3188 F2500.00
G01 X57.4178 Y73.3192 F2500.00
G01 X58.6574 Y73.3192 F2500.00
G01 X58.6665 Y73.3188 F2500.00
G01 X58.6704 Y73.3182 F2500.00
G01 X58.6741 Y73.3172 F2500.00
G01 X58.6813 Y73.3143 F2500.00
G01 X58.6878 Y73.3099 F2500.00
G01 X58.6907 Y73.3073 F2500.00
G01 X58.6956 Y73.3013 F2500.00
G01 X58.6977 Y73.2979 F2500.00
G01 X58.7006 Y73.2907 F2500.00
G01 X58.7016 Y73.2870 F2500.00
G01 X58.7022 Y73.2831 F2500.00
G01 X58.7026 Y73.2740 F2500.00
G01 X58.7026 Y72.4844 F2500.00
G01 X58.7022 Y72.4753 F2500.00
G01 X58.7016 Y72.4714 F2500.00
G01 X58.6993 Y72.4640 F2500.00
G01 X58.6977 Y72.4605 F2500.00
G01 X58.6933 Y72.4540 F2500.00
G01 X58.6907 Y72.4511 F2500.00
G01 X58.6847 Y72.4462 F2500.00
G01 X58.6813 Y72.4441 F2500.00
G01 X58.6741 Y72.4412 F2500.00
G01 X58.6704 Y72.4402 F2500.00
G01 X58.6665 Y72.4396 F2500.00
G01 X58.6574 Y72.4392 F2500.00
G01 X57.4178 Y72.4392 F2500.00
G01 X57.4087 Y72.4396 F2500.00
G01 X57.4048 Y72.4402 F2500.00
G01 X57.3974 Y72.4425 F2500.00
G01 X57.4526 Y72.5192 F2500.00
G01 X57.4526 Y73.2392 F2500.00
G01 X58.6226 Y73.2392 F2500.00
G01 X58.6226 Y72.5192 F2500.00
G01 X57.4526 Y72.5192 F2500.00
G01 X57.5326 Y72.5992 F2500.00
G01 X57.5326 Y73.1592 F2500.00
G01 X58.5426 Y73.1592 F2500.00
G01 X58.5426 Y72.5992 F2500.00
G01 X57.5326 Y72.5992 F2500.00
G01 X57.6126 Y72.6792 F2500.00
G01 X57.6126 Y73.0792 F2500.00
G01 X58.4626 Y73.0792 F2500.00
G01 X58.4626 Y72.6792 F2500.00
G01 X57.6126 Y72.6792 F2500.00
G01 X57.6926 Y72.7592 F2500.00
G01 X57.6926 Y72.9992 F2500.00
G01 X58.3826 Y72.9992 F2500.00
G01 X58.3826 Y72.7592 F2500.00
G01 X57.6926 Y72.7592 F2500.00
G01 X57.7726 Y72.8392 F2500.00
G01 X57.7726 Y72.9192 F2500.00
G01 X58.3026 Y72.9192 F2500.00
G01 X58.3026 Y72.8392 F2500.00
G01 X57.7726 Y72.8392 F2500.00
M5
G00 X57.3361 Y75.0105
G01 F60.00
M03 S50.0
G01 F2500.00
G01 X57.3183 Y75.0189 F2500.00
G01 X57.3015 Y75.0290 F2500.00
G01 X57.2858 Y75.0406 F2500.00
G01 X57.2712 Y75.0538 F2500.00
G01 X57.2580 Y75.0684 F2500.00
G01 X57.2464 Y75.0841 F2500.00
G01 X57.2363 Y75.1009 F2500.00
G01 X57.2279 Y75.1187 F2500.00
G01 X57.2213 Y75.1372 F2500.00
G01 X57.2165 Y75.1562 F2500.00
G01 X57.2136 Y75.1756 F2500.00
G01 X57.2126 Y75.1964 F2500.00
G01 X57.2126 Y75.9940 F2500.00
G01 X57.2136 Y76.0148 F2500.00
G01 X57.2165 Y76.0342 F2500.00
G01 X57.2213 Y76.0532 F2500.00
G01 X57.2279 Y76.0717 F2500.00
G01 X57.2363 Y76.0895 F2500.00
G01 X57.2464 Y76.1063 F2500.00
G01 X57.2580 Y76.1220 F2500.00
G01 X57.2712 Y76.1366 F2500.00
G01 X57.2858 Y76.1498 F2500.00
G01 X57.3015 Y76.1614 F2500.00
G01 X57.3183 Y76.1715 F2500.00
G01 X57.3361 Y76.1799 F2500.00
G01 X57.3546 Y76.1865 F2500.00
G01 X57.3736 Y76.1913 F2500.00
G01 X57.3930 Y76.1942 F2500.00
G01 X57.4138 Y76.1952 F2500.00
G01 X58.6614 Y76.1952 F2500.00
G01 X58.6822 Y76.1942 F2500.00
G01 X58.7016 Y76.1913 F2500.00
G01 X58.7206 Y76.1865 F2500.00
G01 X58.7391 Y76.1799 F2500.00
G01 X58.7569 Y76.1715 F2500.00
G01 X58.7737 Y76.1614 F2500.00
G01 X58.7894 Y76.1498 F2500.00
G01 X58.8040 Y76.1366 F2500.00
G01 X58.8172 Y76.1220 F2500.00
G01 X58.8288 Y76.1063 F2500.00
G01 X58.8389 Y76.0895 F2500.00
G01 X58.8473 Y76.0717 F2500.00
G01 X58.8539 Y76.0532 F2500.00
G01 X58.8587 Y76.0342 F2500.00
G01 X58.8616 Y76.0148 F2500.00
G01 X58.8626 Y75.9940 F2500.00
G01 X58.8626 Y75.1964 F2500.00
G01 X58.8616 Y75.1756 F2500.00
G01 X58.8587 Y75.1562 F2500.00
G01 X58.8539 Y75.1372 F2500.00
G01 X58.8473 Y75.1187 F2500.00
G01 X58.8389 Y75.1009 F2500.00
G01 X58.8288 Y75.0841 F2500.00
G01 X58.8172 Y75.0684 F2500.00
G01 X58.8040 Y75.0538 F2500.00
G01 X58.7894 Y75.0406 F2500.00
G01 X58.7737 Y75.0290 F2500.00
G01 X58.7569 Y75.0189 F2500.00
G01 X58.7391 Y75.0105 F2500.00
G01 X58.7206 Y75.0039 F2500.00
G01 X58.7016 Y74.9991 F2500.00
G01 X58.6822 Y74.9962 F2500.00
G01 X58.6614 Y74.9952 F2500.00
G01 X57.4138 Y74.9952 F2500.00
G01 X57.3930 Y74.9962 F2500.00
G01 X57.3736 Y74.9991 F2500.00
G01 X57.3546 Y75.0039 F2500.00
G01 X57.3361 Y75.0105 F2500.00
G01 X57.3667 Y75.0845 F2500.00
G01 X57.3561 Y75.0895 F2500.00
G01 X57.3460 Y75.0956 F2500.00
G01 X57.3366 Y75.1026 F2500.00
G01 X57.3279 Y75.1105 F2500.00
G01 X57.3200 Y75.1192 F2500.00
G01 X57.3130 Y75.1286 F2500.00
G01 X57.3069 Y75.1387 F2500.00
G01 X57.3019 Y75.1493 F2500.00
G01 X57.2979 Y75.1604 F2500.00
G01 X57.2951 Y75.1718 F2500.00
G01 X57.2933 Y75.1835 F2500.00
G01 X57.2926 Y75.1984 F2500.00
G01 X57.2926 Y75.9920 F2500.00
G01 X57.2933 Y76.0069 F2500.00
G01 X57.2951 Y76.0186 F2500.00
G01 X57.2979 Y76.0300 F2500.00
G01 X57.3019 Y76.0411 F2500.00
G01 X57.3069 Y76.0517 F2500.00
G01 X57.3130 Y76.0618 F2500.00
G01 X57.3200 Y76.0712 F2500.00
G01 X57.3279 Y76.0799 F2500.00
G01 X57.3366 Y76.0878 F2500.00
G01 X57.3460 Y76.0948 F2500.00
G01 X57.3561 Y76.1009 F2500.00
G01 X57.3667 Y76.1059 F2500.00
G01 X57.3778 Y76.1099 F2500.00
G01 X57.3892 Y76.1127 F2500.00
G01 X57.4009 Y76.1145 F2500.00
G01 X57.4158 Y76.1152 F2500.00
G01 X58.6594 Y76.1152 F2500.00
G01 X58.6743 Y76.1145 F2500.00
G01 X58.6860 Y76.1127 F2500.00
G01 X58.6974 Y76.1099 F2500.00
G01 X58.7085 Y76.1059 F2500.00
G01 X58.7191 Y76.1009 F2500.00
G01 X58.7292 Y76.0948 F2500.00
G01 X58.7386 Y76.0878 F2500.00
G01 X58.7473 Y76.0799 F2500.00
G01 X58.7552 Y76.0712 F2500.00
G01 X58.7622 Y76.0618 F2500.00
G01 X58.7683 Y76.0517 F2500.00
G01 X58.7733 Y76.0411 F2500.00
G01 X58.7773 Y76.0300 F2500.00
G01 X58.7801 Y76.0186 F2500.00
G01 X58.7819 Y76.0069 F2500.00
G01 X58.7826 Y75.9920 F2500.00
G01 X58.7826 Y75.1984 F2500.00
G01 X58.7819 Y75.1835 F2500.00
G01 X58.7801 Y75.1718 F2500.00
G01 X58.7773 Y75.1604 F2500.00
G01 X58.7733 Y75.1493 F2500.00
G01 X58.7683 Y75.1387 F2500.00
G01 X58.7622 Y75.1286 F2500.00
G01 X58.7552 Y75.1192 F2500.00
G01 X58.7473 Y75.1105 F2500.00
G01 X58.7386 Y75.1026 F2500.00
G01 X58.7292 Y75.0956 F2500.00
G01 X58.7191 Y75.0895 F2500.00
G01 X58.7085 Y75.0845 F2500.00
G01 X58.6974 Y75.0805 F2500.00
G01 X58.6860 Y75.0777 F2500.00
G01 X58.6743 Y75.0759 F2500.00
G01 X58.6594 Y75.0752 F2500.00
G01 X57.4158 Y75.0752 F2500.00
G01 X57.4009 Y75.0759 F2500.00
G01 X57.3892 Y75.0777 F2500.00
G01 X57.3778 Y75.0805 F2500.00
G01 X57.3667 Y75.0845 F2500.00
G01 X57.3974 Y75.1585 F2500.00
G01 X57.3905 Y75.1622 F2500.00
G01 X57.3845 Y75.1671 F2500.00
G01 X57.3796 Y75.1731 F2500.00
G01 X57.3775 Y75.1765 F2500.00
G01 X57.3746 Y75.1837 F2500.00
G01 X57.3736 Y75.1874 F2500.00
G01 X57.3730 Y75.1913 F2500.00
G01 X57.3726 Y75.2004 F2500.00
G01 X57.3726 Y75.9900 F2500.00
G01 X57.3730 Y75.9991 F2500.00
G01 X57.3736 Y76.0030 F2500.00
G01 X57.3759 Y76.0104 F2500.00
G01 X57.3775 Y76.0139 F2500.00
G01 X57.3819 Y76.0204 F2500.00
G01 X57.3845 Y76.0233 F2500.00
G01 X57.3905 Y76.0282 F2500.00
G01 X57.3939 Y76.0303 F2500.00
G01 X57.4011 Y76.0332 F2500.00
G01 X57.4087 Y76.0348 F2500.00
G01 X57.4178 Y76.0352 F2500.00
G01 X58.6574 Y76.0352 F2500.00
G01 X58.6665 Y76.0348 F2500.00
G01 X58.6704 Y76.0342 F2500.00
G01 X58.6741 Y76.0332 F2500.00
G01 X58.6813 Y76.0303 F2500.00
G01 X58.6878 Y76.0259 F2500.00
G01 X58.6907 Y76.0233 F2500.00
G01 X58.6956 Y76.0173 F2500.00
G01 X58.6977 Y76.0139 F2500.00
G01 X58.7006 Y76.0067 F2500.00
G01 X58.7016 Y76.0030 F2500.00
G01 X58.7022 Y75.9991 F2500.00
G01 X58.7026 Y75.9900 F2500.00
G01 X58.7026 Y75.2004 F2500.00
G01 X58.7022 Y75.1913 F2500.00
G01 X58.7016 Y75.1874 F2500.00
G01 X58.6993 Y75.1800 F2500.00
G01 X58.6977 Y75.1765 F2500.00
G01 X58.6933 Y75.1700 F2500.00
G01 X58.6907 Y75.1671 F2500.00
G01 X58.6847 Y75.1622 F2500.00
G01 X58.6813 Y75.1601 F2500.00
G01 X58.6741 Y75.1572 F2500.00
G01 X58.6704 Y75.1562 F2500.00
G01 X58.6665 Y75.1556 F2500.00
G01 X58.6574 Y75.1552 F2500.00
G01 X57.4178 Y75.1552 F2500.00
G01 X57.4087 Y75.1556 F2500.00
G01 X57.4048 Y75.1562 F2500.00
G01 X57.3974 Y75.1585 F2500.00
G01 X57.4526 Y75.2352 F2500.00
G01 X57.4526 Y75.9552 F2500.00
G01 X58.6226 Y75.9552 F2500.00
G01 X58.6226 Y75.2352 F2500.00
G01 X57.4526 Y75.2352 F2500.00
G01 X57.5326 Y75.3152 F2500.00
G01 X57.5326 Y75.8752 F2500.00
G01 X58.5426 Y75.8752 F2500.00
G01 X58.5426 Y75.3152 F2500.00
G01 X57.5326 Y75.3152 F2500.00
G01 X57.6126 Y75.3952 F2500.00
G01 X57.6126 Y75.7952 F2500.00
G01 X58.4626 Y75.7952 F2500.00
G01 X58.4626 Y75.3952 F2500.00
G01 X57.6126 Y75.3952 F2500.00
G01 X57.6926 Y75.4752 F2500.00
G01 X57.6926 Y75.7152 F2500.00
G01 X58.3826 Y75.7152 F2500.00
G01 X58.3826 Y75.4752 F2500.00
G01 X57.6926 Y75.4752 F2500.00
G01 X57.7726 Y75.5552 F2500.00
G01 X57.7726 Y75.6352 F2500.00
G01 X58.3026 Y75.6352 F2500.00
G01 X58.3026 Y75.5552 F2500.00
G01 X57.7726 Y75.5552 F2500.00
M5
G00 X55.2326 Y75.5552
G01 F60.00
M03 S50.0
G01 F2500.00
G01 X55.7626 Y75.5552 F2500.00
G01 X55.7626 Y75.6352 F2500.00
G01 X55.2326 Y75.6352 F2500.00
G01 X55.2326 Y75.5552 F2500.00
G01 X55.1526 Y75.4752 F2500.00
G01 X55.8426 Y75.4752 F2500.00
G01 X55.8426 Y75.7152 F2500.00
G01 X55.1526 Y75.7152 F2500.00
G01 X55.1526 Y75.4752 F2500.00
G01 X55.0726 Y75.3952 F2500.00
G01 X55.9226 Y75.3952 F2500.00
G01 X55.9226 Y75.7952 F2500.00
G01 X55.0726 Y75.7952 F2500.00
G01 X55.0726 Y75.3952 F2500.00
G01 X54.9926 Y75.3152 F2500.00
G01 X56.0026 Y75.3152 F2500.00
G01 X56.0026 Y75.8752 F2500.00
G01 X54.9926 Y75.8752 F2500.00
G01 X54.9926 Y75.3152 F2500.00
G01 X54.9126 Y75.2352 F2500.00
G01 X56.0826 Y75.2352 F2500.00
G01 X56.0826 Y75.9552 F2500.00
G01 X54.9126 Y75.9552 F2500.00
G01 X54.9126 Y75.2352 F2500.00
G01 X54.8574 Y75.1585 F2500.00
G01 X54.8648 Y75.1562 F2500.00
G01 X54.8687 Y75.1556 F2500.00
G01 X54.8778 Y75.1552 F2500.00
G01 X56.1174 Y75.1552 F2500.00
G01 X56.1265 Y75.1556 F2500.00
G01 X56.1304 Y75.1562 F2500.00
G01 X56.1341 Y75.1572 F2500.00
G01 X56.1413 Y75.1601 F2500.00
G01 X56.1447 Y75.1622 F2500.00
G01 X56.1507 Y75.1671 F2500.00
G01 X56.1533 Y75.1700 F2500.00
G01 X56.1577 Y75.1765 F2500.00
G01 X56.1593 Y75.1800 F2500.00
G01 X56.1616 Y75.1874 F2500.00
G01 X56.1622 Y75.1913 F2500.00
G01 X56.1626 Y75.2004 F2500.00
G01 X56.1626 Y75.9900 F2500.00
G01 X56.1622 Y75.9991 F2500.00
G01 X56.1616 Y76.0030 F2500.00
G01 X56.1606 Y76.0067 F2500.00
G01 X56.1577 Y76.0139 F2500.00
G01 X56.1556 Y76.0173 F2500.00
G01 X56.1507 Y76.0233 F2500.00
G01 X56.1478 Y76.0259 F2500.00
G01 X56.1413 Y76.0303 F2500.00
G01 X56.1341 Y76.0332 F2500.00
G01 X56.1304 Y76.0342 F2500.00
G01 X56.1265 Y76.0348 F2500.00
G01 X56.1174 Y76.0352 F2500.00
G01 X54.8778 Y76.0352 F2500.00
G01 X54.8687 Y76.0348 F2500.00
G01 X54.8611 Y76.0332 F2500.00
G01 X54.8539 Y76.0303 F2500.00
G01 X54.8505 Y76.0282 F2500.00
G01 X54.8445 Y76.0233 F2500.00
G01 X54.8419 Y76.0204 F2500.00
G01 X54.8375 Y76.0139 F2500.00
G01 X54.8359 Y76.0104 F2500.00
G01 X54.8336 Y76.0030 F2500.00
G01 X54.8330 Y75.9991 F2500.00
G01 X54.8326 Y75.9900 F2500.00
G01 X54.8326 Y75.2004 F2500.00
G01 X54.8330 Y75.1913 F2500.00
G01 X54.8336 Y75.1874 F2500.00
G01 X54.8346 Y75.1837 F2500.00
G01 X54.8375 Y75.1765 F2500.00
G01 X54.8396 Y75.1731 F2500.00
G01 X54.8445 Y75.1671 F2500.00
G01 X54.8505 Y75.1622 F2500.00
G01 X54.8574 Y75.1585 F2500.00
G01 X54.8267 Y75.0845 F2500.00
G01 X54.8378 Y75.0805 F2500.00
G01 X54.8492 Y75.0777 F2500.00
G01 X54.8609 Y75.0759 F2500.00
G01 X54.8758 Y75.0752 F2500.00
G01 X56.1194 Y75.0752 F2500.00
G01 X56.1343 Y75.0759 F2500.00
G01 X56.1460 Y75.0777 F2500.00
G01 X56.1574 Y75.0805 F2500.00
G01 X56.1685 Y75.0845 F2500.00
G01 X56.1791 Y75.0895 F2500.00
G01 X56.1892 Y75.0956 F2500.00
G01 X56.1986 Y75.1026 F2500.00
G01 X56.2073 Y75.1105 F2500.00
G01 X56.2152 Y75.1192 F2500.00
G01 X56.2222 Y75.1286 F2500.00
G01 X56.2283 Y75.1387 F2500.00
G01 X56.2333 Y75.1493 F2500.00
G01 X56.2373 Y75.1604 F2500.00
G01 X56.2401 Y75.1718 F2500.00
G01 X56.2419 Y75.1835 F2500.00
G01 X56.2426 Y75.1984 F2500.00
G01 X56.2426 Y75.9920 F2500.00
G01 X56.2419 Y76.0069 F2500.00
G01 X56.2401 Y76.0186 F2500.00
G01 X56.2373 Y76.0300 F2500.00
G01 X56.2333 Y76.0411 F2500.00
G01 X56.2283 Y76.0517 F2500.00
G01 X56.2222 Y76.0618 F2500.00
G01 X56.2152 Y76.0712 F2500.00
G01 X56.2073 Y76.0799 F2500.00
G01 X56.1986 Y76.0878 F2500.00
G01 X56.1892 Y76.0948 F2500.00
G01 X56.1791 Y76.1009 F2500.00
G01 X56.1685 Y76.1059 F2500.00
G01 X56.1574 Y76.1099 F2500.00
G01 X56.1460 Y76.1127 F2500.00
G01 X56.1343 Y76.1145 F2500.00
G01 X56.1194 Y76.1152 F2500.00
G01 X54.8758 Y76.1152 F2500.00
G01 X54.8609 Y76.1145 F2500.00
G01 X54.8492 Y76.1127 F2500.00
G01 X54.8378 Y76.1099 F2500.00
G01 X54.8267 Y76.1059 F2500.00
G01 X54.8161 Y76.1009 F2500.00
G01 X54.8060 Y76.0948 F2500.00
G01 X54.7966 Y76.0878 F2500.00
G01 X54.7879 Y76.0799 F2500.00
G01 X54.7800 Y76.0712 F2500.00
G01 X54.7730 Y76.0618 F2500.00
G01 X54.7669 Y76.0517 F2500.00
G01 X54.7619 Y76.0411 F2500.00
G01 X54.7579 Y76.0300 F2500.00
G01 X54.7551 Y76.0186 F2500.00
G01 X54.7533 Y76.0069 F2500.00
G01 X54.7526 Y75.9920 F2500.00
G01 X54.7526 Y75.1984 F2500.00
G01 X54.7533 Y75.1835 F2500.00
G01 X54.7551 Y75.1718 F2500.00
G01 X54.7579 Y75.1604 F2500.00
G01 X54.7619 Y75.1493 F2500.00
G01 X54.7669 Y75.1387 F2500.00
G01 X54.7730 Y75.1286 F2500.00
G01 X54.7800 Y75.1192 F2500.00
G01 X54.7879 Y75.1105 F2500.00
G01 X54.7966 Y75.1026 F2500.00
G01 X54.8060 Y75.0956 F2500.00
G01 X54.8161 Y75.0895 F2500.00
G01 X54.8267 Y75.0845 F2500.00
G01 X54.7961 Y75.0105 F2500.00
G01 X54.8146 Y75.0039 F2500.00
G01 X54.8336 Y74.9991 F2500.00
G01 X54.8530 Y74.9962 F2500.00
G01 X54.8738 Y74.9952 F2500.00
G01 X56.1214 Y74.9952 F2500.00
G01 X56.1422 Y74.9962 F2500.00
G01 X56.1616 Y74.9991 F2500.00
G01 X56.1806 Y75.0039 F2500.00
G01 X56.1991 Y75.0105 F2500.00
G01 X56.2169 Y75.0189 F2500.00
G01 X56.2337 Y75.0290 F2500.00
G01 X56.2494 Y75.0406 F2500.00
G01 X56.2640 Y75.0538 F2500.00
G01 X56.2772 Y75.0684 F2500.00
G01 X56.2888 Y75.0841 F2500.00
G01 X56.2989 Y75.1009 F2500.00
G01 X56.3073 Y75.1187 F2500.00
G01 X56.3139 Y75.1372 F2500.00
G01 X56.3187 Y75.1562 F2500.00
G01 X56.3216 Y75.1756 F2500.00
G01 X56.3226 Y75.1964 F2500.00
G01 X56.3226 Y75.9940 F2500.00
G01 X56.3216 Y76.0148 F2500.00
G01 X56.3187 Y76.0342 F2500.00
G01 X56.3139 Y76.0532 F2500.00
G01 X56.3073 Y76.0717 F2500.00
G01 X56.2989 Y76.0895 F2500.00
G01 X56.2888 Y76.1063 F2500.00
G01 X56.2772 Y76.1220 F2500.00
G01 X56.2640 Y76.1366 F2500.00
G01 X56.2494 Y76.1498 F2500.00
G01 X56.2337 Y76.1614 F2500.00
G01 X56.2169 Y76.1715 F2500.00
G01 X56.1991 Y76.1799 F2500.00
G01 X56.1806 Y76.1865 F2500.00
G01 X56.1616 Y76.1913 F2500.00
G01 X56.1422 Y76.1942 F2500.00
G01 X56.1214 Y76.1952 F2500.00
G01 X54.8738 Y76.1952 F2500.00
G01 X54.8530 Y76.1942 F2500.00
G01 X54.8336 Y76.1913 F2500.00
G01 X54.8146 Y76.1865 F2500.00
G01 X54.7961 Y76.1799 F2500.00
G01 X54.7783 Y76.1715 F2500.00
G01 X54.7615 Y76.1614 F2500.00
G01 X54.7458 Y76.1498 F2500.00
G01 X54.7312 Y76.1366 F2500.00
G01 X54.7180 Y76.1220 F2500.00
G01 X54.7064 Y76.1063 F2500.00
G01 X54.6963 Y76.0895 F2500.00
G01 X54.6879 Y76.0717 F2500.00
G01 X54.6813 Y76.0532 F2500.00
G01 X54.6765 Y76.0342 F2500.00
G01 X54.6736 Y76.0148 F2500.00
G01 X54.6726 Y75.9940 F2500.00
G01 X54.6726 Y75.1964 F2500.00
G01 X54.6736 Y75.1756 F2500.00
G01 X54.6765 Y75.1562 F2500.00
G01 X54.6813 Y75.1372 F2500.00
G01 X54.6879 Y75.1187 F2500.00
G01 X54.6963 Y75.1009 F2500.00
G01 X54.7064 Y75.0841 F2500.00
G01 X54.7180 Y75.0684 F2500.00
G01 X54.7312 Y75.0538 F2500.00
G01 X54.7458 Y75.0406 F2500.00
G01 X54.7615 Y75.0290 F2500.00
G01 X54.7783 Y75.0189 F2500.00
G01 X54.7961 Y75.0105 F2500.00
M5
G00 X52.6926 Y75.5552
G01 F60.00
M03 S50.0
G01 F2500.00
G01 X53.2226 Y75.5552 F2500.00
G01 X53.2226 Y75.6352 F2500.00
G01 X52.6926 Y75.6352 F2500.00
G01 X52.6926 Y75.5552 F2500.00
G01 X52.6126 Y75.4752 F2500.00
G01 X53.3026 Y75.4752 F2500.00
G01 X53.3026 Y75.7152 F2500.00
G01 X52.6126 Y75.7152 F2500.00
G01 X52.6126 Y75.4752 F2500.00
G01 X52.5326 Y75.3952 F2500.00
G01 X53.3826 Y75.3952 F2500.00
G01 X53.3826 Y75.7952 F2500.00
G01 X52.5326 Y75.7952 F2500.00
G01 X52.5326 Y75.3952 F2500.00
G01 X52.4526 Y75.3152 F2500.00
G01 X53.4626 Y75.3152 F2500.00
G01 X53.4626 Y75.8752 F2500.00
G01 X52.4526 Y75.8752 F2500.00
G01 X52.4526 Y75.3152 F2500.00
G01 X52.3726 Y75.2352 F2500.00
G01 X53.5426 Y75.2352 F2500.00
G01 X53.5426 Y75.9552 F2500.00
G01 X52.3726 Y75.9552 F2500.00
G01 X52.3726 Y75.2352 F2500.00
G01 X52.3174 Y75.1585 F2500.00
G01 X52.3248 Y75.1562 F2500.00
G01 X52.3287 Y75.1556 F2500.00
G01 X52.3378 Y75.1552 F2500.00
G01 X53.5774 Y75.1552 F2500.00
G01 X53.5865 Y75.1556 F2500.00
G01 X53.5904 Y75.1562 F2500.00
G01 X53.5941 Y75.1572 F2500.00
G01 X53.6013 Y75.1601 F2500.00
G01 X53.6047 Y75.1622 F2500.00
G01 X53.6107 Y75.1671 F2500.00
G01 X53.6133 Y75.1700 F2500.00
G01 X53.6177 Y75.1765 F2500.00
G01 X53.6193 Y75.1800 F2500.00
G01 X53.6216 Y75.1874 F2500.00
G01 X53.6222 Y75.1913 F2500.00
G01 X53.6226 Y75.2004 F2500.00
G01 X53.6226 Y75.9900 F2500.00
G01 X53.6222 Y75.9991 F2500.00
G01 X53.6216 Y76.0030 F2500.00
G01 X53.6206 Y76.0067 F2500.00
G01 X53.6177 Y76.0139 F2500.00
G01 X53.6156 Y76.0173 F2500.00
G01 X53.6107 Y76.0233 F2500.00
G01 X53.6078 Y76.0259 F2500.00
G01 X53.6013 Y76.0303 F2500.00
G01 X53.5941 Y76.0332 F2500.00
G01 X53.5904 Y76.0342 F2500.00
G01 X53.5865 Y76.0348 F2500.00
G01 X53.5774 Y76.0352 F2500.00
G01 X52.3378 Y76.0352 F2500.00
G01 X52.3287 Y76.0348 F2500.00
G01 X52.3211 Y76.0332 F2500.00
G01 X52.3139 Y76.0303 F2500.00
G01 X52.3105 Y76.0282 F2500.00
G01 X52.3045 Y76.0233 F2500.00
G01 X52.3019 Y76.0204 F2500.00
G01 X52.2975 Y76.0139 F2500.00
G01 X52.2959 Y76.0104 F2500.00
G01 X52.2936 Y76.0030 F2500.00
G01 X52.2930 Y75.9991 F2500.00
G01 X52.2926 Y75.9900 F2500.00
G01 X52.2926 Y75.2004 F2500.00
G01 X52.2930 Y75.1913 F2500.00
G01 X52.2936 Y75.1874 F2500.00
G01 X52.2946 Y75.1837 F2500.00
G01 X52.2975 Y75.1765 F2500.00
G01 X52.2996 Y75.1731 F2500.00
G01 X52.3045 Y75.1671 F2500.00
G01 X52.3105 Y75.1622 F2500.00
G01 X52.3174 Y75.1585 F2500.00
G01 X52.2867 Y75.0845 F2500.00
G01 X52.2978 Y75.0805 F2500.00
G01 X52.3092 Y75.0777 F2500.00
G01 X52.3209 Y75.0759 F2500.00
G01 X52.3358 Y75.0752 F2500.00
G01 X53.5794 Y75.0752 F2500.00
G01 X53.5943 Y75.0759 F2500.00
G01 X53.6060 Y75.0777 F2500.00
G01 X53.6174 Y75.0805 F2500.00
G01 X53.6285 Y75.0845 F2500.00
G01 X53.6391 Y75.0895 F2500.00
G01 X53.6492 Y75.0956 F2500.00
G01 X53.6586 Y75.1026 F2500.00
G01 X53.6673 Y75.1105 F2500.00
G01 X53.6752 Y75.1192 F2500.00
G01 X53.6822 Y75.1286 F2500.00
G01 X53.6883 Y75.1387 F2500.00
G01 X53.6933 Y75.1493 F2500.00
G01 X53.6973 Y75.1604 F2500.00
G01 X53.7001 Y75.1718 F2500.00
G01 X53.7019 Y75.1835 F2500.00
G01 X53.7026 Y75.1984 F2500.00
G01 X53.7026 Y75.9920 F2500.00
G01 X53.7019 Y76.0069 F2500.00
G01 X53.7001 Y76.0186 F2500.00
G01 X53.6973 Y76.0300 F2500.00
G01 X53.6933 Y76.0411 F2500.00
G01 X53.6883 Y76.0517 F2500.00
G01 X53.6822 Y76.0618 F2500.00
G01 X53.6752 Y76.0712 F2500.00
G01 X53.6673 Y76.0799 F2500.00
G01 X53.6586 Y76.0878 F2500.00
G01 X53.6492 Y76.0948 F2500.00
G01 X53.6391 Y76.1009 F2500.00
G01 X53.6285 Y76.1059 F2500.00
G01 X53.6174 Y76.1099 F2500.00
G01 X53.6060 Y76.1127 F2500.00
G01 X53.5943 Y76.1145 F2500.00
G01 X53.5794 Y76.1152 F2500.00
G01 X52.3358 Y76.1152 F2500.00
G01 X52.3209 Y76.1145 F2500.00
G01 X52.3092 Y76.1127 F2500.00
G01 X52.2978 Y76.1099 F2500.00
G01 X52.2867 Y76.1059 F2500.00
G01 X52.2761 Y76.1009 F2500.00
G01 X52.2660 Y76.0948 F2500.00
G01 X52.2566 Y76.0878 F2500.00
G01 X52.2479 Y76.0799 F2500.00
G01 X52.2400 Y76.0712 F2500.00
G01 X52.2330 Y76.0618 F2500.00
G01 X52.2269 Y76.0517 F2500.00
G01 X52.2219 Y76.0411 F2500.00
G01 X52.2179 Y76.0300 F2500.00
G01 X52.2151 Y76.0186 F2500.00
G01 X52.2133 Y76.0069 F2500.00
G01 X52.2126 Y75.9920 F2500.00
G01 X52.2126 Y75.1984 F2500.00
G01 X52.2133 Y75.1835 F2500.00
G01 X52.2151 Y75.1718 F2500.00
G01 X52.2179 Y75.1604 F2500.00
G01 X52.2219 Y75.1493 F2500.00
G01 X52.2269 Y75.1387 F2500.00
G01 X52.2330 Y75.1286 F2500.00
G01 X52.2400 Y75.1192 F2500.00
G01 X52.2479 Y75.1105 F2500.00
G01 X52.2566 Y75.1026 F2500.00
G01 X52.2660 Y75.0956 F2500.00
G01 X52.2761 Y75.0895 F2500.00
G01 X52.2867 Y75.0845 F2500.00
G01 X52.2561 Y75.0105 F2500.00
G01 X52.2746 Y75.0039 F2500.00
G01 X52.2936 Y74.9991 F2500.00
G01 X52.3130 Y74.9962 F2500.00
G01 X52.3338 Y74.9952 F2500.00
G01 X53.5814 Y74.9952 F2500.00
G01 X53.6022 Y74.9962 F2500.00
G01 X53.6216 Y74.9991 F2500.00
G01 X53.6406 Y75.0039 F2500.00
G01 X53.6591 Y75.0105 F2500.00
G01 X53.6769 Y75.0189 F2500.00
G01 X53.6937 Y75.0290 F2500.00
G01 X53.7094 Y75.0406 F2500.00
G01 X53.7240 Y75.0538 F2500.00
G01 X53.7372 Y75.0684 F2500.00
G01 X53.7488 Y75.0841 F2500.00
G01 X53.7589 Y75.1009 F2500.00
G01 X53.7673 Y75.1187 F2500.00
G01 X53.7739 Y75.1372 F2500.00
G01 X53.7787 Y75.1562 F2500.00
G01 X53.7816 Y75.1756 F2500.00
G01 X53.7826 Y75.1964 F2500.00
G01 X53.7826 Y75.9940 F2500.00
G01 X53.7816 Y76.0148 F2500.00
G01 X53.7787 Y76.0342 F2500.00
G01 X53.7739 Y76.0532 F2500.00
G01 X53.7673 Y76.0717 F2500.00
G01 X53.7589 Y76.0895 F2500.00
G01 X53.7488 Y76.1063 F2500.00
G01 X53.7372 Y76.1220 F2500.00
G01 X53.7240 Y76.1366 F2500.00
G01 X53.7094 Y76.1498 F2500.00
G01 X53.6937 Y76.1614 F2500.00
G01 X53.6769 Y76.1715 F2500.00
G01 X53.6591 Y76.1799 F2500.00
G01 X53.6406 Y76.1865 F2500.00
G01 X53.6216 Y76.1913 F2500.00
G01 X53.6022 Y76.1942 F2500.00
G01 X53.5814 Y76.1952 F2500.00
G01 X52.3338 Y76.1952 F2500.00
G01 X52.3130 Y76.1942 F2500.00
G01 X52.2936 Y76.1913 F2500.00
G01 X52.2746 Y76.1865 F2500.00
G01 X52.2561 Y76.1799 F2500.00
G01 X52.2383 Y76.1715 F2500.00
G01 X52.2215 Y76.1614 F2500.00
G01 X52.2058 Y76.1498 F2500.00
G01 X52.1912 Y76.1366 F2500.00
G01 X52.1780 Y76.1220 F2500.00
G01 X52.1664 Y76.1063 F2500.00
G01 X52.1563 Y76.0895 F2500.00
G01 X52.1479 Y76.0717 F2500.00
G01 X52.1413 Y76.0532 F2500.00
G01 X52.1365 Y76.0342 F2500.00
G01 X52.1336 Y76.0148 F2500.00
G01 X52.1326 Y75.9940 F2500.00
G01 X52.1326 Y75.1964 F2500.00
G01 X52.1336 Y75.1756 F2500.00
G01 X52.1365 Y75.1562 F2500.00
G01 X52.1413 Y75.1372 F2500.00
G01 X52.1479 Y75.1187 F2500.00
G01 X52.1563 Y75.1009 F2500.00
G01 X52.1664 Y75.0841 F2500.00
G01 X52.1780 Y75.0684 F2500.00
G01 X52.1912 Y75.0538 F2500.00
G01 X52.2058 Y75.0406 F2500.00
G01 X52.2215 Y75.0290 F2500.00
G01 X52.2383 Y75.0189 F2500.00
G01 X52.2561 Y75.0105 F2500.00
M5
G00 X52.2561 Y78.1105
G01 F60.00
M03 S50.0
G01 F2500.00
G01 X52.2383 Y78.1189 F2500.00
G01 X52.2215 Y78.1290 F2500.00
G01 X52.2058 Y78.1406 F2500.00
G01 X52.1912 Y78.1538 F2500.00
G01 X52.1780 Y78.1684 F2500.00
G01 X52.1664 Y78.1841 F2500.00
G01 X52.1563 Y78.2009 F2500.00
G01 X52.1479 Y78.2187 F2500.00
G01 X52.1413 Y78.2372 F2500.00
G01 X52.1365 Y78.2562 F2500.00
G01 X52.1336 Y78.2756 F2500.00
G01 X52.1326 Y78.2964 F2500.00
G01 X52.1326 Y79.0940 F2500.00
G01 X52.1336 Y79.1148 F2500.00
G01 X52.1365 Y79.1342 F2500.00
G01 X52.1413 Y79.1532 F2500.00
G01 X52.1479 Y79.1717 F2500.00
G01 X52.1563 Y79.1895 F2500.00
G01 X52.1664 Y79.2063 F2500.00
G01 X52.1780 Y79.2220 F2500.00
G01 X52.1912 Y79.2366 F2500.00
G01 X52.2058 Y79.2498 F2500.00
G01 X52.2215 Y79.2614 F2500.00
G01 X52.2383 Y79.2715 F2500.00
G01 X52.2561 Y79.2799 F2500.00
G01 X52.2746 Y79.2865 F2500.00
G01 X52.2936 Y79.2913 F2500.00
G01 X52.3130 Y79.2942 F2500.00
G01 X52.3338 Y79.2952 F2500.00
G01 X53.5814 Y79.2952 F2500.00
G01 X53.6022 Y79.2942 F2500.00
G01 X53.6216 Y79.2913 F2500.00
G01 X53.6406 Y79.2865 F2500.00
G01 X53.6591 Y79.2799 F2500.00
G01 X53.6769 Y79.2715 F2500.00
G01 X53.6937 Y79.2614 F2500.00
G01 X53.7094 Y79.2498 F2500.00
G01 X53.7240 Y79.2366 F2500.00
G01 X53.7372 Y79.2220 F2500.00
G01 X53.7488 Y79.2063 F2500.00
G01 X53.7589 Y79.1895 F2500.00
G01 X53.7673 Y79.1717 F2500.00
G01 X53.7739 Y79.1532 F2500.00
G01 X53.7787 Y79.1342 F2500.00
G01 X53.7816 Y79.1148 F2500.00
G01 X53.7826 Y79.0940 F2500.00
G01 X53.7826 Y78.2964 F2500.00
G01 X53.7816 Y78.2756 F2500.00
G01 X53.7787 Y78.2562 F2500.00
G01 X53.7739 Y78.2372 F2500.00
G01 X53.7673 Y78.2187 F2500.00
G01 X53.7589 Y78.2009 F2500.00
G01 X53.7488 Y78.1841 F2500.00
G01 X53.7372 Y78.1684 F2500.00
G01 X53.7240 Y78.1538 F2500.00
G01 X53.7094 Y78.1406 F2500.00
G01 X53.6937 Y78.1290 F2500.00
G01 X53.6769 Y78.1189 F2500.00
G01 X53.6591 Y78.1105 F2500.00
G01 X53.6406 Y78.1039 F2500.00
G01 X53.6216 Y78.0991 F2500.00
G01 X53.6022 Y78.0962 F2500.00
G01 X53.5814 Y78.0952 F2500.00
G01 X52.3338 Y78.0952 F2500.00
G01 X52.3130 Y78.0962 F2500.00
G01 X52.2936 Y78.0991 F2500.00
G01 X52.2746 Y78.1039 F2500.00
G01 X52.2561 Y78.1105 F2500.00
G01 X52.2867 Y78.1845 F2500.00
G01 X52.2761 Y78.1895 F2500.00
G01 X52.2660 Y78.1956 F2500.00
G01 X52.2566 Y78.2026 F2500.00
G01 X52.2479 Y78.2105 F2500.00
G01 X52.2400 Y78.2192 F2500.00
G01 X52.2330 Y78.2286 F2500.00
G01 X52.2269 Y78.2387 F2500.00
G01 X52.2219 Y78.2493 F2500.00
G01 X52.2179 Y78.2604 F2500.00
G01 X52.2151 Y78.2718 F2500.00
G01 X52.2133 Y78.2835 F2500.00
G01 X52.2126 Y78.2984 F2500.00
G01 X52.2126 Y79.0920 F2500.00
G01 X52.2133 Y79.1069 F2500.00
G01 X52.2151 Y79.1186 F2500.00
G01 X52.2179 Y79.1300 F2500.00
G01 X52.2219 Y79.1411 F2500.00
G01 X52.2269 Y79.1517 F2500.00
G01 X52.2330 Y79.1618 F2500.00
G01 X52.2400 Y79.1712 F2500.00
G01 X52.2479 Y79.1799 F2500.00
G01 X52.2566 Y79.1878 F2500.00
G01 X52.2660 Y79.1948 F2500.00
G01 X52.2761 Y79.2009 F2500.00
G01 X52.2867 Y79.2059 F2500.00
G01 X52.2978 Y79.2099 F2500.00
G01 X52.3092 Y79.2127 F2500.00
G01 X52.3209 Y79.2145 F2500.00
G01 X52.3358 Y79.2152 F2500.00
G01 X53.5794 Y79.2152 F2500.00
G01 X53.5943 Y79.2145 F2500.00
G01 X53.6060 Y79.2127 F2500.00
G01 X53.6174 Y79.2099 F2500.00
G01 X53.6285 Y79.2059 F2500.00
G01 X53.6391 Y79.2009 F2500.00
G01 X53.6492 Y79.1948 F2500.00
G01 X53.6586 Y79.1878 F2500.00
G01 X53.6673 Y79.1799 F2500.00
G01 X53.6752 Y79.1712 F2500.00
G01 X53.6822 Y79.1618 F2500.00
G01 X53.6883 Y79.1517 F2500.00
G01 X53.6933 Y79.1411 F2500.00
G01 X53.6973 Y79.1300 F2500.00
G01 X53.7001 Y79.1186 F2500.00
G01 X53.7019 Y79.1069 F2500.00
G01 X53.7026 Y79.0920 F2500.00
G01 X53.7026 Y78.2984 F2500.00
G01 X53.7019 Y78.2835 F2500.00
G01 X53.7001 Y78.2718 F2500.00
G01 X53.6973 Y78.2604 F2500.00
G01 X53.6933 Y78.2493 F2500.00
G01 X53.6883 Y78.2387 F2500.00
G01 X53.6822 Y78.2286 F2500.00
G01 X53.6752 Y78.2192 F2500.00
G01 X53.6673 Y78.2105 F2500.00
G01 X53.6586 Y78.2026 F2500.00
G01 X53.6492 Y78.1956 F2500.00
G01 X53.6391 Y78.1895 F2500.00
G01 X53.6285 Y78.1845 F2500.00
G01 X53.6174 Y78.1805 F2500.00
G01 X53.6060 Y78.1777 F2500.00
G01 X53.5943 Y78.1759 F2500.00
G01 X53.5794 Y78.1752 F2500.00
G01 X52.3358 Y78.1752 F2500.00
G01 X52.3209 Y78.1759 F2500.00
G01 X52.3092 Y78.1777 F2500.00
G01 X52.2978 Y78.1805 F2500.00
G01 X52.2867 Y78.1845 F2500.00
G01 X52.3174 Y78.2585 F2500.00
G01 X52.3105 Y78.2622 F2500.00
G01 X52.3045 Y78.2671 F2500.00
G01 X52.2996 Y78.2731 F2500.00
G01 X52.2975 Y78.2765 F2500.00
G01 X52.2946 Y78.2837 F2500.00
G01 X52.2936 Y78.2874 F2500.00
G01 X52.2930 Y78.2913 F2500.00
G01 X52.2926 Y78.3004 F2500.00
G01 X52.2926 Y79.0900 F2500.00
G01 X52.2930 Y79.0991 F2500.00
G01 X52.2936 Y79.1030 F2500.00
G01 X52.2959 Y79.1104 F2500.00
G01 X52.2975 Y79.1139 F2500.00
G01 X52.3019 Y79.1204 F2500.00
G01 X52.3045 Y79.1233 F2500.00
G01 X52.3105 Y79.1282 F2500.00
G01 X52.3139 Y79.1303 F2500.00
G01 X52.3211 Y79.1332 F2500.00
G01 X52.3287 Y79.1348 F2500.00
G01 X52.3378 Y79.1352 F2500.00
G01 X53.5774 Y79.1352 F2500.00
G01 X53.5865 Y79.1348 F2500.00
G01 X53.5904 Y79.1342 F2500.00
G01 X53.5941 Y79.1332 F2500.00
G01 X53.6013 Y79.1303 F2500.00
G01 X53.6078 Y79.1259 F2500.00
G01 X53.6107 Y79.1233 F2500.00
G01 X53.6156 Y79.1173 F2500.00
G01 X53.6177 Y79.1139 F2500.00
G01 X53.6206 Y79.1067 F2500.00
G01 X53.6216 Y79.1030 F2500.00
G01 X53.6222 Y79.0991 F2500.00
G01 X53.6226 Y79.0900 F2500.00
G01 X53.6226 Y78.3004 F2500.00
G01 X53.6222 Y78.2913 F2500.00
G01 X53.6216 Y78.2874 F2500.00
G01 X53.6193 Y78.2800 F2500.00
G01 X53.6177 Y78.2765 F2500.00
G01 X53.6133 Y78.2700 F2500.00
G01 X53.6107 Y78.2671 F2500.00
G01 X53.6047 Y78.2622 F2500.00
G01 X53.6013 Y78.2601 F2500.00
G01 X53.5941 Y78.2572 F2500.00
G01 X53.5904 Y78.2562 F2500.00
G01 X53.5865 Y78.2556 F2500.00
G01 X53.5774 Y78.2552 F2500.00
G01 X52.3378 Y78.2552 F2500.00
G01 X52.3287 Y78.2556 F2500.00
G01 X52.3248 Y78.2562 F2500.00
G01 X52.3174 Y78.2585 F2500.00
G01 X52.3726 Y78.3352 F2500.00
G01 X52.3726 Y79.0552 F2500.00
G01 X53.5426 Y79.0552 F2500.00
G01 X53.5426 Y78.3352 F2500.00
G01 X52.3726 Y78.3352 F2500.00
G01 X52.4526 Y78.4152 F2500.00
G01 X52.4526 Y78.9752 F2500.00
G01 X53.4626 Y78.9752 F2500.00
G01 X53.4626 Y78.4152 F2500.00
G01 X52.4526 Y78.4152 F2500.00
G01 X52.5326 Y78.4952 F2500.00
G01 X52.5326 Y78.8952 F2500.00
G01 X53.3826 Y78.8952 F2500.00
G01 X53.3826 Y78.4952 F2500.00
G01 X52.5326 Y78.4952 F2500.00
G01 X52.6126 Y78.5752 F2500.00
G01 X52.6126 Y78.8152 F2500.00
G01 X53.3026 Y78.8152 F2500.00
G01 X53.3026 Y78.5752 F2500.00
G01 X52.6126 Y78.5752 F2500.00
G01 X52.6926 Y78.6552 F2500.00
G01 X52.6926 Y78.7352 F2500.00
G01 X53.2226 Y78.7352 F2500.00
G01 X53.2226 Y78.6552 F2500.00
G01 X52.6926 Y78.6552 F2500.00
M5
G00 X54.7961 Y78.1105
G01 F60.00
M03 S50.0
G01 F2500.00
G01 X54.7783 Y78.1189 F2500.00
G01 X54.7615 Y78.1290 F2500.00
G01 X54.7458 Y78.1406 F2500.00
G01 X54.7312 Y78.1538 F2500.00
G01 X54.7180 Y78.1684 F2500.00
G01 X54.7064 Y78.1841 F2500.00
G01 X54.6963 Y78.2009 F2500.00
G01 X54.6879 Y78.2187 F2500.00
G01 X54.6813 Y78.2372 F2500.00
G01 X54.6765 Y78.2562 F2500.00
G01 X54.6736 Y78.2756 F2500.00
G01 X54.6726 Y78.2964 F2500.00
G01 X54.6726 Y79.0940 F2500.00
G01 X54.6736 Y79.1148 F2500.00
G01 X54.6765 Y79.1342 F2500.00
G01 X54.6813 Y79.1532 F2500.00
G01 X54.6879 Y79.1717 F2500.00
G01 X54.6963 Y79.1895 F2500.00
G01 X54.7064 Y79.2063 F2500.00
G01 X54.7180 Y79.2220 F2500.00
G01 X54.7312 Y79.2366 F2500.00
G01 X54.7458 Y79.2498 F2500.00
G01 X54.7615 Y79.2614 F2500.00
G01 X54.7783 Y79.2715 F2500.00
G01 X54.7961 Y79.2799 F2500.00
G01 X54.8146 Y79.2865 F2500.00
G01 X54.8336 Y79.2913 F2500.00
G01 X54.8530 Y79.2942 F2500.00
G01 X54.8738 Y79.2952 F2500.00
G01 X56.1214 Y79.2952 F2500.00
G01 X56.1422 Y79.2942 F2500.00
G01 X56.1616 Y79.2913 F2500.00
G01 X56.1806 Y79.2865 F2500.00
G01 X56.1991 Y79.2799 F2500.00
G01 X56.2169 Y79.2715 F2500.00
G01 X56.2337 Y79.2614 F2500.00
G01 X56.2494 Y79.2498 F2500.00
G01 X56.2640 Y79.2366 F2500.00
G01 X56.2772 Y79.2220 F2500.00
G01 X56.2888 Y79.2063 F2500.00
G01 X56.2989 Y79.1895 F2500.00
G01 X56.3073 Y79.1717 F2500.00
G01 X56.3139 Y79.1532 F2500.00
G01 X56.3187 Y79.1342 F2500.00
G01 X56.3216 Y79.1148 F2500.00
G01 X56.3226 Y79.0940 F2500.00
G01 X56.3226 Y78.2964 F2500.00
G01 X56.3216 Y78.2756 F2500.00
G01 X56.3187 Y78.2562 F2500.00
G01 X56.3139 Y78.2372 F2500.00
G01 X56.3073 Y78.2187 F2500.00
G01 X56.2989 Y78.2009 F2500.00
G01 X56.2888 Y78.1841 F2500.00
G01 X56.2772 Y78.1684 F2500.00
G01 X56.2640 Y78.1538 F2500.00
G01 X56.2494 Y78.1406 F2500.00
G01 X56.2337 Y78.1290 F2500.00
G01 X56.2169 Y78.1189 F2500.00
G01 X56.1991 Y78.1105 F2500.00
G01 X56.1806 Y78.1039 F2500.00
G01 X56.1616 Y78.0991 F2500.00
G01 X56.1422 Y78.0962 F2500.00
G01 X56.1214 Y78.0952 F2500.00
G01 X54.8738 Y78.0952 F2500.00
G01 X54.8530 Y78.0962 F2500.00
G01 X54.8336 Y78.0991 F2500.00
G01 X54.8146 Y78.1039 F2500.00
G01 X54.7961 Y78.1105 F2500.00
G01 X54.8267 Y78.1845 F2500.00
G01 X54.8161 Y78.1895 F2500.00
G01 X54.8060 Y78.1956 F2500.00
G01 X54.7966 Y78.2026 F2500.00
G01 X54.7879 Y78.2105 F2500.00
G01 X54.7800 Y78.2192 F2500.00
G01 X54.7730 Y78.2286 F2500.00
G01 X54.7669 Y78.2387 F2500.00
G01 X54.7619 Y78.2493 F2500.00
G01 X54.7579 Y78.2604 F2500.00
G01 X54.7551 Y78.2718 F2500.00
G01 X54.7533 Y78.2835 F2500.00
G01 X54.7526 Y78.2984 F2500.00
G01 X54.7526 Y79.0920 F2500.00
G01 X54.7533 Y79.1069 F2500.00
G01 X54.7551 Y79.1186 F2500.00
G01 X54.7579 Y79.1300 F2500.00
G01 X54.7619 Y79.1411 F2500.00
G01 X54.7669 Y79.1517 F2500.00
G01 X54.7730 Y79.1618 F2500.00
G01 X54.7800 Y79.1712 F2500.00
G01 X54.7879 Y79.1799 F2500.00
G01 X54.7966 Y79.1878 F2500.00
G01 X54.8060 Y79.1948 F2500.00
G01 X54.8161 Y79.2009 F2500.00
G01 X54.8267 Y79.2059 F2500.00
G01 X54.8378 Y79.2099 F2500.00
G01 X54.8492 Y79.2127 F2500.00
G01 X54.8609 Y79.2145 F2500.00
G01 X54.8758 Y79.2152 F2500.00
G01 X56.1194 Y79.2152 F2500.00
G01 X56.1343 Y79.2145 F2500.00
G01 X56.1460 Y79.2127 F2500.00
G01 X56.1574 Y79.2099 F2500.00
G01 X56.1685 Y79.2059 F2500.00
G01 X56.1791 Y79.2009 F2500.00
G01 X56.1892 Y79.1948 F2500.00
G01 X56.1986 Y79.1878 F2500.00
G01 X56.2073 Y79.1799 F2500.00
G01 X56.2152 Y79.1712 F2500.00
G01 X56.2222 Y79.1618 F2500.00
G01 X56.2283 Y79.1517 F2500.00
G01 X56.2333 Y79.1411 F2500.00
G01 X56.2373 Y79.1300 F2500.00
G01 X56.2401 Y79.1186 F2500.00
G01 X56.2419 Y79.1069 F2500.00
G01 X56.2426 Y79.0920 F2500.00
G01 X56.2426 Y78.2984 F2500.00
G01 X56.2419 Y78.2835 F2500.00
G01 X56.2401 Y78.2718 F2500.00
G01 X56.2373 Y78.2604 F2500.00
G01 X56.2333 Y78.2493 F2500.00
G01 X56.2283 Y78.2387 F2500.00
G01 X56.2222 Y78.2286 F2500.00
G01 X56.2152 Y78.2192 F2500.00
G01 X56.2073 Y78.2105 F2500.00
G01 X56.1986 Y78.2026 F2500.00
G01 X56.1892 Y78.1956 F2500.00
G01 X56.1791 Y78.1895 F2500.00
G01 X56.1685 Y78.1845 F2500.00
G01 X56.1574 Y78.1805 F2500.00
G01 X56.1460 Y78.1777 F2500.00
G01 X56.1343 Y78.1759 F2500.00
G01 X56.1194 Y78.1752 F2500.00
G01 X54.8758 Y78.1752 F2500.00
G01 X54.8609 Y78.1759 F2500.00
G01 X54.8492 Y78.1777 F2500.00
G01 X54.8378 Y78.1805 F2500.00
G01 X54.8267 Y78.1845 F2500.00
G01 X54.8574 Y78.2585 F2500.00
G01 X54.8505 Y78.2622 F2500.00
G01 X54.8445 Y78.2671 F2500.00
G01 X54.8396 Y78.2731 F2500.00
G01 X54.8375 Y78.2765 F2500.00
G01 X54.8346 Y78.2837 F2500.00
G01 X54.8336 Y78.2874 F2500.00
G01 X54.8330 Y78.2913 F2500.00
G01 X54.8326 Y78.3004 F2500.00
G01 X54.8326 Y79.0900 F2500.00
G01 X54.8330 Y79.0991 F2500.00
G01 X54.8336 Y79.1030 F2500.00
G01 X54.8359 Y79.1104 F2500.00
G01 X54.8375 Y79.1139 F2500.00
G01 X54.8419 Y79.1204 F2500.00
G01 X54.8445 Y79.1233 F2500.00
G01 X54.8505 Y79.1282 F2500.00
G01 X54.8539 Y79.1303 F2500.00
G01 X54.8611 Y79.1332 F2500.00
G01 X54.8687 Y79.1348 F2500.00
G01 X54.8778 Y79.1352 F2500.00
G01 X56.1174 Y79.1352 F2500.00
G01 X56.1265 Y79.1348 F2500.00
G01 X56.1304 Y79.1342 F2500.00
G01 X56.1341 Y79.1332 F2500.00
G01 X56.1413 Y79.1303 F2500.00
G01 X56.1478 Y79.1259 F2500.00
G01 X56.1507 Y79.1233 F2500.00
G01 X56.1556 Y79.1173 F2500.00
G01 X56.1577 Y79.1139 F2500.00
G01 X56.1606 Y79.1067 F2500.00
G01 X56.1616 Y79.1030 F2500.00
G01 X56.1622 Y79.0991 F2500.00
G01 X56.1626 Y79.0900 F2500.00
G01 X56.1626 Y78.3004 F2500.00
G01 X56.1622 Y78.2913 F2500.00
G01 X56.1616 Y78.2874 F2500.00
G01 X56.1593 Y78.2800 F2500.00
G01 X56.1577 Y78.2765 F2500.00
G01 X56.1533 Y78.2700 F2500.00
G01 X56.1507 Y78.2671 F2500.00
G01 X56.1447 Y78.2622 F2500.00
G01 X56.1413 Y78.2601 F2500.00
G01 X56.1341 Y78.2572 F2500.00
G01 X56.1304 Y78.2562 F2500.00
G01 X56.1265 Y78.2556 F2500.00
G01 X56.1174 Y78.2552 F2500.00
G01 X54.8778 Y78.2552 F2500.00
G01 X54.8687 Y78.2556 F2500.00
G01 X54.8648 Y78.2562 F2500.00
G01 X54.8574 Y78.2585 F2500.00
G01 X54.9126 Y78.3352 F2500.00
G01 X54.9126 Y79.0552 F2500.00
G01 X56.0826 Y79.0552 F2500.00
G01 X56.0826 Y78.3352 F2500.00
G01 X54.9126 Y78.3352 F2500.00
G01 X54.9926 Y78.4152 F2500.00
G01 X54.9926 Y78.9752 F2500.00
G01 X56.0026 Y78.9752 F2500.00
G01 X56.0026 Y78.4152 F2500.00
G01 X54.9926 Y78.4152 F2500.00
G01 X55.0726 Y78.4952 F2500.00
G01 X55.0726 Y78.8952 F2500.00
G01 X55.9226 Y78.8952 F2500.00
G01 X55.9226 Y78.4952 F2500.00
G01 X55.0726 Y78.4952 F2500.00
G01 X55.1526 Y78.5752 F2500.00
G01 X55.1526 Y78.8152 F2500.00
G01 X55.8426 Y78.8152 F2500.00
G01 X55.8426 Y78.5752 F2500.00
G01 X55.1526 Y78.5752 F2500.00
G01 X55.2326 Y78.6552 F2500.00
G01 X55.2326 Y78.7352 F2500.00
G01 X55.7626 Y78.7352 F2500.00
G01 X55.7626 Y78.6552 F2500.00
G01 X55.2326 Y78.6552 F2500.00
M5
G00 X57.3361 Y78.1105
G01 F60.00
M03 S50.0
G01 F2500.00
G01 X57.3183 Y78.1189 F2500.00
G01 X57.3015 Y78.1290 F2500.00
G01 X57.2858 Y78.1406 F2500.00
G01 X57.2712 Y78.1538 F2500.00
G01 X57.2580 Y78.1684 F2500.00
G01 X57.2464 Y78.1841 F2500.00
G01 X57.2363 Y78.2009 F2500.00
G01 X57.2279 Y78.2187 F2500.00
G01 X57.2213 Y78.2372 F2500.00
G01 X57.2165 Y78.2562 F2500.00
G01 X57.2136 Y78.2756 F2500.00
G01 X57.2126 Y78.2964 F2500.00
G01 X57.2126 Y79.0940 F2500.00
G01 X57.2136 Y79.1148 F2500.00
G01 X57.2165 Y79.1342 F2500.00
G01 X57.2213 Y79.1532 F2500.00
G01 X57.2279 Y79.1717 F2500.00
G01 X57.2363 Y79.1895 F2500.00
G01 X57.2464 Y79.2063 F2500.00
G01 X57.2580 Y79.2220 F2500.00
G01 X57.2712 Y79.2366 F2500.00
G01 X57.2858 Y79.2498 F2500.00
G01 X57.3015 Y79.2614 F2500.00
G01 X57.3183 Y79.2715 F2500.00
G01 X57.3361 Y79.2799 F2500.00
G01 X57.3546 Y79.2865 F2500.00
G01 X57.3736 Y79.2913 F2500.00
G01 X57.3930 Y79.2942 F2500.00
G01 X57.4138 Y79.2952 F2500.00
G01 X58.6614 Y79.2952 F2500.00
G01 X58.6822 Y79.2942 F2500.00
G01 X58.7016 Y79.2913 F2500.00
G01 X58.7206 Y79.2865 F2500.00
G01 X58.7391 Y79.2799 F2500.00
G01 X58.7569 Y79.2715 F2500.00
G01 X58.7737 Y79.2614 F2500.00
G01 X58.7894 Y79.2498 F2500.00
G01 X58.8040 Y79.2366 F2500.00
G01 X58.8172 Y79.2220 F2500.00
G01 X58.8288 Y79.2063 F2500.00
G01 X58.8389 Y79.1895 F2500.00
G01 X58.8473 Y79.1717 F2500.00
G01 X58.8539 Y79.1532 F2500.00
G01 X58.8587 Y79.1342 F2500.00
G01 X58.8616 Y79.1148 F2500.00
G01 X58.8626 Y79.0940 F2500.00
G01 X58.8626 Y78.2964 F2500.00
G01 X58.8616 Y78.2756 F2500.00
G01 X58.8587 Y78.2562 F2500.00
G01 X58.8539 Y78.2372 F2500.00
G01 X58.8473 Y78.2187 F2500.00
G01 X58.8389 Y78.2009 F2500.00
G01 X58.8288 Y78.1841 F2500.00
G01 X58.8172 Y78.1684 F2500.00
G01 X58.8040 Y78.1538 F2500.00
G01 X58.7894 Y78.1406 F2500.00
G01 X58.7737 Y78.1290 F2500.00
G01 X58.7569 Y78.1189 F2500.00
G01 X58.7391 Y78.1105 F2500.00
G01 X58.7206 Y78.1039 F2500.00
G01 X58.7016 Y78.0991 F2500.00
G01 X58.6822 Y78.0962 F2500.00
G01 X58.6614 Y78.0952 F2500.00
G01 X57.4138 Y78.0952 F2500.00
G01 X57.3930 Y78.0962 F2500.00
G01 X57.3736 Y78.0991 F2500.00
G01 X57.3546 Y78.1039 F2500.00
G01 X57.3361 Y78.1105 F2500.00
G01 X57.3667 Y78.1845 F2500.00
G01 X57.3561 Y78.1895 F2500.00
G01 X57.3460 Y78.1956 F2500.00
G01 X57.3366 Y78.2026 F2500.00
G01 X57.3279 Y78.2105 F2500.00
G01 X57.3200 Y78.2192 F2500.00
G01 X57.3130 Y78.2286 F2500.00
G01 X57.3069 Y78.2387 F2500.00
G01 X57.3019 Y78.2493 F2500.00
G01 X57.2979 Y78.2604 F2500.00
G01 X57.2951 Y78.2718 F2500.00
G01 X57.2933 Y78.2835 F2500.00
G01 X57.2926 Y78.2984 F2500.00
G01 X57.2926 Y79.0920 F2500.00
G01 X57.2933 Y79.1069 F2500.00
G01 X57.2951 Y79.1186 F2500.00
G01 X57.2979 Y79.1300 F2500.00
G01 X57.3019 Y79.1411 F2500.00
G01 X57.3069 Y79.1517 F2500.00
G01 X57.3130 Y79.1618 F2500.00
G01 X57.3200 Y79.1712 F2500.00
G01 X57.3279 Y79.1799 F2500.00
G01 X57.3366 Y79.1878 F2500.00
G01 X57.3460 Y79.1948 F2500.00
G01 X57.3561 Y79.2009 F2500.00
G01 X57.3667 Y79.2059 F2500.00
G01 X57.3778 Y79.2099 F2500.00
G01 X57.3892 Y79.2127 F2500.00
G01 X57.4009 Y79.2145 F2500.00
G01 X57.4158 Y79.2152 F2500.00
G01 X58.6594 Y79.2152 F2500.00
G01 X58.6743 Y79.2145 F2500.00
G01 X58.6860 Y79.2127 F2500.00
G01 X58.6974 Y79.2099 F2500.00
G01 X58.7085 Y79.2059 F2500.00
G01 X58.7191 Y79.2009 F2500.00
G01 X58.7292 Y79.1948 F2500.00
G01 X58.7386 Y79.1878 F2500.00
G01 X58.7473 Y79.1799 F2500.00
G01 X58.7552 Y79.1712 F2500.00
G01 X58.7622 Y79.1618 F2500.00
G01 X58.7683 Y79.1517 F2500.00
G01 X58.7733 Y79.1411 F2500.00
G01 X58.7773 Y79.1300 F2500.00
G01 X58.7801 Y79.1186 F2500.00
G01 X58.7819 Y79.1069 F2500.00
G01 X58.7826 Y79.0920 F2500.00
G01 X58.7826 Y78.2984 F2500.00
G01 X58.7819 Y78.2835 F2500.00
G01 X58.7801 Y78.2718 F2500.00
G01 X58.7773 Y78.2604 F2500.00
G01 X58.7733 Y78.2493 F2500.00
G01 X58.7683 Y78.2387 F2500.00
G01 X58.7622 Y78.2286 F2500.00
G01 X58.7552 Y78.2192 F2500.00
G01 X58.7473 Y78.2105 F2500.00
G01 X58.7386 Y78.2026 F2500.00
G01 X58.7292 Y78.1956 F2500.00
G01 X58.7191 Y78.1895 F2500.00
G01 X58.7085 Y78.1845 F2500.00
G01 X58.6974 Y78.1805 F2500.00
G01 X58.6860 Y78.1777 F2500.00
G01 X58.6743 Y78.1759 F2500.00
G01 X58.6594 Y78.1752 F2500.00
G01 X57.4158 Y78.1752 F2500.00
G01 X57.4009 Y78.1759 F2500.00
G01 X57.3892 Y78.1777 F2500.00
G01 X57.3778 Y78.1805 F2500.00
G01 X57.3667 Y78.1845 F2500.00
G01 X57.3974 Y78.2585 F2500.00
G01 X57.3905 Y78.2622 F2500.00
G01 X57.3845 Y78.2671 F2500.00
G01 X57.3796 Y78.2731 F2500.00
G01 X57.3775 Y78.2765 F2500.00
G01 X57.3746 Y78.2837 F2500.00
G01 X57.3736 Y78.2874 F2500.00
G01 X57.3730 Y78.2913 F2500.00
G01 X57.3726 Y78.3004 F2500.00
G01 X57.3726 Y79.0900 F2500.00
G01 X57.3730 Y79.0991 F2500.00
G01 X57.3736 Y79.1030 F2500.00
G01 X57.3759 Y79.1104 F2500.00
G01 X57.3775 Y79.1139 F2500.00
G01 X57.3819 Y79.1204 F2500.00
G01 X57.3845 Y79.1233 F2500.00
G01 X57.3905 Y79.1282 F2500.00
G01 X57.3939 Y79.1303 F2500.00
G01 X57.4011 Y79.1332 F2500.00
G01 X57.4087 Y79.1348 F2500.00
G01 X57.4178 Y79.1352 F2500.00
G01 X58.6574 Y79.1352 F2500.00
G01 X58.6665 Y79.1348 F2500.00
G01 X58.6704 Y79.1342 F2500.00
G01 X58.6741 Y79.1332 F2500.00
G01 X58.6813 Y79.1303 F2500.00
G01 X58.6878 Y79.1259 F2500.00
G01 X58.6907 Y79.1233 F2500.00
G01 X58.6956 Y79.1173 F2500.00
G01 X58.6977 Y79.1139 F2500.00
G01 X58.7006 Y79.1067 F2500.00
G01 X58.7016 Y79.1030 F2500.00
G01 X58.7022 Y79.0991 F2500.00
G01 X58.7026 Y79.0900 F2500.00
G01 X58.7026 Y78.3004 F2500.00
G01 X58.7022 Y78.2913 F2500.00
G01 X58.7016 Y78.2874 F2500.00
G01 X58.6993 Y78.2800 F2500.00
G01 X58.6977 Y78.2765 F2500.00
G01 X58.6933 Y78.2700 F2500.00
G01 X58.6907 Y78.2671 F2500.00
G01 X58.6847 Y78.2622 F2500.00
G01 X58.6813 Y78.2601 F2500.00
G01 X58.6741 Y78.2572 F2500.00
G01 X58.6704 Y78.2562 F2500.00
G01 X58.6665 Y78.2556 F2500.00
G01 X58.6574 Y78.2552 F2500.00
G01 X57.4178 Y78.2552 F2500.00
G01 X57.4087 Y78.2556 F2500.00
G01 X57.4048 Y78.2562 F2500.00
G01 X57.3974 Y78.2585 F2500.00
G01 X57.4526 Y78.3352 F2500.00
G01 X57.4526 Y79.0552 F2500.00
G01 X58.6226 Y79.0552 F2500.00
G01 X58.6226 Y78.3352 F2500.00
G01 X57.4526 Y78.3352 F2500.00
G01 X57.5326 Y78.4152 F2500.00
G01 X57.5326 Y78.9752 F2500.00
G01 X58.5426 Y78.9752 F2500.00
G01 X58.5426 Y78.4152 F2500.00
G01 X57.5326 Y78.4152 F2500.00
G01 X57.6126 Y78.4952 F2500.00
G01 X57.6126 Y78.8952 F2500.00
G01 X58.4626 Y78.8952 F2500.00
G01 X58.4626 Y78.4952 F2500.00
G01 X57.6126 Y78.4952 F2500.00
G01 X57.6926 Y78.5752 F2500.00
G01 X57.6926 Y78.8152 F2500.00
G01 X58.3826 Y78.8152 F2500.00
G01 X58.3826 Y78.5752 F2500.00
G01 X57.6926 Y78.5752 F2500.00
G01 X57.7726 Y78.6552 F2500.00
G01 X57.7726 Y78.7352 F2500.00
G01 X58.3026 Y78.7352 F2500.00
G01 X58.3026 Y78.6552 F2500.00
G01 X57.7726 Y78.6552 F2500.00
M5
G00 X55.2326 Y72.8380
G01 F60.00
M03 S50.0
G01 F2500.00
G01 X55.7626 Y72.8380 F2500.00
G01 X55.7626 Y72.9180 F2500.00
G01 X55.2326 Y72.9180 F2500.00
G01 X55.2326 Y72.8380 F2500.00
G01 X55.1526 Y72.7580 F2500.00
G01 X55.8426 Y72.7580 F2500.00
G01 X55.8426 Y72.9980 F2500.00
G01 X55.1526 Y72.9980 F2500.00
G01 X55.1526 Y72.7580 F2500.00
G01 X55.0726 Y72.6780 F2500.00
G01 X55.9226 Y72.6780 F2500.00
G01 X55.9226 Y73.0780 F2500.00
G01 X55.0726 Y73.0780 F2500.00
G01 X55.0726 Y72.6780 F2500.00
G01 X54.9926 Y72.5980 F2500.00
G01 X56.0026 Y72.5980 F2500.00
G01 X56.0026 Y73.1580 F2500.00
G01 X54.9926 Y73.1580 F2500.00
G01 X54.9926 Y72.5980 F2500.00
G01 X54.9126 Y72.5180 F2500.00
G01 X56.0826 Y72.5180 F2500.00
G01 X56.0826 Y73.2380 F2500.00
G01 X54.9126 Y73.2380 F2500.00
G01 X54.9126 Y72.5180 F2500.00
G01 X54.8574 Y72.4413 F2500.00
G01 X54.8648 Y72.4390 F2500.00
G01 X54.8687 Y72.4384 F2500.00
G01 X54.8778 Y72.4380 F2500.00
G01 X56.1174 Y72.4380 F2500.00
G01 X56.1265 Y72.4384 F2500.00
G01 X56.1304 Y72.4390 F2500.00
G01 X56.1341 Y72.4400 F2500.00
G01 X56.1413 Y72.4429 F2500.00
G01 X56.1447 Y72.4450 F2500.00
G01 X56.1507 Y72.4499 F2500.00
G01 X56.1533 Y72.4528 F2500.00
G01 X56.1577 Y72.4593 F2500.00
G01 X56.1593 Y72.4628 F2500.00
G01 X56.1616 Y72.4702 F2500.00
G01 X56.1622 Y72.4741 F2500.00
G01 X56.1626 Y72.4832 F2500.00
G01 X56.1626 Y73.2728 F2500.00
G01 X56.1622 Y73.2819 F2500.00
G01 X56.1616 Y73.2858 F2500.00
G01 X56.1606 Y73.2895 F2500.00
G01 X56.1577 Y73.2967 F2500.00
G01 X56.1556 Y73.3001 F2500.00
G01 X56.1507 Y73.3061 F2500.00
G01 X56.1478 Y73.3087 F2500.00
G01 X56.1413 Y73.3131 F2500.00
G01 X56.1341 Y73.3160 F2500.00
G01 X56.1304 Y73.3170 F2500.00
G01 X56.1265 Y73.3176 F2500.00
G01 X56.1174 Y73.3180 F2500.00
G01 X54.8778 Y73.3180 F2500.00
G01 X54.8687 Y73.3176 F2500.00
G01 X54.8611 Y73.3160 F2500.00
G01 X54.8539 Y73.3131 F2500.00
G01 X54.8505 Y73.3110 F2500.00
G01 X54.8445 Y73.3061 F2500.00
G01 X54.8419 Y73.3032 F2500.00
G01 X54.8375 Y73.2967 F2500.00
G01 X54.8359 Y73.2932 F2500.00
G01 X54.8336 Y73.2858 F2500.00
G01 X54.8330 Y73.2819 F2500.00
G01 X54.8326 Y73.2728 F2500.00
G01 X54.8326 Y72.4832 F2500.00
G01 X54.8330 Y72.4741 F2500.00
G01 X54.8336 Y72.4702 F2500.00
G01 X54.8346 Y72.4665 F2500.00
G01 X54.8375 Y72.4593 F2500.00
G01 X54.8396 Y72.4559 F2500.00
G01 X54.8445 Y72.4499 F2500.00
G01 X54.8505 Y72.4450 F2500.00
G01 X54.8574 Y72.4413 F2500.00
G01 X54.8267 Y72.3673 F2500.00
G01 X54.8378 Y72.3633 F2500.00
G01 X54.8492 Y72.3605 F2500.00
G01 X54.8609 Y72.3587 F2500.00
G01 X54.8758 Y72.3580 F2500.00
G01 X56.1194 Y72.3580 F2500.00
G01 X56.1343 Y72.3587 F2500.00
G01 X56.1460 Y72.3605 F2500.00
G01 X56.1574 Y72.3633 F2500.00
G01 X56.1685 Y72.3673 F2500.00
G01 X56.1791 Y72.3723 F2500.00
G01 X56.1892 Y72.3784 F2500.00
G01 X56.1986 Y72.3854 F2500.00
G01 X56.2073 Y72.3933 F2500.00
G01 X56.2152 Y72.4020 F2500.00
G01 X56.2222 Y72.4114 F2500.00
G01 X56.2283 Y72.4215 F2500.00
G01 X56.2333 Y72.4321 F2500.00
G01 X56.2373 Y72.4432 F2500.00
G01 X56.2401 Y72.4546 F2500.00
G01 X56.2419 Y72.4663 F2500.00
G01 X56.2426 Y72.4812 F2500.00
G01 X56.2426 Y73.2748 F2500.00
G01 X56.2419 Y73.2897 F2500.00
G01 X56.2401 Y73.3014 F2500.00
G01 X56.2373 Y73.3128 F2500.00
G01 X56.2333 Y73.3239 F2500.00
G01 X56.2283 Y73.3345 F2500.00
G01 X56.2222 Y73.3446 F2500.00
G01 X56.2152 Y73.3540 F2500.00
G01 X56.2073 Y73.3627 F2500.00
G01 X56.1986 Y73.3706 F2500.00
G01 X56.1892 Y73.3776 F2500.00
G01 X56.1791 Y73.3837 F2500.00
G01 X56.1685 Y73.3887 F2500.00
G01 X56.1574 Y73.3927 F2500.00
G01 X56.1460 Y73.3955 F2500.00
G01 X56.1343 Y73.3973 F2500.00
G01 X56.1194 Y73.3980 F2500.00
G01 X54.8758 Y73.3980 F2500.00
G01 X54.8609 Y73.3973 F2500.00
G01 X54.8492 Y73.3955 F2500.00
G01 X54.8378 Y73.3927 F2500.00
G01 X54.8267 Y73.3887 F2500.00
G01 X54.8161 Y73.3837 F2500.00
G01 X54.8060 Y73.3776 F2500.00
G01 X54.7966 Y73.3706 F2500.00
G01 X54.7879 Y73.3627 F2500.00
G01 X54.7800 Y73.3540 F2500.00
G01 X54.7730 Y73.3446 F2500.00
G01 X54.7669 Y73.3345 F2500.00
G01 X54.7619 Y73.3239 F2500.00
G01 X54.7579 Y73.3128 F2500.00
G01 X54.7551 Y73.3014 F2500.00
G01 X54.7533 Y73.2897 F2500.00
G01 X54.7526 Y73.2748 F2500.00
G01 X54.7526 Y72.4812 F2500.00
G01 X54.7533 Y72.4663 F2500.00
G01 X54.7551 Y72.4546 F2500.00
G01 X54.7579 Y72.4432 F2500.00
G01 X54.7619 Y72.4321 F2500.00
G01 X54.7669 Y72.4215 F2500.00
G01 X54.7730 Y72.4114 F2500.00
G01 X54.7800 Y72.4020 F2500.00
G01 X54.7879 Y72.3933 F2500.00
G01 X54.7966 Y72.3854 F2500.00
G01 X54.8060 Y72.3784 F2500.00
G01 X54.8161 Y72.3723 F2500.00
G01 X54.8267 Y72.3673 F2500.00
G01 X54.7961 Y72.2933 F2500.00
G01 X54.8146 Y72.2867 F2500.00
G01 X54.8336 Y72.2819 F2500.00
G01 X54.8530 Y72.2790 F2500.00
G01 X54.8738 Y72.2780 F2500.00
G01 X56.1214 Y72.2780 F2500.00
G01 X56.1422 Y72.2790 F2500.00
G01 X56.1616 Y72.2819 F2500.00
G01 X56.1806 Y72.2867 F2500.00
G01 X56.1991 Y72.2933 F2500.00
G01 X56.2169 Y72.3017 F2500.00
G01 X56.2337 Y72.3118 F2500.00
G01 X56.2494 Y72.3234 F2500.00
G01 X56.2640 Y72.3366 F2500.00
G01 X56.2772 Y72.3512 F2500.00
G01 X56.2888 Y72.3669 F2500.00
G01 X56.2989 Y72.3837 F2500.00
G01 X56.3073 Y72.4015 F2500.00
G01 X56.3139 Y72.4200 F2500.00
G01 X56.3187 Y72.4390 F2500.00
G01 X56.3216 Y72.4584 F2500.00
G01 X56.3226 Y72.4792 F2500.00
G01 X56.3226 Y73.2768 F2500.00
G01 X56.3216 Y73.2976 F2500.00
G01 X56.3187 Y73.3170 F2500.00
G01 X56.3139 Y73.3360 F2500.00
G01 X56.3073 Y73.3545 F2500.00
G01 X56.2989 Y73.3723 F2500.00
G01 X56.2888 Y73.3891 F2500.00
G01 X56.2772 Y73.4048 F2500.00
G01 X56.2640 Y73.4194 F2500.00
G01 X56.2494 Y73.4326 F2500.00
G01 X56.2337 Y73.4442 F2500.00
G01 X56.2169 Y73.4543 F2500.00
G01 X56.1991 Y73.4627 F2500.00
G01 X56.1806 Y73.4693 F2500.00
G01 X56.1616 Y73.4741 F2500.00
G01 X56.1422 Y73.4770 F2500.00
G01 X56.1214 Y73.4780 F2500.00
G01 X54.8738 Y73.4780 F2500.00
G01 X54.8530 Y73.4770 F2500.00
G01 X54.8336 Y73.4741 F2500.00
G01 X54.8146 Y73.4693 F2500.00
G01 X54.7961 Y73.4627 F2500.00
G01 X54.7783 Y73.4543 F2500.00
G01 X54.7615 Y73.4442 F2500.00
G01 X54.7458 Y73.4326 F2500.00
G01 X54.7312 Y73.4194 F2500.00
G01 X54.7180 Y73.4048 F2500.00
G01 X54.7064 Y73.3891 F2500.00
G01 X54.6963 Y73.3723 F2500.00
G01 X54.6879 Y73.3545 F2500.00
G01 X54.6813 Y73.3360 F2500.00
G01 X54.6765 Y73.3170 F2500.00
G01 X54.6736 Y73.2976 F2500.00
G01 X54.6726 Y73.2768 F2500.00
G01 X54.6726 Y72.4792 F2500.00
G01 X54.6736 Y72.4584 F2500.00
G01 X54.6765 Y72.4390 F2500.00
G01 X54.6813 Y72.4200 F2500.00
G01 X54.6879 Y72.4015 F2500.00
G01 X54.6963 Y72.3837 F2500.00
G01 X54.7064 Y72.3669 F2500.00
G01 X54.7180 Y72.3512 F2500.00
G01 X54.7312 Y72.3366 F2500.00
G01 X54.7458 Y72.3234 F2500.00
G01 X54.7615 Y72.3118 F2500.00
G01 X54.7783 Y72.3017 F2500.00
G01 X54.7961 Y72.2933 F2500.00
M5
G00 X52.6926 Y72.8132
G01 F60.00
M03 S50.0
G01 F2500.00
G01 X53.2226 Y72.8132 F2500.00
G01 X53.2226 Y72.8932 F2500.00
G01 X52.6926 Y72.8932 F2500.00
G01 X52.6926 Y72.8132 F2500.00
G01 X52.6126 Y72.7332 F2500.00
G01 X53.3026 Y72.7332 F2500.00
G01 X53.3026 Y72.9732 F2500.00
G01 X52.6126 Y72.9732 F2500.00
G01 X52.6126 Y72.7332 F2500.00
G01 X52.5326 Y72.6532 F2500.00
G01 X53.3826 Y72.6532 F2500.00
G01 X53.3826 Y73.0532 F2500.00
G01 X52.5326 Y73.0532 F2500.00
G01 X52.5326 Y72.6532 F2500.00
G01 X52.4526 Y72.5732 F2500.00
G01 X53.4626 Y72.5732 F2500.00
G01 X53.4626 Y73.1332 F2500.00
G01 X52.4526 Y73.1332 F2500.00
G01 X52.4526 Y72.5732 F2500.00
G01 X52.3726 Y72.4932 F2500.00
G01 X53.5426 Y72.4932 F2500.00
G01 X53.5426 Y73.2132 F2500.00
G01 X52.3726 Y73.2132 F2500.00
G01 X52.3726 Y72.4932 F2500.00
G01 X52.3174 Y72.4165 F2500.00
G01 X52.3248 Y72.4142 F2500.00
G01 X52.3287 Y72.4136 F2500.00
G01 X52.3378 Y72.4132 F2500.00
G01 X53.5774 Y72.4132 F2500.00
G01 X53.5865 Y72.4136 F2500.00
G01 X53.5904 Y72.4142 F2500.00
G01 X53.5941 Y72.4152 F2500.00
G01 X53.6013 Y72.4181 F2500.00
G01 X53.6047 Y72.4202 F2500.00
G01 X53.6107 Y72.4251 F2500.00
G01 X53.6133 Y72.4280 F2500.00
G01 X53.6177 Y72.4345 F2500.00
G01 X53.6193 Y72.4380 F2500.00
G01 X53.6216 Y72.4454 F2500.00
G01 X53.6222 Y72.4493 F2500.00
G01 X53.6226 Y72.4584 F2500.00
G01 X53.6226 Y73.2480 F2500.00
G01 X53.6222 Y73.2571 F2500.00
G01 X53.6216 Y73.2610 F2500.00
G01 X53.6206 Y73.2647 F2500.00
G01 X53.6177 Y73.2719 F2500.00
G01 X53.6156 Y73.2753 F2500.00
G01 X53.6107 Y73.2813 F2500.00
G01 X53.6078 Y73.2839 F2500.00
G01 X53.6013 Y73.2883 F2500.00
G01 X53.5941 Y73.2912 F2500.00
G01 X53.5904 Y73.2922 F2500.00
G01 X53.5865 Y73.2928 F2500.00
G01 X53.5774 Y73.2932 F2500.00
G01 X52.3378 Y73.2932 F2500.00
G01 X52.3287 Y73.2928 F2500.00
G01 X52.3211 Y73.2912 F2500.00
G01 X52.3139 Y73.2883 F2500.00
G01 X52.3105 Y73.2862 F2500.00
G01 X52.3045 Y73.2813 F2500.00
G01 X52.3019 Y73.2784 F2500.00
G01 X52.2975 Y73.2719 F2500.00
G01 X52.2959 Y73.2684 F2500.00
G01 X52.2936 Y73.2610 F2500.00
G01 X52.2930 Y73.2571 F2500.00
G01 X52.2926 Y73.2480 F2500.00
G01 X52.2926 Y72.4584 F2500.00
G01 X52.2930 Y72.4493 F2500.00
G01 X52.2936 Y72.4454 F2500.00
G01 X52.2946 Y72.4417 F2500.00
G01 X52.2975 Y72.4345 F2500.00
G01 X52.2996 Y72.4311 F2500.00
G01 X52.3045 Y72.4251 F2500.00
G01 X52.3105 Y72.4202 F2500.00
G01 X52.3174 Y72.4165 F2500.00
G01 X52.2867 Y72.3425 F2500.00
G01 X52.2978 Y72.3385 F2500.00
G01 X52.3092 Y72.3357 F2500.00
G01 X52.3209 Y72.3339 F2500.00
G01 X52.3358 Y72.3332 F2500.00
G01 X53.5794 Y72.3332 F2500.00
G01 X53.5943 Y72.3339 F2500.00
G01 X53.6060 Y72.3357 F2500.00
G01 X53.6174 Y72.3385 F2500.00
G01 X53.6285 Y72.3425 F2500.00
G01 X53.6391 Y72.3475 F2500.00
G01 X53.6492 Y72.3536 F2500.00
G01 X53.6586 Y72.3606 F2500.00
G01 X53.6673 Y72.3685 F2500.00
G01 X53.6752 Y72.3772 F2500.00
G01 X53.6822 Y72.3866 F2500.00
G01 X53.6883 Y72.3967 F2500.00
G01 X53.6933 Y72.4073 F2500.00
G01 X53.6973 Y72.4184 F2500.00
G01 X53.7001 Y72.4298 F2500.00
G01 X53.7019 Y72.4415 F2500.00
G01 X53.7026 Y72.4564 F2500.00
G01 X53.7026 Y73.2500 F2500.00
G01 X53.7019 Y73.2649 F2500.00
G01 X53.7001 Y73.2766 F2500.00
G01 X53.6973 Y73.2880 F2500.00
G01 X53.6933 Y73.2991 F2500.00
G01 X53.6883 Y73.3097 F2500.00
G01 X53.6822 Y73.3198 F2500.00
G01 X53.6752 Y73.3292 F2500.00
G01 X53.6673 Y73.3379 F2500.00
G01 X53.6586 Y73.3458 F2500.00
G01 X53.6492 Y73.3528 F2500.00
G01 X53.6391 Y73.3589 F2500.00
G01 X53.6285 Y73.3639 F2500.00
G01 X53.6174 Y73.3679 F2500.00
G01 X53.6060 Y73.3707 F2500.00
G01 X53.5943 Y73.3725 F2500.00
G01 X53.5794 Y73.3732 F2500.00
G01 X52.3358 Y73.3732 F2500.00
G01 X52.3209 Y73.3725 F2500.00
G01 X52.3092 Y73.3707 F2500.00
G01 X52.2978 Y73.3679 F2500.00
G01 X52.2867 Y73.3639 F2500.00
G01 X52.2761 Y73.3589 F2500.00
G01 X52.2660 Y73.3528 F2500.00
G01 X52.2566 Y73.3458 F2500.00
G01 X52.2479 Y73.3379 F2500.00
G01 X52.2400 Y73.3292 F2500.00
G01 X52.2330 Y73.3198 F2500.00
G01 X52.2269 Y73.3097 F2500.00
G01 X52.2219 Y73.2991 F2500.00
G01 X52.2179 Y73.2880 F2500.00
G01 X52.2151 Y73.2766 F2500.00
G01 X52.2133 Y73.2649 F2500.00
G01 X52.2126 Y73.2500 F2500.00
G01 X52.2126 Y72.4564 F2500.00
G01 X52.2133 Y72.4415 F2500.00
G01 X52.2151 Y72.4298 F2500.00
G01 X52.2179 Y72.4184 F2500.00
G01 X52.2219 Y72.4073 F2500.00
G01 X52.2269 Y72.3967 F2500.00
G01 X52.2330 Y72.3866 F2500.00
G01 X52.2400 Y72.3772 F2500.00
G01 X52.2479 Y72.3685 F2500.00
G01 X52.2566 Y72.3606 F2500.00
G01 X52.2660 Y72.3536 F2500.00
G01 X52.2761 Y72.3475 F2500.00
G01 X52.2867 Y72.3425 F2500.00
G01 X52.2561 Y72.2685 F2500.00
G01 X52.2746 Y72.2619 F2500.00
G01 X52.2936 Y72.2571 F2500.00
G01 X52.3130 Y72.2542 F2500.00
G01 X52.3338 Y72.2532 F2500.00
G01 X53.5814 Y72.2532 F2500.00
G01 X53.6022 Y72.2542 F2500.00
G01 X53.6216 Y72.2571 F2500.00
G01 X53.6406 Y72.2619 F2500.00
G01 X53.6591 Y72.2685 F2500.00
G01 X53.6769 Y72.2769 F2500.00
G01 X53.6937 Y72.2870 F2500.00
G01 X53.7094 Y72.2986 F2500.00
G01 X53.7240 Y72.3118 F2500.00
G01 X53.7372 Y72.3264 F2500.00
G01 X53.7488 Y72.3421 F2500.00
G01 X53.7589 Y72.3589 F2500.00
G01 X53.7673 Y72.3767 F2500.00
G01 X53.7739 Y72.3952 F2500.00
G01 X53.7787 Y72.4142 F2500.00
G01 X53.7816 Y72.4336 F2500.00
G01 X53.7826 Y72.4544 F2500.00
G01 X53.7826 Y73.2520 F2500.00
G01 X53.7816 Y73.2728 F2500.00
G01 X53.7787 Y73.2922 F2500.00
G01 X53.7739 Y73.3112 F2500.00
G01 X53.7673 Y73.3297 F2500.00
G01 X53.7589 Y73.3475 F2500.00
G01 X53.7488 Y73.3643 F2500.00
G01 X53.7372 Y73.3800 F2500.00
G01 X53.7240 Y73.3946 F2500.00
G01 X53.7094 Y73.4078 F2500.00
G01 X53.6937 Y73.4194 F2500.00
G01 X53.6769 Y73.4295 F2500.00
G01 X53.6591 Y73.4379 F2500.00
G01 X53.6406 Y73.4445 F2500.00
G01 X53.6216 Y73.4493 F2500.00
G01 X53.6022 Y73.4522 F2500.00
G01 X53.5814 Y73.4532 F2500.00
G01 X52.3338 Y73.4532 F2500.00
G01 X52.3130 Y73.4522 F2500.00
G01 X52.2936 Y73.4493 F2500.00
G01 X52.2746 Y73.4445 F2500.00
G01 X52.2561 Y73.4379 F2500.00
G01 X52.2383 Y73.4295 F2500.00
G01 X52.2215 Y73.4194 F2500.00
G01 X52.2058 Y73.4078 F2500.00
G01 X52.1912 Y73.3946 F2500.00
G01 X52.1780 Y73.3800 F2500.00
G01 X52.1664 Y73.3643 F2500.00
G01 X52.1563 Y73.3475 F2500.00
G01 X52.1479 Y73.3297 F2500.00
G01 X52.1413 Y73.3112 F2500.00
G01 X52.1365 Y73.2922 F2500.00
G01 X52.1336 Y73.2728 F2500.00
G01 X52.1326 Y73.2520 F2500.00
G01 X52.1326 Y72.4544 F2500.00
G01 X52.1336 Y72.4336 F2500.00
G01 X52.1365 Y72.4142 F2500.00
G01 X52.1413 Y72.3952 F2500.00
G01 X52.1479 Y72.3767 F2500.00
G01 X52.1563 Y72.3589 F2500.00
G01 X52.1664 Y72.3421 F2500.00
G01 X52.1780 Y72.3264 F2500.00
G01 X52.1912 Y72.3118 F2500.00
G01 X52.2058 Y72.2986 F2500.00
G01 X52.2215 Y72.2870 F2500.00
G01 X52.2383 Y72.2769 F2500.00
G01 X52.2561 Y72.2685 F2500.00
M5
G00 X59.9128 Y59.4808
G01 F60.00
M03 S50.0
G01 F2500.00
G01 X59.9328 Y59.4808 F2500.00
G01 X59.9328 Y62.5008 F2500.00
G01 X59.9128 Y62.5008 F2500.00
G01 X59.9128 Y59.4808 F2500.00
G01 X59.8328 Y59.4008 F2500.00
G01 X60.0128 Y59.4008 F2500.00
G01 X60.0128 Y62.5808 F2500.00
G01 X59.8328 Y62.5808 F2500.00
G01 X59.8328 Y59.4008 F2500.00
G01 X59.7528 Y59.3208 F2500.00
G01 X60.0928 Y59.3208 F2500.00
G01 X60.0928 Y62.6608 F2500.00
G01 X59.7528 Y62.6608 F2500.00
G01 X59.7528 Y59.3208 F2500.00
G01 X59.6728 Y59.2408 F2500.00
G01 X60.1728 Y59.2408 F2500.00
G01 X60.1728 Y62.7408 F2500.00
G01 X59.6728 Y62.7408 F2500.00
G01 X59.6728 Y59.2408 F2500.00
G01 X59.5928 Y59.1608 F2500.00
G01 X60.2528 Y59.1608 F2500.00
G01 X60.2528 Y62.8208 F2500.00
G01 X59.5928 Y62.8208 F2500.00
G01 X59.5928 Y59.1608 F2500.00
G01 X59.5128 Y59.0808 F2500.00
G01 X60.3328 Y59.0808 F2500.00
G01 X60.3328 Y62.9008 F2500.00
G01 X59.5128 Y62.9008 F2500.00
G01 X59.5128 Y59.0808 F2500.00
G01 X59.4328 Y59.0008 F2500.00
G01 X60.4128 Y59.0008 F2500.00
G01 X60.4128 Y62.9808 F2500.00
G01 X59.4328 Y62.9808 F2500.00
G01 X59.4328 Y59.0008 F2500.00
G01 X59.3528 Y58.9208 F2500.00
G01 X60.4928 Y58.9208 F2500.00
G01 X60.4928 Y63.0608 F2500.00
G01 X59.3528 Y63.0608 F2500.00
G01 X59.3528 Y58.9208 F2500.00
G01 X59.2728 Y58.8408 F2500.00
G01 X60.5728 Y58.8408 F2500.00
G01 X60.5728 Y63.1408 F2500.00
G01 X59.2728 Y63.1408 F2500.00
G01 X59.2728 Y58.8408 F2500.00
G01 X59.1928 Y58.7608 F2500.00
G01 X60.6528 Y58.7608 F2500.00
G01 X60.6528 Y63.2208 F2500.00
G01 X59.1928 Y63.2208 F2500.00
G01 X59.1928 Y58.7608 F2500.00
G01 X59.1128 Y58.6808 F2500.00
G01 X60.7328 Y58.6808 F2500.00
G01 X60.7328 Y63.3008 F2500.00
G01 X59.1128 Y63.3008 F2500.00
G01 X59.1128 Y58.6808 F2500.00
G01 X59.0328 Y58.6008 F2500.00
G01 X60.8128 Y58.6008 F2500.00
G01 X60.8128 Y63.3808 F2500.00
G01 X59.0328 Y63.3808 F2500.00
G01 X59.0328 Y58.6008 F2500.00
G01 X58.9528 Y58.5208 F2500.00
G01 X60.8928 Y58.5208 F2500.00
G01 X60.8928 Y63.4608 F2500.00
G01 X58.9528 Y63.4608 F2500.00
G01 X58.9528 Y58.5208 F2500.00
G01 X58.8728 Y58.4408 F2500.00
G01 X60.9728 Y58.4408 F2500.00
G01 X60.9728 Y63.5408 F2500.00
G01 X58.8728 Y63.5408 F2500.00
G01 X58.8728 Y58.4408 F2500.00
G01 X58.7928 Y58.3608 F2500.00
G01 X61.0528 Y58.3608 F2500.00
G01 X61.0528 Y63.6208 F2500.00
G01 X58.7928 Y63.6208 F2500.00
G01 X58.7928 Y58.3608 F2500.00
G01 X58.7128 Y58.2808 F2500.00
G01 X61.1328 Y58.2808 F2500.00
G01 X61.1328 Y63.7008 F2500.00
G01 X58.7128 Y63.7008 F2500.00
G01 X58.7128 Y58.2808 F2500.00
G01 X58.6328 Y58.2008 F2500.00
G01 X61.2128 Y58.2008 F2500.00
G01 X61.2128 Y63.7808 F2500.00
G01 X58.6328 Y63.7808 F2500.00
G01 X58.6328 Y58.2008 F2500.00
G01 X58.5528 Y58.1208 F2500.00
G01 X61.2928 Y58.1208 F2500.00
G01 X61.2928 Y63.8608 F2500.00
G01 X58.5528 Y63.8608 F2500.00
G01 X58.5528 Y58.1208 F2500.00
G01 X58.4728 Y58.0408 F2500.00
G01 X61.3728 Y58.0408 F2500.00
G01 X61.3728 Y63.9408 F2500.00
G01 X58.4728 Y63.9408 F2500.00
G01 X58.4728 Y58.0408 F2500.00
M5
G00 X84.3892 Y53.3804
G01 F60.00
M03 S50.0
G01 F2500.00
G01 X84.4011 Y53.6217 F2500.00
G01 X84.4363 Y53.8596 F2500.00
G01 X84.4948 Y54.0928 F2500.00
G01 X84.5758 Y54.3192 F2500.00
G01 X84.6785 Y54.5365 F2500.00
G01 X84.8021 Y54.7427 F2500.00
G01 X84.9454 Y54.9358 F2500.00
G01 X85.1068 Y55.1140 F2500.00
G01 X85.2850 Y55.2754 F2500.00
G01 X85.4781 Y55.4187 F2500.00
G01 X85.6843 Y55.5423 F2500.00
G01 X85.9016 Y55.6450 F2500.00
G01 X86.1280 Y55.7260 F2500.00
G01 X86.3612 Y55.7845 F2500.00
G01 X86.5991 Y55.8197 F2500.00
G01 X86.8404 Y55.8316 F2500.00
G01 X91.8380 Y55.8316 F2500.00
G01 X92.0793 Y55.8197 F2500.00
G01 X92.3172 Y55.7845 F2500.00
G01 X92.5504 Y55.7260 F2500.00
G01 X92.7768 Y55.6450 F2500.00
G01 X92.9941 Y55.5423 F2500.00
G01 X93.2003 Y55.4187 F2500.00
G01 X93.3934 Y55.2754 F2500.00
G01 X93.5716 Y55.1140 F2500.00
G01 X93.7330 Y54.9358 F2500.00
G01 X93.8763 Y54.7427 F2500.00
G01 X93.9999 Y54.5365 F2500.00
G01 X94.1026 Y54.3192 F2500.00
G01 X94.1836 Y54.0928 F2500.00
G01 X94.2421 Y53.8596 F2500.00
G01 X94.2773 Y53.6217 F2500.00
G01 X94.2892 Y53.3804 F2500.00
G01 X94.2892 Y48.3828 F2500.00
G01 X94.2773 Y48.1415 F2500.00
G01 X94.2421 Y47.9036 F2500.00
G01 X94.1836 Y47.6704 F2500.00
G01 X94.1026 Y47.4440 F2500.00
G01 X93.9999 Y47.2267 F2500.00
G01 X93.8763 Y47.0205 F2500.00
G01 X93.7330 Y46.8274 F2500.00
G01 X93.5716 Y46.6492 F2500.00
G01 X93.3934 Y46.4878 F2500.00
G01 X93.2003 Y46.3445 F2500.00
G01 X92.9941 Y46.2209 F2500.00
G01 X92.7768 Y46.1182 F2500.00
G01 X92.5504 Y46.0372 F2500.00
G01 X92.3172 Y45.9787 F2500.00
G01 X92.0793 Y45.9435 F2500.00
G01 X91.8380 Y45.9316 F2500.00
G01 X86.8404 Y45.9316 F2500.00
G01 X86.5991 Y45.9435 F2500.00
G01 X86.3612 Y45.9787 F2500.00
G01 X86.1280 Y46.0372 F2500.00
G01 X85.9016 Y46.1182 F2500.00
G01 X85.6843 Y46.2209 F2500.00
G01 X85.4781 Y46.3445 F2500.00
G01 X85.2850 Y46.4878 F2500.00
G01 X85.1068 Y46.6492 F2500.00
G01 X84.9454 Y46.8274 F2500.00
G01 X84.8021 Y47.0205 F2500.00
G01 X84.6785 Y47.2267 F2500.00
G01 X84.5758 Y47.4440 F2500.00
G01 X84.4948 Y47.6704 F2500.00
G01 X84.4363 Y47.9036 F2500.00
G01 X84.4011 Y48.1415 F2500.00
G01 X84.3892 Y48.3828 F2500.00
G01 X84.3892 Y53.3804 F2500.00
G01 X84.4692 Y53.3784 F2500.00
G01 X84.4808 Y53.6139 F2500.00
G01 X84.5149 Y53.8439 F2500.00
G01 X84.5714 Y54.0695 F2500.00
G01 X84.6498 Y54.2885 F2500.00
G01 X84.7492 Y54.4987 F2500.00
G01 X84.8687 Y54.6982 F2500.00
G01 X85.0073 Y54.8850 F2500.00
G01 X85.1635 Y55.0573 F2500.00
G01 X85.3358 Y55.2135 F2500.00
G01 X85.5226 Y55.3521 F2500.00
G01 X85.7221 Y55.4716 F2500.00
G01 X85.9323 Y55.5710 F2500.00
G01 X86.1513 Y55.6494 F2500.00
G01 X86.3769 Y55.7059 F2500.00
G01 X86.6069 Y55.7400 F2500.00
G01 X86.8424 Y55.7516 F2500.00
G01 X91.8360 Y55.7516 F2500.00
G01 X92.0715 Y55.7400 F2500.00
G01 X92.3015 Y55.7059 F2500.00
G01 X92.5271 Y55.6494 F2500.00
G01 X92.7461 Y55.5710 F2500.00
G01 X92.9563 Y55.4716 F2500.00
G01 X93.1558 Y55.3521 F2500.00
G01 X93.3426 Y55.2135 F2500.00
G01 X93.5149 Y55.0573 F2500.00
G01 X93.6711 Y54.8850 F2500.00
G01 X93.8097 Y54.6982 F2500.00
G01 X93.9292 Y54.4987 F2500.00
G01 X94.0286 Y54.2885 F2500.00
G01 X94.1070 Y54.0695 F2500.00
G01 X94.1635 Y53.8439 F2500.00
G01 X94.1976 Y53.6139 F2500.00
G01 X94.2092 Y53.3784 F2500.00
G01 X94.2092 Y48.3848 F2500.00
G01 X94.1976 Y48.1493 F2500.00
G01 X94.1635 Y47.9193 F2500.00
G01 X94.1070 Y47.6937 F2500.00
G01 X94.0286 Y47.4747 F2500.00
G01 X93.9292 Y47.2645 F2500.00
G01 X93.8097 Y47.0650 F2500.00
G01 X93.6711 Y46.8782 F2500.00
G01 X93.5149 Y46.7059 F2500.00
G01 X93.3426 Y46.5497 F2500.00
G01 X93.1558 Y46.4111 F2500.00
G01 X92.9563 Y46.2916 F2500.00
G01 X92.7461 Y46.1922 F2500.00
G01 X92.5271 Y46.1138 F2500.00
G01 X92.3015 Y46.0573 F2500.00
G01 X92.0715 Y46.0232 F2500.00
G01 X91.8360 Y46.0116 F2500.00
G01 X86.8424 Y46.0116 F2500.00
G01 X86.6069 Y46.0232 F2500.00
G01 X86.3769 Y46.0573 F2500.00
G01 X86.1513 Y46.1138 F2500.00
G01 X85.9323 Y46.1922 F2500.00
G01 X85.7221 Y46.2916 F2500.00
G01 X85.5226 Y46.4111 F2500.00
G01 X85.3358 Y46.5497 F2500.00
G01 X85.1635 Y46.7059 F2500.00
G01 X85.0073 Y46.8782 F2500.00
G01 X84.8687 Y47.0650 F2500.00
G01 X84.7492 Y47.2645 F2500.00
G01 X84.6498 Y47.4747 F2500.00
G01 X84.5714 Y47.6937 F2500.00
G01 X84.5149 Y47.9193 F2500.00
G01 X84.4808 Y48.1493 F2500.00
G01 X84.4692 Y48.3848 F2500.00
G01 X84.4692 Y53.3784 F2500.00
G01 X84.5492 Y53.3764 F2500.00
G01 X84.5605 Y53.6060 F2500.00
G01 X84.5935 Y53.8283 F2500.00
G01 X84.6480 Y54.0463 F2500.00
G01 X84.7237 Y54.2578 F2500.00
G01 X84.8198 Y54.4610 F2500.00
G01 X84.9353 Y54.6537 F2500.00
G01 X85.0692 Y54.8342 F2500.00
G01 X85.2201 Y55.0007 F2500.00
G01 X85.3866 Y55.1516 F2500.00
G01 X85.5671 Y55.2855 F2500.00
G01 X85.7598 Y55.4010 F2500.00
G01 X85.9630 Y55.4970 F2500.00
G01 X86.1745 Y55.5728 F2500.00
G01 X86.3925 Y55.6273 F2500.00
G01 X86.6148 Y55.6603 F2500.00
G01 X86.8444 Y55.6716 F2500.00
G01 X91.8340 Y55.6716 F2500.00
G01 X92.0636 Y55.6603 F2500.00
G01 X92.2859 Y55.6273 F2500.00
G01 X92.5039 Y55.5728 F2500.00
G01 X92.7154 Y55.4970 F2500.00
G01 X92.9186 Y55.4010 F2500.00
G01 X93.1113 Y55.2855 F2500.00
G01 X93.2918 Y55.1516 F2500.00
G01 X93.4583 Y55.0007 F2500.00
G01 X93.6092 Y54.8342 F2500.00
G01 X93.7431 Y54.6537 F2500.00
G01 X93.8586 Y54.4610 F2500.00
G01 X93.9546 Y54.2578 F2500.00
G01 X94.0304 Y54.0463 F2500.00
G01 X94.0849 Y53.8283 F2500.00
G01 X94.1179 Y53.6060 F2500.00
G01 X94.1292 Y53.3764 F2500.00
G01 X94.1292 Y48.3868 F2500.00
G01 X94.1179 Y48.1572 F2500.00
G01 X94.0849 Y47.9349 F2500.00
G01 X94.0304 Y47.7169 F2500.00
G01 X93.9546 Y47.5054 F2500.00
G01 X93.8586 Y47.3022 F2500.00
G01 X93.7431 Y47.1095 F2500.00
G01 X93.6092 Y46.9290 F2500.00
G01 X93.4583 Y46.7625 F2500.00
G01 X93.2918 Y46.6116 F2500.00
G01 X93.1113 Y46.4777 F2500.00
G01 X92.9186 Y46.3622 F2500.00
G01 X92.7154 Y46.2661 F2500.00
G01 X92.5039 Y46.1904 F2500.00
G01 X92.2859 Y46.1359 F2500.00
G01 X92.0636 Y46.1029 F2500.00
G01 X91.8340 Y46.0916 F2500.00
G01 X86.8444 Y46.0916 F2500.00
G01 X86.6148 Y46.1029 F2500.00
G01 X86.3925 Y46.1359 F2500.00
G01 X86.1745 Y46.1904 F2500.00
G01 X85.9630 Y46.2661 F2500.00
G01 X85.7598 Y46.3622 F2500.00
G01 X85.5671 Y46.4777 F2500.00
G01 X85.3866 Y46.6116 F2500.00
G01 X85.2201 Y46.7625 F2500.00
G01 X85.0692 Y46.9290 F2500.00
G01 X84.9353 Y47.1095 F2500.00
G01 X84.8198 Y47.3022 F2500.00
G01 X84.7237 Y47.5054 F2500.00
G01 X84.6480 Y47.7169 F2500.00
G01 X84.5935 Y47.9349 F2500.00
G01 X84.5605 Y48.1572 F2500.00
G01 X84.5492 Y48.3868 F2500.00
G01 X84.5492 Y53.3764 F2500.00
G01 X84.6292 Y53.3745 F2500.00
G01 X84.6402 Y53.5982 F2500.00
G01 X84.6720 Y53.8127 F2500.00
G01 X84.7247 Y54.0230 F2500.00
G01 X84.7977 Y54.2272 F2500.00
G01 X84.8905 Y54.4232 F2500.00
G01 X85.0019 Y54.6092 F2500.00
G01 X85.1311 Y54.7834 F2500.00
G01 X85.2767 Y54.9441 F2500.00
G01 X85.4374 Y55.0897 F2500.00
G01 X85.6116 Y55.2189 F2500.00
G01 X85.7976 Y55.3303 F2500.00
G01 X85.9936 Y55.4231 F2500.00
G01 X86.1978 Y55.4961 F2500.00
G01 X86.4081 Y55.5488 F2500.00
G01 X86.6226 Y55.5806 F2500.00
G01 X86.8463 Y55.5916 F2500.00
G01 X91.8321 Y55.5916 F2500.00
G01 X92.0558 Y55.5806 F2500.00
G01 X92.2703 Y55.5488 F2500.00
G01 X92.4806 Y55.4961 F2500.00
G01 X92.6848 Y55.4231 F2500.00
G01 X92.8808 Y55.3303 F2500.00
G01 X93.0668 Y55.2189 F2500.00
G01 X93.2410 Y55.0897 F2500.00
G01 X93.4017 Y54.9441 F2500.00
G01 X93.5473 Y54.7834 F2500.00
G01 X93.6765 Y54.6092 F2500.00
G01 X93.7879 Y54.4232 F2500.00
G01 X93.8807 Y54.2272 F2500.00
G01 X93.9537 Y54.0230 F2500.00
G01 X94.0064 Y53.8127 F2500.00
G01 X94.0382 Y53.5982 F2500.00
G01 X94.0492 Y53.3745 F2500.00
G01 X94.0492 Y48.3887 F2500.00
G01 X94.0382 Y48.1650 F2500.00
G01 X94.0064 Y47.9505 F2500.00
G01 X93.9537 Y47.7402 F2500.00
G01 X93.8807 Y47.5360 F2500.00
G01 X93.7879 Y47.3400 F2500.00
G01 X93.6765 Y47.1540 F2500.00
G01 X93.5473 Y46.9798 F2500.00
G01 X93.4017 Y46.8191 F2500.00
G01 X93.2410 Y46.6735 F2500.00
G01 X93.0668 Y46.5443 F2500.00
G01 X92.8808 Y46.4329 F2500.00
G01 X92.6848 Y46.3401 F2500.00
G01 X92.4806 Y46.2671 F2500.00
G01 X92.2703 Y46.2144 F2500.00
G01 X92.0558 Y46.1826 F2500.00
G01 X91.8321 Y46.1716 F2500.00
G01 X86.8463 Y46.1716 F2500.00
G01 X86.6226 Y46.1826 F2500.00
G01 X86.4081 Y46.2144 F2500.00
G01 X86.1978 Y46.2671 F2500.00
G01 X85.9936 Y46.3401 F2500.00
G01 X85.7976 Y46.4329 F2500.00
G01 X85.6116 Y46.5443 F2500.00
G01 X85.4374 Y46.6735 F2500.00
G01 X85.2767 Y46.8191 F2500.00
G01 X85.1311 Y46.9798 F2500.00
G01 X85.0019 Y47.1540 F2500.00
G01 X84.8905 Y47.3400 F2500.00
G01 X84.7977 Y47.5360 F2500.00
G01 X84.7247 Y47.7402 F2500.00
G01 X84.6720 Y47.9505 F2500.00
G01 X84.6402 Y48.1650 F2500.00
G01 X84.6292 Y48.3887 F2500.00
G01 X84.6292 Y53.3745 F2500.00
G01 X84.7092 Y53.3725 F2500.00
G01 X84.7199 Y53.5903 F2500.00
G01 X84.7506 Y53.7971 F2500.00
G01 X84.8013 Y53.9998 F2500.00
G01 X84.8717 Y54.1965 F2500.00
G01 X84.9611 Y54.3855 F2500.00
G01 X85.0685 Y54.5647 F2500.00
G01 X85.1930 Y54.7326 F2500.00
G01 X85.3334 Y54.8874 F2500.00
G01 X85.4882 Y55.0278 F2500.00
G01 X85.6561 Y55.1523 F2500.00
G01 X85.8353 Y55.2597 F2500.00
G01 X86.0243 Y55.3491 F2500.00
G01 X86.2210 Y55.4195 F2500.00
G01 X86.4237 Y55.4702 F2500.00
G01 X86.6305 Y55.5009 F2500.00
G01 X86.8483 Y55.5116 F2500.00
G01 X91.8301 Y55.5116 F2500.00
G01 X92.0479 Y55.5009 F2500.00
G01 X92.2547 Y55.4702 F2500.00
G01 X92.4574 Y55.4195 F2500.00
G01 X92.6541 Y55.3491 F2500.00
G01 X92.8431 Y55.2597 F2500.00
G01 X93.0223 Y55.1523 F2500.00
G01 X93.1902 Y55.0278 F2500.00
G01 X93.3450 Y54.8874 F2500.00
G01 X93.4854 Y54.7326 F2500.00
G01 X93.6099 Y54.5647 F2500.00
G01 X93.7173 Y54.3855 F2500.00
G01 X93.8067 Y54.1965 F2500.00
G01 X93.8771 Y53.9998 F2500.00
G01 X93.9278 Y53.7971 F2500.00
G01 X93.9585 Y53.5903 F2500.00
G01 X93.9692 Y53.3725 F2500.00
G01 X93.9692 Y48.3907 F2500.00
G01 X93.9585 Y48.1729 F2500.00
G01 X93.9278 Y47.9661 F2500.00
G01 X93.8771 Y47.7634 F2500.00
G01 X93.8067 Y47.5667 F2500.00
G01 X93.7173 Y47.3777 F2500.00
G01 X93.6099 Y47.1985 F2500.00
G01 X93.4854 Y47.0306 F2500.00
G01 X93.3450 Y46.8758 F2500.00
G01 X93.1902 Y46.7354 F2500.00
G01 X93.0223 Y46.6109 F2500.00
G01 X92.8431 Y46.5035 F2500.00
G01 X92.6541 Y46.4141 F2500.00
G01 X92.4574 Y46.3437 F2500.00
G01 X92.2547 Y46.2930 F2500.00
G01 X92.0479 Y46.2623 F2500.00
G01 X91.8301 Y46.2516 F2500.00
G01 X86.8483 Y46.2516 F2500.00
G01 X86.6305 Y46.2623 F2500.00
G01 X86.4237 Y46.2930 F2500.00
G01 X86.2210 Y46.3437 F2500.00
G01 X86.0243 Y46.4141 F2500.00
G01 X85.8353 Y46.5035 F2500.00
G01 X85.6561 Y46.6109 F2500.00
G01 X85.4882 Y46.7354 F2500.00
G01 X85.3334 Y46.8758 F2500.00
G01 X85.1930 Y47.0306 F2500.00
G01 X85.0685 Y47.1985 F2500.00
G01 X84.9611 Y47.3777 F2500.00
G01 X84.8717 Y47.5667 F2500.00
G01 X84.8013 Y47.7634 F2500.00
G01 X84.7506 Y47.9661 F2500.00
G01 X84.7199 Y48.1729 F2500.00
G01 X84.7092 Y48.3907 F2500.00
G01 X84.7092 Y53.3725 F2500.00
G01 X84.7892 Y53.3706 F2500.00
G01 X84.7996 Y53.5825 F2500.00
G01 X84.8291 Y53.7814 F2500.00
G01 X84.8780 Y53.9765 F2500.00
G01 X84.9457 Y54.1659 F2500.00
G01 X85.0317 Y54.3477 F2500.00
G01 X85.1351 Y54.5202 F2500.00
G01 X85.2549 Y54.6818 F2500.00
G01 X85.3900 Y54.8308 F2500.00
G01 X85.5390 Y54.9659 F2500.00
G01 X85.7006 Y55.0857 F2500.00
G01 X85.8731 Y55.1891 F2500.00
G01 X86.0549 Y55.2751 F2500.00
G01 X86.2443 Y55.3428 F2500.00
G01 X86.4394 Y55.3917 F2500.00
G01 X86.6383 Y55.4212 F2500.00
G01 X86.8502 Y55.4316 F2500.00
G01 X91.8282 Y55.4316 F2500.00
G01 X92.0401 Y55.4212 F2500.00
G01 X92.2390 Y55.3917 F2500.00
G01 X92.4341 Y55.3428 F2500.00
G01 X92.6235 Y55.2751 F2500.00
G01 X92.8053 Y55.1891 F2500.00
G01 X92.9778 Y55.0857 F2500.00
G01 X93.1394 Y54.9659 F2500.00
G01 X93.2884 Y54.8308 F2500.00
G01 X93.4235 Y54.6818 F2500.00
G01 X93.5433 Y54.5202 F2500.00
G01 X93.6467 Y54.3477 F2500.00
G01 X93.7327 Y54.1659 F2500.00
G01 X93.8004 Y53.9765 F2500.00
G01 X93.8493 Y53.7814 F2500.00
G01 X93.8788 Y53.5825 F2500.00
G01 X93.8892 Y53.3706 F2500.00
G01 X93.8892 Y48.3926 F2500.00
G01 X93.8788 Y48.1807 F2500.00
G01 X93.8493 Y47.9818 F2500.00
G01 X93.8004 Y47.7867 F2500.00
G01 X93.7327 Y47.5973 F2500.00
G01 X93.6467 Y47.4155 F2500.00
G01 X93.5433 Y47.2430 F2500.00
G01 X93.4235 Y47.0814 F2500.00
G01 X93.2884 Y46.9324 F2500.00
G01 X93.1394 Y46.7973 F2500.00
G01 X92.9778 Y46.6775 F2500.00
G01 X92.8053 Y46.5741 F2500.00
G01 X92.6235 Y46.4881 F2500.00
G01 X92.4341 Y46.4204 F2500.00
G01 X92.2390 Y46.3715 F2500.00
G01 X92.0401 Y46.3420 F2500.00
G01 X91.8282 Y46.3316 F2500.00
G01 X86.8502 Y46.3316 F2500.00
G01 X86.6383 Y46.3420 F2500.00
G01 X86.4394 Y46.3715 F2500.00
G01 X86.2443 Y46.4204 F2500.00
G01 X86.0549 Y46.4881 F2500.00
G01 X85.8731 Y46.5741 F2500.00
G01 X85.7006 Y46.6775 F2500.00
G01 X85.5390 Y46.7973 F2500.00
G01 X85.3900 Y46.9324 F2500.00
G01 X85.2549 Y47.0814 F2500.00
G01 X85.1351 Y47.2430 F2500.00
G01 X85.0317 Y47.4155 F2500.00
G01 X84.9457 Y47.5973 F2500.00
G01 X84.8780 Y47.7867 F2500.00
G01 X84.8291 Y47.9818 F2500.00
G01 X84.7996 Y48.1807 F2500.00
G01 X84.7892 Y48.3926 F2500.00
G01 X84.7892 Y53.3706 F2500.00
G01 X84.8692 Y53.3686 F2500.00
G01 X84.8793 Y53.5746 F2500.00
G01 X84.9077 Y53.7658 F2500.00
G01 X84.9546 Y53.9533 F2500.00
G01 X85.0197 Y54.1352 F2500.00
G01 X85.1024 Y54.3100 F2500.00
G01 X85.2017 Y54.4757 F2500.00
G01 X85.3169 Y54.6309 F2500.00
G01 X85.4467 Y54.7741 F2500.00
G01 X85.5899 Y54.9039 F2500.00
G01 X85.7451 Y55.0191 F2500.00
G01 X85.9108 Y55.1184 F2500.00
G01 X86.0856 Y55.2011 F2500.00
G01 X86.2675 Y55.2662 F2500.00
G01 X86.4550 Y55.3131 F2500.00
G01 X86.6462 Y55.3415 F2500.00
G01 X86.8522 Y55.3516 F2500.00
