(G-CODE GENERATED BY FLATCAM v8.994 - www.flatcam.org - Version Date: 2020/11/7)

(Name: adaptador_central-F_Cu.gbr_ncc_cnc)
(Type: G-code from Geometry)
(Units: MM)

(Created on Monday, 29 December 2025 at 15:55)

(This preprocessor is used with a motion controller loaded with GRBL firmware. )
(It is for the case when it is used together with a LASER connected on the SPINDLE connector.)

(Feedrate: 2500.0 mm/min)
(Feedrate rapids: 1500.0 mm/min)

(Z Focus: 2.0 mm)
(Steps per circle: 64)
(Preprocessor Geometry: GRBL_laser)

(X range:   23.2500 ...  142.5156  mm)
(Y range:   35.2375 ...  110.0100  mm)

(Laser Power - Spindle Speed: 50.0)

G21
G90
G17
G94

G01 F2500.00

M5
G01 F2500.00
G00 X43.9128 Y35.5983
G01 F60.00
M03 S50.0
G01 F2500.00
G01 X142.2155 Y35.5983 F2500.00
G01 X142.2155 Y35.6783 F2500.00
G01 X43.9128 Y35.6783 F2500.00
G01 X43.9128 Y35.7583 F2500.00
G01 X142.2155 Y35.7583 F2500.00
G01 X142.2155 Y35.8383 F2500.00
G01 X43.9128 Y35.8383 F2500.00
G01 X43.9128 Y35.9183 F2500.00
G01 X142.2155 Y35.9183 F2500.00
G01 X142.2155 Y35.9983 F2500.00
G01 X43.9128 Y35.9983 F2500.00
G01 X43.9128 Y36.0783 F2500.00
G01 X142.2155 Y36.0783 F2500.00
G01 X142.2155 Y36.1583 F2500.00
G01 X43.9128 Y36.1583 F2500.00
G01 X43.9128 Y36.2383 F2500.00
G01 X142.2155 Y36.2383 F2500.00
G01 X142.2155 Y36.3183 F2500.00
G01 X43.9128 Y36.3183 F2500.00
G01 X43.9128 Y36.3983 F2500.00
G01 X142.2155 Y36.3983 F2500.00
G01 X142.2155 Y36.4783 F2500.00
G01 X43.9128 Y36.4783 F2500.00
G01 X43.9128 Y36.5583 F2500.00
G01 X52.7411 Y36.5583 F2500.00
M5
G00 X52.6089 Y36.6383
G01 F60.00
M03 S50.0
G01 F2500.00
G01 X43.9128 Y36.6383 F2500.00
G01 X43.9128 Y36.7183 F2500.00
G01 X52.5296 Y36.7183 F2500.00
M5
G00 X52.4760 Y36.7983
G01 F60.00
M03 S50.0
G01 F2500.00
G01 X43.9128 Y36.7983 F2500.00
G01 X43.9128 Y36.8783 F2500.00
G01 X52.4403 Y36.8783 F2500.00
M5
G00 X52.4176 Y36.9583
G01 F60.00
M03 S50.0
G01 F2500.00
G01 X43.9128 Y36.9583 F2500.00
G01 X43.9128 Y37.0383 F2500.00
G01 X52.4085 Y37.0383 F2500.00
M5
G00 X52.4073 Y37.1183
G01 F60.00
M03 S50.0
G01 F2500.00
G01 X43.9128 Y37.1183 F2500.00
G01 X43.9128 Y37.1983 F2500.00
G01 X52.4073 Y37.1983 F2500.00
G01 X52.4073 Y37.2783 F2500.00
G01 X43.9128 Y37.2783 F2500.00
G01 X43.9128 Y37.3583 F2500.00
G01 X52.4073 Y37.3583 F2500.00
G01 X52.4073 Y37.4383 F2500.00
G01 X43.9128 Y37.4383 F2500.00
G01 X43.9128 Y37.5183 F2500.00
G01 X52.4073 Y37.5183 F2500.00
G01 X52.4073 Y37.5983 F2500.00
G01 X43.9128 Y37.5983 F2500.00
G01 X43.9128 Y37.6783 F2500.00
G01 X52.4073 Y37.6783 F2500.00
G01 X52.4073 Y37.7583 F2500.00
G01 X43.9128 Y37.7583 F2500.00
G01 X43.9128 Y37.8383 F2500.00
G01 X52.4073 Y37.8383 F2500.00
G01 X52.4073 Y37.9183 F2500.00
G01 X43.9128 Y37.9183 F2500.00
G01 X43.9128 Y37.9983 F2500.00
G01 X52.4073 Y37.9983 F2500.00
G01 X52.4073 Y38.0783 F2500.00
G01 X43.9128 Y38.0783 F2500.00
G01 X43.9128 Y38.1583 F2500.00
G01 X52.4073 Y38.1583 F2500.00
G01 X52.4073 Y38.2383 F2500.00
G01 X43.9128 Y38.2383 F2500.00
G01 X43.9128 Y38.3183 F2500.00
G01 X52.4073 Y38.3183 F2500.00
G01 X52.4073 Y38.3983 F2500.00
G01 X43.9128 Y38.3983 F2500.00
G01 X43.9128 Y38.4783 F2500.00
G01 X52.4073 Y38.4783 F2500.00
G01 X52.4073 Y38.5583 F2500.00
G01 X43.9128 Y38.5583 F2500.00
G01 X43.9128 Y38.6383 F2500.00
G01 X52.4073 Y38.6383 F2500.00
G01 X52.4073 Y38.7183 F2500.00
G01 X43.9128 Y38.7183 F2500.00
G01 X43.9128 Y38.7983 F2500.00
G01 X52.4073 Y38.7983 F2500.00
G01 X52.4073 Y38.8783 F2500.00
G01 X43.9128 Y38.8783 F2500.00
G01 X43.9128 Y38.9583 F2500.00
G01 X52.4073 Y38.9583 F2500.00
G01 X52.4073 Y39.0383 F2500.00
G01 X43.9128 Y39.0383 F2500.00
G01 X43.9128 Y39.1183 F2500.00
G01 X52.4073 Y39.1183 F2500.00
G01 X52.4073 Y39.1983 F2500.00
G01 X43.9128 Y39.1983 F2500.00
G01 X43.9128 Y39.2783 F2500.00
G01 X52.4073 Y39.2783 F2500.00
G01 X52.4073 Y39.3583 F2500.00
G01 X43.9128 Y39.3583 F2500.00
G01 X43.9128 Y39.4383 F2500.00
G01 X52.4073 Y39.4383 F2500.00
G01 X52.4073 Y39.5183 F2500.00
G01 X43.9128 Y39.5183 F2500.00
G01 X43.9128 Y39.5983 F2500.00
G01 X52.4073 Y39.5983 F2500.00
G01 X52.4073 Y39.6783 F2500.00
G01 X43.9128 Y39.6783 F2500.00
G01 X43.9128 Y39.7583 F2500.00
G01 X52.4073 Y39.7583 F2500.00
G01 X52.4073 Y39.8383 F2500.00
G01 X43.9128 Y39.8383 F2500.00
G01 X43.9128 Y39.9183 F2500.00
G01 X52.4073 Y39.9183 F2500.00
G01 X52.4073 Y39.9983 F2500.00
G01 X43.9128 Y39.9983 F2500.00
G01 X43.9128 Y40.0783 F2500.00
G01 X52.4073 Y40.0783 F2500.00
G01 X52.4073 Y40.1583 F2500.00
G01 X43.9128 Y40.1583 F2500.00
G01 X43.9128 Y40.2383 F2500.00
G01 X52.4073 Y40.2383 F2500.00
G01 X52.4073 Y40.3183 F2500.00
G01 X43.9128 Y40.3183 F2500.00
G01 X43.9128 Y40.3983 F2500.00
G01 X52.4073 Y40.3983 F2500.00
G01 X52.4073 Y40.4783 F2500.00
G01 X43.9128 Y40.4783 F2500.00
G01 X43.9128 Y40.5583 F2500.00
G01 X52.4073 Y40.5583 F2500.00
G01 X52.4073 Y40.6383 F2500.00
G01 X43.9128 Y40.6383 F2500.00
G01 X43.9128 Y40.7183 F2500.00
G01 X52.4073 Y40.7183 F2500.00
G01 X52.4073 Y40.7983 F2500.00
G01 X43.9128 Y40.7983 F2500.00
G01 X43.9128 Y40.8783 F2500.00
G01 X52.4073 Y40.8783 F2500.00
G01 X52.4073 Y40.9583 F2500.00
G01 X43.9128 Y40.9583 F2500.00
G01 X43.9128 Y41.0383 F2500.00
G01 X52.4073 Y41.0383 F2500.00
G01 X52.4073 Y41.1183 F2500.00
G01 X43.9128 Y41.1183 F2500.00
G01 X43.9128 Y41.1983 F2500.00
G01 X52.4073 Y41.1983 F2500.00
G01 X52.4073 Y41.2783 F2500.00
G01 X43.9128 Y41.2783 F2500.00
G01 X43.9128 Y41.3583 F2500.00
G01 X52.4073 Y41.3583 F2500.00
G01 X52.4073 Y41.4383 F2500.00
G01 X43.9128 Y41.4383 F2500.00
G01 X43.9128 Y41.5183 F2500.00
G01 X52.4073 Y41.5183 F2500.00
G01 X52.4073 Y41.5983 F2500.00
G01 X43.9128 Y41.5983 F2500.00
G01 X43.9128 Y41.6783 F2500.00
G01 X52.4073 Y41.6783 F2500.00
G01 X52.4073 Y41.7583 F2500.00
G01 X43.9128 Y41.7583 F2500.00
G01 X43.9128 Y41.8383 F2500.00
G01 X52.4073 Y41.8383 F2500.00
G01 X52.4073 Y41.9183 F2500.00
G01 X43.9128 Y41.9183 F2500.00
G01 X43.9128 Y41.9983 F2500.00
G01 X52.4073 Y41.9983 F2500.00
G01 X52.4073 Y42.0783 F2500.00
G01 X43.9128 Y42.0783 F2500.00
G01 X43.9128 Y42.1583 F2500.00
G01 X52.4073 Y42.1583 F2500.00
G01 X52.4073 Y42.2383 F2500.00
G01 X43.9128 Y42.2383 F2500.00
G01 X43.9128 Y42.3183 F2500.00
G01 X52.4073 Y42.3183 F2500.00
G01 X52.4073 Y42.3983 F2500.00
G01 X43.9128 Y42.3983 F2500.00
G01 X43.9128 Y42.4783 F2500.00
G01 X52.4073 Y42.4783 F2500.00
G01 X52.4073 Y42.5583 F2500.00
G01 X43.9128 Y42.5583 F2500.00
G01 X43.9128 Y42.6383 F2500.00
G01 X52.4073 Y42.6383 F2500.00
G01 X52.4073 Y42.7183 F2500.00
G01 X43.9128 Y42.7183 F2500.00
G01 X43.9128 Y42.7983 F2500.00
G01 X52.4073 Y42.7983 F2500.00
G01 X52.4073 Y42.8783 F2500.00
G01 X43.9128 Y42.8783 F2500.00
G01 X43.9128 Y42.9583 F2500.00
G01 X52.4073 Y42.9583 F2500.00
G01 X52.4073 Y43.0383 F2500.00
G01 X43.9128 Y43.0383 F2500.00
G01 X43.9128 Y43.1183 F2500.00
G01 X52.4073 Y43.1183 F2500.00
G01 X52.4073 Y43.1983 F2500.00
G01 X43.9128 Y43.1983 F2500.00
G01 X43.9128 Y43.2783 F2500.00
G01 X52.4073 Y43.2783 F2500.00
G01 X52.4073 Y43.3583 F2500.00
G01 X43.9128 Y43.3583 F2500.00
G01 X43.9128 Y43.4383 F2500.00
G01 X52.4073 Y43.4383 F2500.00
G01 X52.4073 Y43.5183 F2500.00
G01 X43.9128 Y43.5183 F2500.00
G01 X43.9128 Y43.5983 F2500.00
G01 X52.4073 Y43.5983 F2500.00
G01 X52.4073 Y43.6783 F2500.00
G01 X43.9128 Y43.6783 F2500.00
G01 X43.9128 Y43.7583 F2500.00
G01 X52.4073 Y43.7583 F2500.00
G01 X52.4073 Y43.8383 F2500.00
G01 X43.9128 Y43.8383 F2500.00
G01 X43.9128 Y43.9183 F2500.00
G01 X52.4073 Y43.9183 F2500.00
G01 X52.4073 Y43.9983 F2500.00
G01 X43.9128 Y43.9983 F2500.00
G01 X43.9128 Y44.0783 F2500.00
G01 X52.4073 Y44.0783 F2500.00
G01 X52.4073 Y44.1583 F2500.00
G01 X43.9128 Y44.1583 F2500.00
G01 X43.9128 Y44.2383 F2500.00
G01 X52.4073 Y44.2383 F2500.00
G01 X52.4073 Y44.3183 F2500.00
G01 X43.9128 Y44.3183 F2500.00
G01 X43.9128 Y44.3983 F2500.00
G01 X52.4073 Y44.3983 F2500.00
G01 X52.4073 Y44.4783 F2500.00
G01 X43.9128 Y44.4783 F2500.00
G01 X43.9128 Y44.5583 F2500.00
G01 X52.4073 Y44.5583 F2500.00
G01 X52.4073 Y44.6383 F2500.00
G01 X43.9128 Y44.6383 F2500.00
G01 X43.9128 Y44.7183 F2500.00
G01 X52.4073 Y44.7183 F2500.00
G01 X52.4073 Y44.7983 F2500.00
G01 X43.9128 Y44.7983 F2500.00
G01 X43.9128 Y44.8783 F2500.00
G01 X47.5122 Y44.8783 F2500.00
M5
G00 X47.3685 Y44.9583
G01 F60.00
M03 S50.0
G01 F2500.00
G01 X43.9128 Y44.9583 F2500.00
G01 X43.9128 Y45.0383 F2500.00
G01 X47.2690 Y45.0383 F2500.00
M5
G00 X47.1915 Y45.1183
G01 F60.00
M03 S50.0
G01 F2500.00
G01 X43.9128 Y45.1183 F2500.00
G01 X43.9128 Y45.1983 F2500.00
G01 X47.1304 Y45.1983 F2500.00
M5
G00 X47.0826 Y45.2783
G01 F60.00
M03 S50.0
G01 F2500.00
G01 X43.9128 Y45.2783 F2500.00
G01 X43.9128 Y45.3583 F2500.00
G01 X47.0451 Y45.3583 F2500.00
M5
G00 X47.0165 Y45.4383
G01 F60.00
M03 S50.0
G01 F2500.00
G01 X43.9128 Y45.4383 F2500.00
G01 X43.9128 Y45.5183 F2500.00
G01 X46.9964 Y45.5183 F2500.00
M5
G00 X46.9839 Y45.5983
G01 F60.00
M03 S50.0
G01 F2500.00
G01 X43.9128 Y45.5983 F2500.00
G01 X43.9128 Y45.6783 F2500.00
G01 X46.9786 Y45.6783 F2500.00
G01 X46.9818 Y45.6142 F2500.00
G01 X46.9819 Y45.6118 F2500.00
G01 X46.9949 Y45.5244 F2500.00
G01 X47.0164 Y45.4387 F2500.00
G01 X47.0461 Y45.3556 F2500.00
G01 X47.0839 Y45.2757 F2500.00
G01 X47.1293 Y45.2000 F2500.00
G01 X47.1819 Y45.1290 F2500.00
G01 X47.2421 Y45.0627 F2500.00
G01 X47.3066 Y45.0043 F2500.00
G01 X47.3776 Y44.9517 F2500.00
G01 X47.4533 Y44.9063 F2500.00
G01 X47.5332 Y44.8685 F2500.00
G01 X47.6164 Y44.8387 F2500.00
G01 X47.7020 Y44.8173 F2500.00
G01 X47.7894 Y44.8043 F2500.00
G01 X47.8788 Y44.8000 F2500.00
G01 X47.9658 Y44.8043 F2500.00
G01 X48.0532 Y44.8173 F2500.00
G01 X48.1389 Y44.8388 F2500.00
G01 X48.2243 Y44.8695 F2500.00
G01 X48.3040 Y44.9075 F2500.00
G01 X48.3776 Y44.9517 F2500.00
G01 X48.4466 Y45.0028 F2500.00
G01 X48.5140 Y45.0636 F2500.00
G01 X48.5717 Y45.1272 F2500.00
G01 X48.6259 Y45.2000 F2500.00
G01 X48.6713 Y45.2757 F2500.00
G01 X48.7091 Y45.3556 F2500.00
G01 X48.7388 Y45.4387 F2500.00
G01 X48.7603 Y45.5244 F2500.00
G01 X48.7733 Y45.6118 F2500.00
G01 X48.7776 Y45.7000 F2500.00
G01 X48.7733 Y45.7882 F2500.00
G01 X48.7603 Y45.8756 F2500.00
G01 X48.7388 Y45.9613 F2500.00
G01 X48.7091 Y46.0444 F2500.00
G01 X48.6713 Y46.1243 F2500.00
G01 X48.6259 Y46.2000 F2500.00
G01 X48.5733 Y46.2710 F2500.00
G01 X48.5140 Y46.3364 F2500.00
G01 X48.4486 Y46.3957 F2500.00
G01 X48.3776 Y46.4483 F2500.00
G01 X48.3019 Y46.4937 F2500.00
G01 X48.2220 Y46.5315 F2500.00
G01 X48.1389 Y46.5612 F2500.00
G01 X48.0532 Y46.5827 F2500.00
G01 X47.9658 Y46.5957 F2500.00
G01 X47.8776 Y46.6000 F2500.00
G01 X47.7894 Y46.5957 F2500.00
G01 X47.7020 Y46.5827 F2500.00
G01 X47.6163 Y46.5612 F2500.00
G01 X47.5332 Y46.5315 F2500.00
G01 X47.4533 Y46.4937 F2500.00
G01 X47.3776 Y46.4483 F2500.00
G01 X47.3066 Y46.3957 F2500.00
G01 X47.2412 Y46.3364 F2500.00
G01 X47.1819 Y46.2710 F2500.00
G01 X47.1293 Y46.2000 F2500.00
G01 X47.0839 Y46.1243 F2500.00
G01 X47.0461 Y46.0444 F2500.00
G01 X47.0163 Y45.9612 F2500.00
G01 X46.9949 Y45.8756 F2500.00
G01 X46.9819 Y45.7882 F2500.00
G01 X46.9776 Y45.7000 F2500.00
G01 X46.9818 Y45.6142 F2500.00
M5
G00 X46.9804 Y45.7583
G01 F60.00
M03 S50.0
G01 F2500.00
G01 X43.9128 Y45.7583 F2500.00
G01 X43.9128 Y45.8383 F2500.00
G01 X46.9893 Y45.8383 F2500.00
M5
G00 X47.0055 Y45.9183
G01 F60.00
M03 S50.0
G01 F2500.00
G01 X43.9128 Y45.9183 F2500.00
G01 X43.9128 Y45.9983 F2500.00
G01 X47.0296 Y45.9983 F2500.00
M5
G00 X47.0621 Y46.0783
G01 F60.00
M03 S50.0
G01 F2500.00
G01 X43.9128 Y46.0783 F2500.00
G01 X43.9128 Y46.1583 F2500.00
G01 X47.1042 Y46.1583 F2500.00
M5
G00 X47.1576 Y46.2383
G01 F60.00
M03 S50.0
G01 F2500.00
G01 X43.9128 Y46.2383 F2500.00
G01 X43.9128 Y46.3183 F2500.00
G01 X47.2248 Y46.3183 F2500.00
M5
G00 X47.3101 Y46.3983
G01 F60.00
M03 S50.0
G01 F2500.00
G01 X43.9128 Y46.3983 F2500.00
G01 X43.9128 Y46.4783 F2500.00
G01 X47.4276 Y46.4783 F2500.00
M5
G00 X47.6081 Y46.5583
G01 F60.00
M03 S50.0
G01 F2500.00
G01 X43.9128 Y46.5583 F2500.00
G01 X43.9128 Y46.6383 F2500.00
G01 X71.8129 Y46.6383 F2500.00
G01 X71.8129 Y46.5583 F2500.00
G01 X63.3871 Y46.5583 F2500.00
M5
G00 X63.5676 Y46.4783
G01 F60.00
M03 S50.0
G01 F2500.00
G01 X71.8129 Y46.4783 F2500.00
G01 X71.8129 Y46.3983 F2500.00
G01 X63.6851 Y46.3983 F2500.00
M5
G00 X63.7704 Y46.3183
G01 F60.00
M03 S50.0
G01 F2500.00
G01 X71.8129 Y46.3183 F2500.00
G01 X71.8129 Y46.2383 F2500.00
G01 X63.8376 Y46.2383 F2500.00
M5
G00 X63.8910 Y46.1583
G01 F60.00
M03 S50.0
G01 F2500.00
G01 X71.8129 Y46.1583 F2500.00
G01 X71.8129 Y46.0783 F2500.00
G01 X63.9331 Y46.0783 F2500.00
M5
G00 X63.9656 Y45.9983
G01 F60.00
M03 S50.0
G01 F2500.00
G01 X71.8129 Y45.9983 F2500.00
G01 X71.8129 Y45.9183 F2500.00
G01 X63.9897 Y45.9183 F2500.00
M5
G00 X64.0059 Y45.8383
G01 F60.00
M03 S50.0
G01 F2500.00
G01 X71.8129 Y45.8383 F2500.00
G01 X71.8129 Y45.7583 F2500.00
G01 X64.0148 Y45.7583 F2500.00
M5
G00 X64.0166 Y45.6783
G01 F60.00
M03 S50.0
G01 F2500.00
G01 X71.8129 Y45.6783 F2500.00
G01 X71.8129 Y45.5983 F2500.00
G01 X64.0113 Y45.5983 F2500.00
M5
G00 X63.9988 Y45.5183
G01 F60.00
M03 S50.0
G01 F2500.00
G01 X71.8129 Y45.5183 F2500.00
G01 X71.8129 Y45.4383 F2500.00
G01 X63.9787 Y45.4383 F2500.00
M5
G00 X63.9501 Y45.3583
G01 F60.00
M03 S50.0
G01 F2500.00
G01 X71.8129 Y45.3583 F2500.00
G01 X71.8129 Y45.2783 F2500.00
G01 X63.9126 Y45.2783 F2500.00
M5
G00 X63.8648 Y45.1983
G01 F60.00
M03 S50.0
G01 F2500.00
G01 X71.8129 Y45.1983 F2500.00
G01 X71.8129 Y45.1183 F2500.00
G01 X63.8037 Y45.1183 F2500.00
M5
G00 X63.7262 Y45.0383
G01 F60.00
M03 S50.0
G01 F2500.00
G01 X71.8129 Y45.0383 F2500.00
G01 X71.8129 Y44.9583 F2500.00
G01 X63.6267 Y44.9583 F2500.00
M5
G00 X63.4830 Y44.8783
G01 F60.00
M03 S50.0
G01 F2500.00
G01 X71.8129 Y44.8783 F2500.00
G01 X71.8129 Y44.7983 F2500.00
G01 X61.1278 Y44.7983 F2500.00
G01 X61.1278 Y44.7183 F2500.00
G01 X71.8129 Y44.7183 F2500.00
G01 X71.8129 Y44.6383 F2500.00
G01 X61.1278 Y44.6383 F2500.00
G01 X61.1278 Y44.5583 F2500.00
G01 X71.8129 Y44.5583 F2500.00
G01 X71.8129 Y44.4783 F2500.00
G01 X61.1278 Y44.4783 F2500.00
G01 X61.1278 Y44.3983 F2500.00
G01 X71.8129 Y44.3983 F2500.00
G01 X71.8129 Y44.3183 F2500.00
G01 X61.1278 Y44.3183 F2500.00
G01 X61.1278 Y44.2383 F2500.00
G01 X71.8129 Y44.2383 F2500.00
G01 X71.8129 Y44.1583 F2500.00
G01 X61.1278 Y44.1583 F2500.00
G01 X61.1278 Y44.0783 F2500.00
G01 X71.8129 Y44.0783 F2500.00
G01 X71.8129 Y43.9983 F2500.00
G01 X61.1278 Y43.9983 F2500.00
G01 X61.1278 Y43.9183 F2500.00
G01 X71.8129 Y43.9183 F2500.00
G01 X71.8129 Y43.8383 F2500.00
G01 X61.1278 Y43.8383 F2500.00
G01 X61.1278 Y43.7583 F2500.00
G01 X71.8129 Y43.7583 F2500.00
G01 X71.8129 Y43.6783 F2500.00
G01 X61.1278 Y43.6783 F2500.00
G01 X61.1278 Y43.5983 F2500.00
G01 X71.8129 Y43.5983 F2500.00
G01 X71.8129 Y43.5183 F2500.00
G01 X61.1278 Y43.5183 F2500.00
G01 X61.1278 Y43.4383 F2500.00
G01 X71.8129 Y43.4383 F2500.00
G01 X71.8129 Y43.3583 F2500.00
G01 X61.1278 Y43.3583 F2500.00
G01 X61.1278 Y43.2783 F2500.00
G01 X71.8129 Y43.2783 F2500.00
G01 X71.8129 Y43.1983 F2500.00
G01 X61.1278 Y43.1983 F2500.00
G01 X61.1278 Y43.1183 F2500.00
G01 X71.8129 Y43.1183 F2500.00
G01 X71.8129 Y43.0383 F2500.00
G01 X61.1278 Y43.0383 F2500.00
G01 X61.1278 Y42.9583 F2500.00
G01 X71.8129 Y42.9583 F2500.00
G01 X71.8129 Y42.8783 F2500.00
G01 X61.1278 Y42.8783 F2500.00
G01 X61.1278 Y42.7983 F2500.00
G01 X71.8129 Y42.7983 F2500.00
G01 X71.8129 Y42.7183 F2500.00
G01 X61.1278 Y42.7183 F2500.00
G01 X61.1278 Y42.6383 F2500.00
G01 X71.8129 Y42.6383 F2500.00
G01 X71.8129 Y42.5583 F2500.00
G01 X61.1278 Y42.5583 F2500.00
G01 X61.1278 Y42.4783 F2500.00
G01 X71.8129 Y42.4783 F2500.00
G01 X71.8129 Y42.3983 F2500.00
G01 X61.1278 Y42.3983 F2500.00
G01 X61.1278 Y42.3183 F2500.00
G01 X71.8129 Y42.3183 F2500.00
G01 X71.8129 Y42.2383 F2500.00
G01 X61.1278 Y42.2383 F2500.00
G01 X61.1278 Y42.1583 F2500.00
G01 X71.8129 Y42.1583 F2500.00
G01 X71.8129 Y42.0783 F2500.00
G01 X61.1278 Y42.0783 F2500.00
G01 X61.1279 Y41.9983 F2500.00
G01 X71.8129 Y41.9983 F2500.00
G01 X71.8129 Y41.9183 F2500.00
G01 X61.1279 Y41.9183 F2500.00
G01 X61.1279 Y41.8383 F2500.00
G01 X71.8129 Y41.8383 F2500.00
G01 X71.8129 Y41.7583 F2500.00
G01 X61.1279 Y41.7583 F2500.00
G01 X61.1279 Y41.6783 F2500.00
G01 X71.8133 Y41.6783 F2500.00
M5
G00 X71.8207 Y41.5983
G01 F60.00
M03 S50.0
G01 F2500.00
G01 X61.1279 Y41.5983 F2500.00
G01 X61.1279 Y41.5183 F2500.00
G01 X71.8397 Y41.5183 F2500.00
M5
G00 X71.8727 Y41.4383
G01 F60.00
M03 S50.0
G01 F2500.00
G01 X61.1279 Y41.4383 F2500.00
G01 X61.1279 Y41.3583 F2500.00
G01 X71.9225 Y41.3583 F2500.00
M5
G00 X71.9954 Y41.2783
G01 F60.00
M03 S50.0
G01 F2500.00
G01 X61.1279 Y41.2783 F2500.00
G01 X61.1279 Y41.1983 F2500.00
G01 X72.1104 Y41.1983 F2500.00
M5
G00 X72.9135 Y42.2383
G01 F60.00
M03 S50.0
G01 F2500.00
G01 X110.6241 Y42.2383 F2500.00
G01 X110.6241 Y42.3183 F2500.00
G01 X72.9135 Y42.3183 F2500.00
G01 X72.9135 Y42.3983 F2500.00
G01 X110.6241 Y42.3983 F2500.00
G01 X110.6241 Y42.4783 F2500.00
G01 X72.9135 Y42.4783 F2500.00
G01 X72.9135 Y42.5583 F2500.00
G01 X110.6241 Y42.5583 F2500.00
G01 X110.6241 Y42.6383 F2500.00
G01 X72.9135 Y42.6383 F2500.00
G01 X72.9135 Y42.7183 F2500.00
G01 X74.8195 Y42.7183 F2500.00
M5
G00 X74.6069 Y42.7983
G01 F60.00
M03 S50.0
G01 F2500.00
G01 X72.9135 Y42.7983 F2500.00
G01 X72.9135 Y42.8783 F2500.00
G01 X74.5087 Y42.8783 F2500.00
M5
G00 X74.4441 Y42.9583
G01 F60.00
M03 S50.0
G01 F2500.00
G01 X72.9135 Y42.9583 F2500.00
G01 X72.9135 Y43.0383 F2500.00
G01 X74.4008 Y43.0383 F2500.00
M5
G00 X74.3725 Y43.1183
G01 F60.00
M03 S50.0
G01 F2500.00
G01 X72.9135 Y43.1183 F2500.00
G01 X72.9135 Y43.1983 F2500.00
G01 X74.3569 Y43.1983 F2500.00
M5
G00 X74.3529 Y43.2783
G01 F60.00
M03 S50.0
G01 F2500.00
G01 X72.9135 Y43.2783 F2500.00
G01 X72.9135 Y43.3583 F2500.00
G01 X74.3529 Y43.3583 F2500.00
G01 X74.3529 Y43.4383 F2500.00
G01 X72.9135 Y43.4383 F2500.00
G01 X72.9135 Y43.5183 F2500.00
G01 X74.3529 Y43.5183 F2500.00
G01 X74.3529 Y43.5983 F2500.00
G01 X72.9135 Y43.5983 F2500.00
G01 X72.9135 Y43.6783 F2500.00
G01 X74.3529 Y43.6783 F2500.00
G01 X74.3529 Y43.7583 F2500.00
G01 X72.9135 Y43.7583 F2500.00
G01 X72.9135 Y43.8383 F2500.00
G01 X74.3529 Y43.8383 F2500.00
G01 X74.3529 Y43.9183 F2500.00
G01 X72.9135 Y43.9183 F2500.00
G01 X72.9135 Y43.9983 F2500.00
G01 X74.3529 Y43.9983 F2500.00
G01 X74.3529 Y44.0783 F2500.00
G01 X72.9135 Y44.0783 F2500.00
G01 X72.9134 Y44.1583 F2500.00
G01 X74.3529 Y44.1583 F2500.00
G01 X74.3529 Y44.2383 F2500.00
G01 X72.9134 Y44.2383 F2500.00
G01 X72.9134 Y44.3183 F2500.00
G01 X74.3529 Y44.3183 F2500.00
G01 X74.3529 Y44.3983 F2500.00
G01 X72.9134 Y44.3983 F2500.00
G01 X72.9134 Y44.4783 F2500.00
G01 X74.3529 Y44.4783 F2500.00
G01 X74.3529 Y44.5583 F2500.00
G01 X72.9134 Y44.5583 F2500.00
G01 X72.9134 Y44.6383 F2500.00
G01 X74.3529 Y44.6383 F2500.00
G01 X74.3529 Y44.7183 F2500.00
G01 X72.9134 Y44.7183 F2500.00
G01 X72.9134 Y44.7983 F2500.00
G01 X74.3529 Y44.7983 F2500.00
G01 X74.3529 Y44.8783 F2500.00
G01 X72.9134 Y44.8783 F2500.00
G01 X72.9134 Y44.9583 F2500.00
G01 X74.3529 Y44.9583 F2500.00
G01 X74.3529 Y45.0383 F2500.00
G01 X72.9134 Y45.0383 F2500.00
G01 X72.9134 Y45.1183 F2500.00
G01 X74.3529 Y45.1183 F2500.00
G01 X74.3529 Y45.1983 F2500.00
G01 X72.9134 Y45.1983 F2500.00
G01 X72.9134 Y45.2783 F2500.00
G01 X74.3529 Y45.2783 F2500.00
G01 X74.3529 Y45.3583 F2500.00
G01 X72.9134 Y45.3583 F2500.00
G01 X72.9134 Y45.4383 F2500.00
G01 X74.3529 Y45.4383 F2500.00
G01 X74.3529 Y45.5183 F2500.00
G01 X72.9134 Y45.5183 F2500.00
G01 X72.9134 Y45.5983 F2500.00
G01 X74.3529 Y45.5983 F2500.00
G01 X74.3529 Y45.6783 F2500.00
G01 X72.9134 Y45.6783 F2500.00
G01 X72.9134 Y45.7583 F2500.00
G01 X74.3529 Y45.7583 F2500.00
G01 X74.3529 Y45.8383 F2500.00
G01 X72.9134 Y45.8383 F2500.00
G01 X72.9134 Y45.9183 F2500.00
G01 X74.3529 Y45.9183 F2500.00
G01 X74.3529 Y45.9983 F2500.00
G01 X72.9134 Y45.9983 F2500.00
G01 X72.9134 Y46.0783 F2500.00
G01 X74.3529 Y46.0783 F2500.00
G01 X74.3529 Y46.1583 F2500.00
G01 X72.9134 Y46.1583 F2500.00
G01 X72.9134 Y46.2383 F2500.00
G01 X74.3529 Y46.2383 F2500.00
G01 X74.3529 Y46.3183 F2500.00
G01 X72.9134 Y46.3183 F2500.00
G01 X72.9134 Y46.3983 F2500.00
G01 X74.3529 Y46.3983 F2500.00
G01 X74.3529 Y46.4783 F2500.00
G01 X72.9134 Y46.4783 F2500.00
G01 X72.9134 Y46.5583 F2500.00
G01 X74.3529 Y46.5583 F2500.00
G01 X74.3529 Y46.6383 F2500.00
G01 X72.9134 Y46.6383 F2500.00
G01 X72.9134 Y46.7183 F2500.00
G01 X74.3529 Y46.7183 F2500.00
G01 X74.3529 Y46.7983 F2500.00
G01 X72.9134 Y46.7983 F2500.00
G01 X72.9134 Y46.8783 F2500.00
G01 X74.3529 Y46.8783 F2500.00
G01 X74.3529 Y46.9583 F2500.00
G01 X72.9134 Y46.9583 F2500.00
G01 X72.9134 Y47.0383 F2500.00
G01 X74.3529 Y47.0383 F2500.00
G01 X74.3529 Y47.1183 F2500.00
G01 X72.9134 Y47.1183 F2500.00
G01 X72.9134 Y47.1983 F2500.00
G01 X74.3529 Y47.1983 F2500.00
G01 X74.3529 Y47.2783 F2500.00
G01 X72.9134 Y47.2783 F2500.00
G01 X72.9134 Y47.3583 F2500.00
G01 X74.3529 Y47.3583 F2500.00
G01 X74.3529 Y47.4383 F2500.00
G01 X72.9134 Y47.4383 F2500.00
G01 X72.9134 Y47.5183 F2500.00
G01 X74.3529 Y47.5183 F2500.00
G01 X74.3529 Y47.5983 F2500.00
G01 X72.9134 Y47.5983 F2500.00
G01 X72.9134 Y47.6783 F2500.00
G01 X74.3529 Y47.6783 F2500.00
G01 X74.3529 Y47.7583 F2500.00
G01 X72.9134 Y47.7583 F2500.00
G01 X72.9134 Y47.8383 F2500.00
G01 X74.3529 Y47.8383 F2500.00
G01 X74.3529 Y47.9183 F2500.00
G01 X72.9134 Y47.9183 F2500.00
G01 X72.9134 Y47.9983 F2500.00
G01 X74.3529 Y47.9983 F2500.00
G01 X74.3529 Y48.0783 F2500.00
G01 X72.9134 Y48.0783 F2500.00
G01 X72.9134 Y48.1583 F2500.00
G01 X74.3529 Y48.1583 F2500.00
G01 X74.3529 Y48.2383 F2500.00
G01 X72.9134 Y48.2383 F2500.00
M5
G00 X72.9122 Y48.3183
G01 F60.00
M03 S50.0
G01 F2500.00
G01 X74.3529 Y48.3183 F2500.00
G01 X74.3529 Y48.3983 F2500.00
G01 X72.9028 Y48.3983 F2500.00
M5
G00 X72.8799 Y48.4783
G01 F60.00
M03 S50.0
G01 F2500.00
G01 X74.3529 Y48.4783 F2500.00
G01 X74.3529 Y48.5583 F2500.00
G01 X72.8437 Y48.5583 F2500.00
M5
G00 X72.7897 Y48.6383
G01 F60.00
M03 S50.0
G01 F2500.00
G01 X74.3529 Y48.6383 F2500.00
G01 X74.3529 Y48.7183 F2500.00
G01 X72.7094 Y48.7183 F2500.00
M5
G00 X72.5756 Y48.7983
G01 F60.00
M03 S50.0
G01 F2500.00
G01 X74.3529 Y48.7983 F2500.00
G01 X74.3529 Y48.8783 F2500.00
G01 X58.6719 Y48.8783 F2500.00
M5
G00 X58.5781 Y48.9583
G01 F60.00
M03 S50.0
G01 F2500.00
G01 X74.3529 Y48.9583 F2500.00
G01 X74.3529 Y49.0383 F2500.00
G01 X58.4522 Y49.0383 F2500.00
M5
G00 X58.2308 Y49.1183
G01 F60.00
M03 S50.0
G01 F2500.00
G01 X74.3529 Y49.1183 F2500.00
G01 X74.3529 Y49.1983 F2500.00
G01 X53.5078 Y49.1983 F2500.00
G01 X53.5078 Y49.2783 F2500.00
G01 X74.3529 Y49.2783 F2500.00
G01 X74.3529 Y49.3583 F2500.00
G01 X53.5078 Y49.3583 F2500.00
G01 X53.5078 Y49.4383 F2500.00
G01 X74.3529 Y49.4383 F2500.00
G01 X74.3529 Y49.5183 F2500.00
G01 X53.5078 Y49.5183 F2500.00
G01 X53.5078 Y49.5983 F2500.00
G01 X74.3529 Y49.5983 F2500.00
G01 X74.3529 Y49.6783 F2500.00
G01 X53.5078 Y49.6783 F2500.00
G01 X53.5078 Y49.7583 F2500.00
G01 X74.3529 Y49.7583 F2500.00
G01 X74.3529 Y49.8383 F2500.00
G01 X53.5078 Y49.8383 F2500.00
G01 X53.5078 Y49.9183 F2500.00
G01 X74.3529 Y49.9183 F2500.00
G01 X74.3529 Y49.9983 F2500.00
G01 X53.5078 Y49.9983 F2500.00
G01 X53.5078 Y50.0783 F2500.00
G01 X74.3529 Y50.0783 F2500.00
G01 X74.3529 Y50.1583 F2500.00
G01 X53.5078 Y50.1583 F2500.00
G01 X53.5078 Y50.2383 F2500.00
G01 X74.3529 Y50.2383 F2500.00
G01 X74.3529 Y50.3183 F2500.00
G01 X53.5078 Y50.3183 F2500.00
G01 X53.5078 Y50.3983 F2500.00
G01 X74.3529 Y50.3983 F2500.00
G01 X74.3529 Y50.4783 F2500.00
G01 X53.5078 Y50.4783 F2500.00
G01 X53.5078 Y50.5583 F2500.00
G01 X74.3529 Y50.5583 F2500.00
G01 X74.3529 Y50.6383 F2500.00
G01 X53.5078 Y50.6383 F2500.00
G01 X53.5078 Y50.7183 F2500.00
G01 X74.3529 Y50.7183 F2500.00
G01 X74.3529 Y50.7983 F2500.00
G01 X53.5078 Y50.7983 F2500.00
G01 X53.5078 Y50.8783 F2500.00
G01 X74.3529 Y50.8783 F2500.00
G01 X74.3529 Y50.9583 F2500.00
G01 X53.5078 Y50.9583 F2500.00
G01 X53.5078 Y51.0383 F2500.00
G01 X74.3529 Y51.0383 F2500.00
G01 X74.3529 Y51.1183 F2500.00
G01 X53.5078 Y51.1183 F2500.00
G01 X53.5078 Y51.1983 F2500.00
G01 X74.3529 Y51.1983 F2500.00
G01 X74.3529 Y51.2783 F2500.00
G01 X53.5078 Y51.2783 F2500.00
G01 X53.5078 Y51.3583 F2500.00
G01 X74.3529 Y51.3583 F2500.00
G01 X74.3529 Y51.4383 F2500.00
G01 X53.5078 Y51.4383 F2500.00
G01 X53.5078 Y51.5183 F2500.00
G01 X74.3529 Y51.5183 F2500.00
G01 X74.3529 Y51.5983 F2500.00
G01 X53.5078 Y51.5983 F2500.00
G01 X53.5078 Y51.6783 F2500.00
G01 X74.3529 Y51.6783 F2500.00
M5
G00 X75.4534 Y51.6783
G01 F60.00
M03 S50.0
G01 F2500.00
G01 X84.2892 Y51.6783 F2500.00
G01 X84.2892 Y51.5983 F2500.00
G01 X75.4534 Y51.5983 F2500.00
G01 X75.4534 Y51.5183 F2500.00
G01 X84.2892 Y51.5183 F2500.00
G01 X84.2892 Y51.4383 F2500.00
G01 X75.4534 Y51.4383 F2500.00
G01 X75.4534 Y51.3583 F2500.00
G01 X84.2892 Y51.3583 F2500.00
G01 X84.2892 Y51.2783 F2500.00
G01 X75.4534 Y51.2783 F2500.00
G01 X75.4534 Y51.1983 F2500.00
G01 X84.2892 Y51.1983 F2500.00
G01 X84.2892 Y51.1183 F2500.00
G01 X75.4534 Y51.1183 F2500.00
G01 X75.4534 Y51.0383 F2500.00
G01 X84.2892 Y51.0383 F2500.00
G01 X84.2892 Y50.9583 F2500.00
G01 X75.4534 Y50.9583 F2500.00
G01 X75.4534 Y50.8783 F2500.00
G01 X84.2892 Y50.8783 F2500.00
G01 X84.2892 Y50.7983 F2500.00
G01 X75.4534 Y50.7983 F2500.00
G01 X75.4534 Y50.7183 F2500.00
G01 X84.2892 Y50.7183 F2500.00
G01 X84.2892 Y50.6383 F2500.00
G01 X75.4534 Y50.6383 F2500.00
G01 X75.4534 Y50.5583 F2500.00
G01 X84.2892 Y50.5583 F2500.00
G01 X84.2892 Y50.4783 F2500.00
G01 X75.4534 Y50.4783 F2500.00
G01 X75.4534 Y50.3983 F2500.00
G01 X84.2892 Y50.3983 F2500.00
G01 X84.2892 Y50.3183 F2500.00
G01 X75.4534 Y50.3183 F2500.00
G01 X75.4534 Y50.2383 F2500.00
G01 X84.2892 Y50.2383 F2500.00
G01 X84.2892 Y50.1583 F2500.00
G01 X75.4534 Y50.1583 F2500.00
G01 X75.4534 Y50.0783 F2500.00
G01 X84.2892 Y50.0783 F2500.00
G01 X84.2892 Y49.9983 F2500.00
G01 X75.4534 Y49.9983 F2500.00
G01 X75.4534 Y49.9183 F2500.00
G01 X84.2892 Y49.9183 F2500.00
G01 X84.2892 Y49.8383 F2500.00
G01 X75.4534 Y49.8383 F2500.00
G01 X75.4534 Y49.7583 F2500.00
G01 X84.2892 Y49.7583 F2500.00
G01 X84.2892 Y49.6783 F2500.00
G01 X75.4534 Y49.6783 F2500.00
G01 X75.4534 Y49.5983 F2500.00
G01 X84.2892 Y49.5983 F2500.00
G01 X84.2892 Y49.5183 F2500.00
G01 X75.4534 Y49.5183 F2500.00
G01 X75.4534 Y49.4383 F2500.00
G01 X84.2892 Y49.4383 F2500.00
G01 X84.2892 Y49.3583 F2500.00
G01 X75.4534 Y49.3583 F2500.00
G01 X75.4534 Y49.2783 F2500.00
G01 X84.2892 Y49.2783 F2500.00
G01 X84.2892 Y49.1983 F2500.00
G01 X75.4534 Y49.1983 F2500.00
G01 X75.4534 Y49.1183 F2500.00
G01 X84.2892 Y49.1183 F2500.00
G01 X84.2892 Y49.0383 F2500.00
G01 X75.4534 Y49.0383 F2500.00
G01 X75.4534 Y48.9583 F2500.00
G01 X84.2892 Y48.9583 F2500.00
G01 X84.2892 Y48.8783 F2500.00
G01 X75.4534 Y48.8783 F2500.00
G01 X75.4534 Y48.7983 F2500.00
G01 X84.2892 Y48.7983 F2500.00
G01 X84.2892 Y48.7183 F2500.00
G01 X75.4534 Y48.7183 F2500.00
G01 X75.4534 Y48.6383 F2500.00
G01 X84.2892 Y48.6383 F2500.00
G01 X84.2892 Y48.5583 F2500.00
G01 X75.4534 Y48.5583 F2500.00
G01 X75.4534 Y48.4783 F2500.00
G01 X84.2892 Y48.4783 F2500.00
G01 X84.2892 Y48.3983 F2500.00
G01 X75.4534 Y48.3983 F2500.00
G01 X75.4534 Y48.3183 F2500.00
G01 X84.2922 Y48.3183 F2500.00
G01 X84.2962 Y48.2383 F2500.00
G01 X75.4534 Y48.2383 F2500.00
G01 X75.4534 Y48.1583 F2500.00
G01 X84.3001 Y48.1583 F2500.00
M5
G00 X84.3093 Y48.0783
G01 F60.00
M03 S50.0
G01 F2500.00
G01 X75.4534 Y48.0783 F2500.00
G01 X75.4534 Y47.9983 F2500.00
G01 X84.3212 Y47.9983 F2500.00
G01 X84.3331 Y47.9183 F2500.00
G01 X75.4534 Y47.9183 F2500.00
G01 X75.4534 Y47.8383 F2500.00
G01 X84.3496 Y47.8383 F2500.00
G01 X84.3696 Y47.7583 F2500.00
G01 X75.4534 Y47.7583 F2500.00
G01 X75.4534 Y47.6783 F2500.00
G01 X84.3897 Y47.6783 F2500.00
M5
G00 X84.4143 Y47.5983
G01 F60.00
M03 S50.0
G01 F2500.00
G01 X75.4534 Y47.5983 F2500.00
G01 X75.4534 Y47.5183 F2500.00
G01 X84.4430 Y47.5183 F2500.00
G01 X84.4716 Y47.4383 F2500.00
G01 X75.4534 Y47.4383 F2500.00
G01 X75.4534 Y47.3583 F2500.00
G01 X84.5057 Y47.3583 F2500.00
G01 X84.5435 Y47.2783 F2500.00
G01 X75.4534 Y47.2783 F2500.00
G01 X75.4534 Y47.1983 F2500.00
G01 X84.5813 Y47.1983 F2500.00
M5
G00 X84.6269 Y47.1183
G01 F60.00
M03 S50.0
G01 F2500.00
G01 X75.4534 Y47.1183 F2500.00
G01 X75.4534 Y47.0383 F2500.00
G01 X84.6749 Y47.0383 F2500.00
M5
G00 X84.7237 Y46.9583
G01 F60.00
M03 S50.0
G01 F2500.00
G01 X75.4534 Y46.9583 F2500.00
G01 X75.4534 Y46.8783 F2500.00
G01 X84.7831 Y46.8783 F2500.00
G01 X84.8424 Y46.7983 F2500.00
G01 X75.4534 Y46.7983 F2500.00
G01 X75.4534 Y46.7183 F2500.00
G01 X84.9092 Y46.7183 F2500.00
G01 X84.9817 Y46.6383 F2500.00
G01 X75.4534 Y46.6383 F2500.00
G01 X75.4534 Y46.5583 F2500.00
G01 X85.0582 Y46.5583 F2500.00
G01 X85.1465 Y46.4783 F2500.00
G01 X75.4535 Y46.4783 F2500.00
G01 X75.4535 Y46.3983 F2500.00
G01 X85.2377 Y46.3983 F2500.00
G01 X85.3455 Y46.3183 F2500.00
G01 X75.4535 Y46.3183 F2500.00
G01 X75.4535 Y46.2383 F2500.00
G01 X85.4608 Y46.2383 F2500.00
G01 X85.5942 Y46.1583 F2500.00
G01 X75.4535 Y46.1583 F2500.00
G01 X75.4535 Y46.0783 F2500.00
G01 X85.7519 Y46.0783 F2500.00
M5
G00 X85.9396 Y45.9983
G01 F60.00
M03 S50.0
G01 F2500.00
G01 X75.4535 Y45.9983 F2500.00
G01 X75.4535 Y45.9183 F2500.00
G01 X86.1908 Y45.9183 F2500.00
M5
G00 X86.7006 Y45.8383
G01 F60.00
M03 S50.0
G01 F2500.00
G01 X75.4535 Y45.8383 F2500.00
G01 X75.4535 Y45.7583 F2500.00
G01 X103.7661 Y45.7583 F2500.00
G01 X103.7661 Y45.6783 F2500.00
G01 X75.4535 Y45.6783 F2500.00
G01 X75.4535 Y45.5983 F2500.00
G01 X103.7661 Y45.5983 F2500.00
G01 X103.7661 Y45.5183 F2500.00
G01 X75.4535 Y45.5183 F2500.00
G01 X75.4535 Y45.4383 F2500.00
G01 X103.7661 Y45.4383 F2500.00
G01 X103.7661 Y45.3583 F2500.00
G01 X75.4535 Y45.3583 F2500.00
G01 X75.4535 Y45.2783 F2500.00
G01 X103.7661 Y45.2783 F2500.00
G01 X103.7661 Y45.1983 F2500.00
G01 X75.4535 Y45.1983 F2500.00
G01 X75.4535 Y45.1183 F2500.00
G01 X103.7661 Y45.1183 F2500.00
G01 X103.7661 Y45.0383 F2500.00
G01 X75.4535 Y45.0383 F2500.00
G01 X75.4535 Y44.9583 F2500.00
G01 X103.7661 Y44.9583 F2500.00
G01 X103.7661 Y44.8783 F2500.00
G01 X75.4535 Y44.8783 F2500.00
G01 X75.4535 Y44.7983 F2500.00
G01 X103.7661 Y44.7983 F2500.00
G01 X103.7661 Y44.7183 F2500.00
G01 X75.4535 Y44.7183 F2500.00
G01 X75.4535 Y44.6383 F2500.00
G01 X103.7661 Y44.6383 F2500.00
G01 X103.7661 Y44.5583 F2500.00
G01 X75.4535 Y44.5583 F2500.00
G01 X75.4535 Y44.4783 F2500.00
G01 X103.7661 Y44.4783 F2500.00
G01 X103.7661 Y44.3983 F2500.00
G01 X75.4535 Y44.3983 F2500.00
G01 X75.4535 Y44.3183 F2500.00
G01 X103.7661 Y44.3183 F2500.00
G01 X103.7661 Y44.2383 F2500.00
G01 X75.4535 Y44.2383 F2500.00
G01 X75.4535 Y44.1583 F2500.00
G01 X103.7661 Y44.1583 F2500.00
G01 X103.7661 Y44.0783 F2500.00
G01 X75.4535 Y44.0783 F2500.00
G01 X75.4535 Y43.9983 F2500.00
G01 X103.7661 Y43.9983 F2500.00
G01 X103.7661 Y43.9183 F2500.00
G01 X75.4535 Y43.9183 F2500.00
G01 X75.4535 Y43.8383 F2500.00
G01 X103.7661 Y43.8383 F2500.00
M5
G00 X104.8666 Y43.8383
G01 F60.00
M03 S50.0
G01 F2500.00
G01 X110.6241 Y43.8383 F2500.00
G01 X110.6241 Y43.9183 F2500.00
G01 X104.8666 Y43.9183 F2500.00
G01 X104.8666 Y43.9983 F2500.00
G01 X110.6241 Y43.9983 F2500.00
G01 X110.6241 Y44.0783 F2500.00
G01 X104.8666 Y44.0783 F2500.00
G01 X104.8666 Y44.1583 F2500.00
G01 X110.6241 Y44.1583 F2500.00
G01 X110.6241 Y44.2383 F2500.00
G01 X104.8666 Y44.2383 F2500.00
G01 X104.8666 Y44.3183 F2500.00
G01 X110.6241 Y44.3183 F2500.00
G01 X110.6241 Y44.3983 F2500.00
G01 X104.8666 Y44.3983 F2500.00
G01 X104.8666 Y44.4783 F2500.00
G01 X110.6241 Y44.4783 F2500.00
G01 X110.6241 Y44.5583 F2500.00
G01 X104.8666 Y44.5583 F2500.00
G01 X104.8666 Y44.6383 F2500.00
G01 X110.6241 Y44.6383 F2500.00
G01 X110.6241 Y44.7183 F2500.00
G01 X104.8666 Y44.7183 F2500.00
G01 X104.8666 Y44.7983 F2500.00
G01 X110.6241 Y44.7983 F2500.00
G01 X110.6241 Y44.8783 F2500.00
G01 X104.8666 Y44.8783 F2500.00
G01 X104.8666 Y44.9583 F2500.00
G01 X110.6241 Y44.9583 F2500.00
G01 X110.6241 Y45.0383 F2500.00
G01 X104.8666 Y45.0383 F2500.00
G01 X104.8666 Y45.1183 F2500.00
G01 X110.6241 Y45.1183 F2500.00
G01 X110.6241 Y45.1983 F2500.00
G01 X104.8666 Y45.1983 F2500.00
G01 X104.8666 Y45.2783 F2500.00
G01 X110.6241 Y45.2783 F2500.00
G01 X110.6241 Y45.3583 F2500.00
G01 X104.8666 Y45.3583 F2500.00
G01 X104.8666 Y45.4383 F2500.00
G01 X110.6241 Y45.4383 F2500.00
G01 X110.6241 Y45.5183 F2500.00
G01 X104.8666 Y45.5183 F2500.00
G01 X104.8666 Y45.5983 F2500.00
G01 X110.6241 Y45.5983 F2500.00
G01 X110.6241 Y45.6783 F2500.00
G01 X104.8666 Y45.6783 F2500.00
G01 X104.8666 Y45.7583 F2500.00
G01 X110.6241 Y45.7583 F2500.00
G01 X110.6241 Y45.8383 F2500.00
G01 X106.9778 Y45.8383 F2500.00
M5
G00 X107.4876 Y45.9183
G01 F60.00
M03 S50.0
G01 F2500.00
G01 X110.6241 Y45.9183 F2500.00
G01 X110.6241 Y45.9983 F2500.00
G01 X107.7388 Y45.9983 F2500.00
M5
G00 X107.9265 Y46.0783
G01 F60.00
M03 S50.0
G01 F2500.00
G01 X110.6241 Y46.0783 F2500.00
G01 X110.6241 Y46.1583 F2500.00
G01 X108.0842 Y46.1583 F2500.00
G01 X108.2176 Y46.2383 F2500.00
G01 X110.6241 Y46.2383 F2500.00
G01 X110.6241 Y46.3183 F2500.00
G01 X108.3329 Y46.3183 F2500.00
G01 X108.4407 Y46.3983 F2500.00
G01 X110.6241 Y46.3983 F2500.00
G01 X110.6241 Y46.4783 F2500.00
G01 X108.5319 Y46.4783 F2500.00
G01 X108.6202 Y46.5583 F2500.00
G01 X110.6241 Y46.5583 F2500.00
G01 X110.6241 Y46.6383 F2500.00
G01 X108.6967 Y46.6383 F2500.00
G01 X108.7692 Y46.7183 F2500.00
G01 X110.6241 Y46.7183 F2500.00
G01 X110.6241 Y46.7983 F2500.00
G01 X108.8360 Y46.7983 F2500.00
G01 X108.8953 Y46.8783 F2500.00
G01 X110.6241 Y46.8783 F2500.00
G01 X110.6241 Y46.9583 F2500.00
G01 X108.9547 Y46.9583 F2500.00
M5
G00 X109.0035 Y47.0383
G01 F60.00
M03 S50.0
G01 F2500.00
G01 X110.6241 Y47.0383 F2500.00
G01 X110.6241 Y47.1183 F2500.00
G01 X109.0515 Y47.1183 F2500.00
M5
G00 X109.0971 Y47.1983
G01 F60.00
M03 S50.0
G01 F2500.00
G01 X110.6241 Y47.1983 F2500.00
G01 X110.6241 Y47.2783 F2500.00
G01 X109.1349 Y47.2783 F2500.00
G01 X109.1727 Y47.3583 F2500.00
G01 X110.6241 Y47.3583 F2500.00
G01 X110.6241 Y47.4383 F2500.00
G01 X109.2068 Y47.4383 F2500.00
G01 X109.2354 Y47.5183 F2500.00
G01 X110.6241 Y47.5183 F2500.00
G01 X110.6241 Y47.5983 F2500.00
G01 X109.2641 Y47.5983 F2500.00
M5
G00 X109.2887 Y47.6783
G01 F60.00
M03 S50.0
G01 F2500.00
G01 X110.6241 Y47.6783 F2500.00
G01 X110.6241 Y47.7583 F2500.00
G01 X109.3088 Y47.7583 F2500.00
G01 X109.3288 Y47.8383 F2500.00
G01 X110.6241 Y47.8383 F2500.00
G01 X110.6241 Y47.9183 F2500.00
G01 X109.3453 Y47.9183 F2500.00
G01 X109.3572 Y47.9983 F2500.00
G01 X110.6241 Y47.9983 F2500.00
G01 X110.6241 Y48.0783 F2500.00
G01 X109.3691 Y48.0783 F2500.00
M5
G00 X109.3783 Y48.1583
G01 F60.00
M03 S50.0
G01 F2500.00
G01 X110.6241 Y48.1583 F2500.00
G01 X110.6241 Y48.2383 F2500.00
G01 X109.3822 Y48.2383 F2500.00
G01 X109.3862 Y48.3183 F2500.00
G01 X110.6241 Y48.3183 F2500.00
G01 X110.6241 Y48.3983 F2500.00
G01 X109.3892 Y48.3983 F2500.00
G01 X109.3892 Y48.4783 F2500.00
G01 X110.6241 Y48.4783 F2500.00
G01 X110.6241 Y48.5583 F2500.00
G01 X109.3892 Y48.5583 F2500.00
G01 X109.3892 Y48.6383 F2500.00
G01 X110.6241 Y48.6383 F2500.00
G01 X110.6241 Y48.7183 F2500.00
G01 X109.3892 Y48.7183 F2500.00
G01 X109.3892 Y48.7983 F2500.00
G01 X110.6241 Y48.7983 F2500.00
G01 X110.6241 Y48.8783 F2500.00
G01 X109.3892 Y48.8783 F2500.00
G01 X109.3892 Y48.9583 F2500.00
G01 X110.6241 Y48.9583 F2500.00
G01 X110.6241 Y49.0383 F2500.00
G01 X109.3892 Y49.0383 F2500.00
G01 X109.3892 Y49.1183 F2500.00
G01 X110.6241 Y49.1183 F2500.00
G01 X110.6241 Y49.1983 F2500.00
G01 X109.3892 Y49.1983 F2500.00
G01 X109.3892 Y49.2783 F2500.00
G01 X110.6241 Y49.2783 F2500.00
G01 X110.6241 Y49.3583 F2500.00
G01 X109.3892 Y49.3583 F2500.00
G01 X109.3892 Y49.4383 F2500.00
G01 X110.6241 Y49.4383 F2500.00
G01 X110.6241 Y49.5183 F2500.00
G01 X109.3892 Y49.5183 F2500.00
G01 X109.3892 Y49.5983 F2500.00
G01 X110.6241 Y49.5983 F2500.00
G01 X110.6241 Y49.6783 F2500.00
G01 X109.3892 Y49.6783 F2500.00
G01 X109.3892 Y49.7583 F2500.00
G01 X110.6241 Y49.7583 F2500.00
G01 X110.6241 Y49.8383 F2500.00
G01 X109.3892 Y49.8383 F2500.00
G01 X109.3892 Y49.9183 F2500.00
G01 X110.6241 Y49.9183 F2500.00
G01 X110.6241 Y49.9983 F2500.00
G01 X109.3892 Y49.9983 F2500.00
G01 X109.3892 Y50.0783 F2500.00
G01 X110.6241 Y50.0783 F2500.00
G01 X110.6241 Y50.1583 F2500.00
G01 X109.3892 Y50.1583 F2500.00
G01 X109.3892 Y50.2383 F2500.00
G01 X110.6241 Y50.2383 F2500.00
G01 X110.6241 Y50.3183 F2500.00
G01 X109.3892 Y50.3183 F2500.00
G01 X109.3892 Y50.3983 F2500.00
G01 X110.6241 Y50.3983 F2500.00
G01 X110.6241 Y50.4783 F2500.00
G01 X109.3892 Y50.4783 F2500.00
G01 X109.3892 Y50.5583 F2500.00
G01 X110.6241 Y50.5583 F2500.00
G01 X110.6241 Y50.6383 F2500.00
G01 X109.3892 Y50.6383 F2500.00
G01 X109.3892 Y50.7183 F2500.00
G01 X110.6241 Y50.7183 F2500.00
G01 X110.6241 Y50.7983 F2500.00
G01 X109.3892 Y50.7983 F2500.00
G01 X109.3892 Y50.8783 F2500.00
G01 X110.6241 Y50.8783 F2500.00
G01 X110.6241 Y50.9583 F2500.00
G01 X109.3892 Y50.9583 F2500.00
G01 X109.3892 Y51.0383 F2500.00
G01 X110.6241 Y51.0383 F2500.00
G01 X110.6241 Y51.1183 F2500.00
G01 X109.3892 Y51.1183 F2500.00
G01 X109.3892 Y51.1983 F2500.00
G01 X110.6241 Y51.1983 F2500.00
G01 X110.6241 Y51.2783 F2500.00
G01 X109.3892 Y51.2783 F2500.00
G01 X109.3892 Y51.3583 F2500.00
G01 X110.6241 Y51.3583 F2500.00
G01 X110.6241 Y51.4383 F2500.00
G01 X109.3892 Y51.4383 F2500.00
G01 X109.3892 Y51.5183 F2500.00
G01 X110.6241 Y51.5183 F2500.00
G01 X110.6241 Y51.5983 F2500.00
G01 X109.3892 Y51.5983 F2500.00
G01 X109.3892 Y51.6783 F2500.00
G01 X110.6241 Y51.6783 F2500.00
G01 X110.6241 Y51.7583 F2500.00
G01 X109.3892 Y51.7583 F2500.00
G01 X109.3892 Y51.8383 F2500.00
G01 X110.6241 Y51.8383 F2500.00
G01 X110.6241 Y51.9183 F2500.00
G01 X109.3892 Y51.9183 F2500.00
G01 X109.3892 Y51.9983 F2500.00
G01 X110.6241 Y51.9983 F2500.00
G01 X110.6241 Y52.0783 F2500.00
G01 X109.3892 Y52.0783 F2500.00
G01 X109.3892 Y52.1583 F2500.00
G01 X110.6241 Y52.1583 F2500.00
G01 X110.6241 Y52.2383 F2500.00
G01 X109.3892 Y52.2383 F2500.00
G01 X109.3892 Y52.3183 F2500.00
G01 X110.6241 Y52.3183 F2500.00
G01 X110.6241 Y52.3983 F2500.00
G01 X109.3892 Y52.3983 F2500.00
G01 X109.3892 Y52.4783 F2500.00
G01 X110.6241 Y52.4783 F2500.00
G01 X110.6241 Y52.5583 F2500.00
G01 X109.3892 Y52.5583 F2500.00
G01 X109.3892 Y52.6383 F2500.00
G01 X110.6241 Y52.6383 F2500.00
G01 X110.6241 Y52.7183 F2500.00
G01 X109.3892 Y52.7183 F2500.00
G01 X109.3892 Y52.7983 F2500.00
G01 X110.6241 Y52.7983 F2500.00
G01 X110.6241 Y52.8783 F2500.00
G01 X109.3892 Y52.8783 F2500.00
G01 X109.3892 Y52.9583 F2500.00
G01 X110.6241 Y52.9583 F2500.00
G01 X110.6241 Y53.0383 F2500.00
G01 X109.3892 Y53.0383 F2500.00
G01 X109.3892 Y53.1183 F2500.00
G01 X110.6241 Y53.1183 F2500.00
G01 X110.6241 Y53.1983 F2500.00
G01 X109.3892 Y53.1983 F2500.00
G01 X109.3892 Y53.2783 F2500.00
G01 X110.6241 Y53.2783 F2500.00
G01 X110.6241 Y53.3583 F2500.00
G01 X109.3892 Y53.3583 F2500.00
M5
G00 X109.3865 Y53.4383
G01 F60.00
M03 S50.0
G01 F2500.00
G01 X110.6241 Y53.4383 F2500.00
G01 X110.6241 Y53.5183 F2500.00
G01 X109.3825 Y53.5183 F2500.00
G01 X109.3786 Y53.5983 F2500.00
G01 X110.6241 Y53.5983 F2500.00
G01 X110.6241 Y53.6783 F2500.00
G01 X109.3700 Y53.6783 F2500.00
G01 X109.3582 Y53.7583 F2500.00
G01 X110.6241 Y53.7583 F2500.00
G01 X110.6241 Y53.8383 F2500.00
G01 X109.3463 Y53.8383 F2500.00
M5
G00 X109.3304 Y53.9183
G01 F60.00
M03 S50.0
G01 F2500.00
G01 X110.6241 Y53.9183 F2500.00
G01 X110.6241 Y53.9983 F2500.00
G01 X109.3104 Y53.9983 F2500.00
G01 X109.2903 Y54.0783 F2500.00
G01 X110.6241 Y54.0783 F2500.00
G01 X110.6241 Y54.1583 F2500.00
G01 X109.2664 Y54.1583 F2500.00
G01 X109.2378 Y54.2383 F2500.00
G01 X110.6241 Y54.2383 F2500.00
G01 X110.6241 Y54.3183 F2500.00
G01 X109.2091 Y54.3183 F2500.00
M5
G00 X109.1758 Y54.3983
G01 F60.00
M03 S50.0
G01 F2500.00
G01 X110.6241 Y54.3983 F2500.00
G01 X110.6241 Y54.4783 F2500.00
G01 X109.1380 Y54.4783 F2500.00
G01 X109.1001 Y54.5583 F2500.00
G01 X110.6241 Y54.5583 F2500.00
G01 X110.6241 Y54.6383 F2500.00
G01 X109.0554 Y54.6383 F2500.00
G01 X109.0074 Y54.7183 F2500.00
G01 X110.6241 Y54.7183 F2500.00
G01 X110.6241 Y54.7983 F2500.00
G01 X108.9594 Y54.7983 F2500.00
M5
G00 X108.9002 Y54.8783
G01 F60.00
M03 S50.0
G01 F2500.00
G01 X110.6241 Y54.8783 F2500.00
G01 X110.6241 Y54.9583 F2500.00
G01 X108.8408 Y54.9583 F2500.00
M5
G00 X108.7751 Y55.0383
G01 F60.00
M03 S50.0
G01 F2500.00
G01 X110.6241 Y55.0383 F2500.00
G01 X110.6241 Y55.1183 F2500.00
G01 X108.7026 Y55.1183 F2500.00
M5
G00 X108.6274 Y55.1983
G01 F60.00
M03 S50.0
G01 F2500.00
G01 X110.6241 Y55.1983 F2500.00
G01 X110.6241 Y55.2783 F2500.00
G01 X108.5391 Y55.2783 F2500.00
M5
G00 X108.4495 Y55.3583
G01 F60.00
M03 S50.0
G01 F2500.00
G01 X110.6241 Y55.3583 F2500.00
G01 X110.6241 Y55.4383 F2500.00
G01 X108.3416 Y55.4383 F2500.00
M5
G00 X108.2285 Y55.5183
G01 F60.00
M03 S50.0
G01 F2500.00
G01 X110.6241 Y55.5183 F2500.00
G01 X110.6241 Y55.5983 F2500.00
G01 X108.0950 Y55.5983 F2500.00
M5
G00 X107.9402 Y55.6783
G01 F60.00
M03 S50.0
G01 F2500.00
G01 X110.6241 Y55.6783 F2500.00
G01 X110.6241 Y55.7583 F2500.00
G01 X107.7569 Y55.7583 F2500.00
M5
G00 X107.5136 Y55.8383
G01 F60.00
M03 S50.0
G01 F2500.00
G01 X110.6241 Y55.8383 F2500.00
G01 X110.6241 Y55.9183 F2500.00
G01 X107.0961 Y55.9183 F2500.00
M5
G00 X110.6241 Y55.9983
G01 F60.00
M03 S50.0
G01 F2500.00
G01 X67.0706 Y55.9983 F2500.00
M5
G00 X67.1179 Y56.0783
G01 F60.00
M03 S50.0
G01 F2500.00
G01 X110.6241 Y56.0783 F2500.00
G01 X110.6241 Y56.1583 F2500.00
G01 X73.6430 Y56.1583 F2500.00
M5
G00 X73.7867 Y56.2383
G01 F60.00
M03 S50.0
G01 F2500.00
G01 X110.6241 Y56.2383 F2500.00
G01 X110.6241 Y56.3183 F2500.00
G01 X73.8862 Y56.3183 F2500.00
M5
G00 X73.9637 Y56.3983
G01 F60.00
M03 S50.0
G01 F2500.00
G01 X110.6241 Y56.3983 F2500.00
G01 X110.6241 Y56.4783 F2500.00
G01 X74.0248 Y56.4783 F2500.00
M5
G00 X74.0726 Y56.5583
G01 F60.00
M03 S50.0
G01 F2500.00
G01 X110.6241 Y56.5583 F2500.00
G01 X110.6241 Y56.6383 F2500.00
G01 X74.1101 Y56.6383 F2500.00
M5
G00 X74.1387 Y56.7183
G01 F60.00
M03 S50.0
G01 F2500.00
G01 X110.6241 Y56.7183 F2500.00
G01 X110.6241 Y56.7983 F2500.00
G01 X74.1588 Y56.7983 F2500.00
M5
G00 X74.1713 Y56.8783
G01 F60.00
M03 S50.0
G01 F2500.00
G01 X110.6241 Y56.8783 F2500.00
G01 X110.6241 Y56.9583 F2500.00
G01 X74.1766 Y56.9583 F2500.00
M5
G00 X74.1748 Y57.0383
G01 F60.00
M03 S50.0
G01 F2500.00
G01 X110.6241 Y57.0383 F2500.00
G01 X110.6241 Y57.1183 F2500.00
G01 X74.1659 Y57.1183 F2500.00
M5
G00 X74.1497 Y57.1983
G01 F60.00
M03 S50.0
G01 F2500.00
G01 X110.6241 Y57.1983 F2500.00
G01 X110.6241 Y57.2783 F2500.00
G01 X74.1256 Y57.2783 F2500.00
M5
G00 X74.0931 Y57.3583
G01 F60.00
M03 S50.0
G01 F2500.00
G01 X110.6241 Y57.3583 F2500.00
G01 X110.6241 Y57.4383 F2500.00
G01 X74.0510 Y57.4383 F2500.00
M5
G00 X73.9976 Y57.5183
G01 F60.00
M03 S50.0
G01 F2500.00
G01 X110.6241 Y57.5183 F2500.00
G01 X110.6241 Y57.5983 F2500.00
G01 X73.9304 Y57.5983 F2500.00
M5
G00 X73.8451 Y57.6783
G01 F60.00
M03 S50.0
G01 F2500.00
G01 X110.6241 Y57.6783 F2500.00
G01 X110.6241 Y57.7583 F2500.00
G01 X73.7276 Y57.7583 F2500.00
M5
G00 X73.5471 Y57.8383
G01 F60.00
M03 S50.0
G01 F2500.00
G01 X110.6241 Y57.8383 F2500.00
G01 X110.6241 Y57.9183 F2500.00
G01 X67.1730 Y57.9183 F2500.00
G01 X67.1730 Y57.8383 F2500.00
G01 X70.4681 Y57.8383 F2500.00
M5
G00 X70.2876 Y57.7583
G01 F60.00
M03 S50.0
G01 F2500.00
G01 X67.1730 Y57.7583 F2500.00
G01 X67.1730 Y57.6783 F2500.00
G01 X70.1701 Y57.6783 F2500.00
M5
G00 X70.0848 Y57.5983
G01 F60.00
M03 S50.0
G01 F2500.00
G01 X67.1730 Y57.5983 F2500.00
G01 X67.1730 Y57.5183 F2500.00
G01 X70.0176 Y57.5183 F2500.00
M5
G00 X69.9642 Y57.4383
G01 F60.00
M03 S50.0
G01 F2500.00
G01 X67.1730 Y57.4383 F2500.00
G01 X67.1730 Y57.3583 F2500.00
G01 X69.9221 Y57.3583 F2500.00
M5
G00 X69.8896 Y57.2783
G01 F60.00
M03 S50.0
G01 F2500.00
G01 X67.1730 Y57.2783 F2500.00
G01 X67.1730 Y57.1983 F2500.00
G01 X69.8655 Y57.1983 F2500.00
M5
G00 X69.8493 Y57.1183
G01 F60.00
M03 S50.0
G01 F2500.00
G01 X67.1730 Y57.1183 F2500.00
G01 X67.1730 Y57.0383 F2500.00
G01 X69.8404 Y57.0383 F2500.00
M5
G00 X69.8386 Y56.9583
G01 F60.00
M03 S50.0
G01 F2500.00
G01 X67.1730 Y56.9583 F2500.00
G01 X67.1730 Y56.8783 F2500.00
G01 X69.8439 Y56.8783 F2500.00
M5
G00 X69.8418 Y56.8942
G01 F60.00
M03 S50.0
G01 F2500.00
G01 X69.8549 Y56.8044 F2500.00
G01 X69.8764 Y56.7187 F2500.00
G01 X69.9061 Y56.6356 F2500.00
G01 X69.9439 Y56.5557 F2500.00
G01 X69.9893 Y56.4800 F2500.00
G01 X70.0419 Y56.4090 F2500.00
G01 X70.1012 Y56.3436 F2500.00
G01 X70.1666 Y56.2843 F2500.00
G01 X70.2376 Y56.2317 F2500.00
G01 X70.3133 Y56.1863 F2500.00
G01 X70.3932 Y56.1485 F2500.00
G01 X70.4763 Y56.1188 F2500.00
G01 X70.5620 Y56.0973 F2500.00
G01 X70.6494 Y56.0843 F2500.00
G01 X70.7376 Y56.0800 F2500.00
G01 X70.8258 Y56.0843 F2500.00
G01 X70.9132 Y56.0973 F2500.00
G01 X70.9989 Y56.1188 F2500.00
G01 X71.0820 Y56.1485 F2500.00
G01 X71.1619 Y56.1863 F2500.00
G01 X71.2376 Y56.2317 F2500.00
G01 X71.3086 Y56.2843 F2500.00
G01 X71.3740 Y56.3436 F2500.00
G01 X71.4333 Y56.4090 F2500.00
G01 X71.4859 Y56.4800 F2500.00
G01 X71.5313 Y56.5557 F2500.00
G01 X71.5691 Y56.6356 F2500.00
G01 X71.5988 Y56.7187 F2500.00
G01 X71.6203 Y56.8044 F2500.00
G01 X71.6333 Y56.8918 F2500.00
G01 X71.6376 Y56.9800 F2500.00
G01 X71.6333 Y57.0682 F2500.00
G01 X71.6203 Y57.1556 F2500.00
G01 X71.5988 Y57.2413 F2500.00
G01 X71.5691 Y57.3244 F2500.00
G01 X71.5313 Y57.4043 F2500.00
G01 X71.4859 Y57.4800 F2500.00
G01 X71.4333 Y57.5510 F2500.00
G01 X71.3740 Y57.6164 F2500.00
G01 X71.3086 Y57.6757 F2500.00
G01 X71.2376 Y57.7283 F2500.00
G01 X71.1619 Y57.7737 F2500.00
G01 X71.0820 Y57.8115 F2500.00
G01 X70.9988 Y57.8413 F2500.00
G01 X70.9132 Y57.8627 F2500.00
G01 X70.8258 Y57.8757 F2500.00
G01 X70.7376 Y57.8800 F2500.00
G01 X70.6494 Y57.8757 F2500.00
G01 X70.5620 Y57.8627 F2500.00
G01 X70.4763 Y57.8412 F2500.00
G01 X70.3932 Y57.8115 F2500.00
G01 X70.3133 Y57.7737 F2500.00
G01 X70.2376 Y57.7283 F2500.00
G01 X70.1666 Y57.6757 F2500.00
G01 X70.1012 Y57.6164 F2500.00
G01 X70.0419 Y57.5510 F2500.00
G01 X69.9893 Y57.4800 F2500.00
G01 X69.9439 Y57.4043 F2500.00
G01 X69.9061 Y57.3244 F2500.00
G01 X69.8764 Y57.2413 F2500.00
G01 X69.8549 Y57.1556 F2500.00
G01 X69.8419 Y57.0682 F2500.00
G01 X69.8376 Y56.9800 F2500.00
G01 X69.8418 Y56.8942 F2500.00
M5
G00 X69.8564 Y56.7983
G01 F60.00
M03 S50.0
G01 F2500.00
G01 X67.1730 Y56.7983 F2500.00
G01 X67.1730 Y56.7183 F2500.00
G01 X69.8765 Y56.7183 F2500.00
M5
G00 X69.9051 Y56.6383
G01 F60.00
M03 S50.0
G01 F2500.00
G01 X67.1730 Y56.6383 F2500.00
G01 X67.1730 Y56.5583 F2500.00
G01 X69.9426 Y56.5583 F2500.00
M5
G00 X69.9904 Y56.4783
G01 F60.00
M03 S50.0
G01 F2500.00
G01 X67.1730 Y56.4783 F2500.00
G01 X67.1730 Y56.3983 F2500.00
G01 X70.0515 Y56.3983 F2500.00
M5
G00 X70.1290 Y56.3183
G01 F60.00
M03 S50.0
G01 F2500.00
G01 X67.1730 Y56.3183 F2500.00
M5
G00 X67.1668 Y56.2383
G01 F60.00
M03 S50.0
G01 F2500.00
G01 X70.2285 Y56.2383 F2500.00
M5
G00 X70.3722 Y56.1583
G01 F60.00
M03 S50.0
G01 F2500.00
G01 X67.1496 Y56.1583 F2500.00
M5
G00 X67.0012 Y55.9183
G01 F60.00
M03 S50.0
G01 F2500.00
G01 X86.5823 Y55.9183 F2500.00
M5
G00 X86.1648 Y55.8383
G01 F60.00
M03 S50.0
G01 F2500.00
G01 X66.8930 Y55.8383 F2500.00
M5
G00 X66.0725 Y56.8783
G01 F60.00
M03 S50.0
G01 F2500.00
G01 X48.4279 Y56.8783 F2500.00
G01 X48.4279 Y56.9583 F2500.00
G01 X66.0725 Y56.9583 F2500.00
G01 X66.0725 Y57.0383 F2500.00
G01 X48.4279 Y57.0383 F2500.00
G01 X48.4279 Y57.1183 F2500.00
G01 X66.0725 Y57.1183 F2500.00
G01 X66.0725 Y57.1983 F2500.00
G01 X48.4278 Y57.1983 F2500.00
G01 X48.4278 Y57.2783 F2500.00
G01 X66.0725 Y57.2783 F2500.00
G01 X66.0725 Y57.3583 F2500.00
G01 X48.4278 Y57.3583 F2500.00
G01 X48.4278 Y57.4383 F2500.00
G01 X66.0725 Y57.4383 F2500.00
G01 X66.0725 Y57.5183 F2500.00
G01 X48.4278 Y57.5183 F2500.00
G01 X48.4278 Y57.5983 F2500.00
G01 X66.0725 Y57.5983 F2500.00
G01 X66.0725 Y57.6783 F2500.00
G01 X48.4278 Y57.6783 F2500.00
G01 X48.4278 Y57.7583 F2500.00
G01 X66.0725 Y57.7583 F2500.00
G01 X66.0725 Y57.8383 F2500.00
G01 X48.4278 Y57.8383 F2500.00
G01 X48.4278 Y57.9183 F2500.00
G01 X66.0725 Y57.9183 F2500.00
G01 X66.0725 Y57.9983 F2500.00
G01 X61.4728 Y57.9983 F2500.00
G01 X61.4728 Y58.0783 F2500.00
G01 X66.0725 Y58.0783 F2500.00
G01 X66.0725 Y58.1583 F2500.00
G01 X61.4728 Y58.1583 F2500.00
G01 X61.4728 Y58.2383 F2500.00
G01 X66.0725 Y58.2383 F2500.00
G01 X66.0725 Y58.3183 F2500.00
G01 X61.4728 Y58.3183 F2500.00
G01 X61.4728 Y58.3983 F2500.00
G01 X66.0725 Y58.3983 F2500.00
G01 X66.0725 Y58.4783 F2500.00
G01 X61.4728 Y58.4783 F2500.00
G01 X61.4728 Y58.5583 F2500.00
G01 X66.0725 Y58.5583 F2500.00
G01 X66.0725 Y58.6383 F2500.00
G01 X61.4728 Y58.6383 F2500.00
G01 X61.4728 Y58.7183 F2500.00
G01 X66.0725 Y58.7183 F2500.00
G01 X66.0725 Y58.7983 F2500.00
G01 X61.4728 Y58.7983 F2500.00
G01 X61.4728 Y58.8783 F2500.00
G01 X66.0725 Y58.8783 F2500.00
G01 X66.0725 Y58.9583 F2500.00
G01 X61.4728 Y58.9583 F2500.00
G01 X61.4728 Y59.0383 F2500.00
G01 X66.0725 Y59.0383 F2500.00
G01 X66.0725 Y59.1183 F2500.00
G01 X61.4728 Y59.1183 F2500.00
G01 X61.4728 Y59.1983 F2500.00
G01 X66.0725 Y59.1983 F2500.00
G01 X66.0725 Y59.2783 F2500.00
G01 X61.4728 Y59.2783 F2500.00
G01 X61.4728 Y59.3583 F2500.00
G01 X66.0725 Y59.3583 F2500.00
G01 X66.0725 Y59.4383 F2500.00
G01 X61.4728 Y59.4383 F2500.00
G01 X61.4728 Y59.5183 F2500.00
G01 X66.0725 Y59.5183 F2500.00
G01 X66.0725 Y59.5983 F2500.00
G01 X61.4728 Y59.5983 F2500.00
G01 X61.4728 Y59.6783 F2500.00
G01 X66.0725 Y59.6783 F2500.00
G01 X66.0725 Y59.7583 F2500.00
G01 X61.4728 Y59.7583 F2500.00
G01 X61.4728 Y59.8383 F2500.00
G01 X66.0725 Y59.8383 F2500.00
G01 X66.0725 Y59.9183 F2500.00
G01 X61.4728 Y59.9183 F2500.00
G01 X61.4728 Y59.9983 F2500.00
G01 X66.0725 Y59.9983 F2500.00
G01 X66.0725 Y60.0783 F2500.00
G01 X61.4728 Y60.0783 F2500.00
G01 X61.4728 Y60.1583 F2500.00
G01 X66.0725 Y60.1583 F2500.00
G01 X66.0725 Y60.2383 F2500.00
G01 X61.4728 Y60.2383 F2500.00
G01 X61.4728 Y60.3183 F2500.00
G01 X66.0725 Y60.3183 F2500.00
G01 X66.0725 Y60.3983 F2500.00
G01 X61.4728 Y60.3983 F2500.00
G01 X61.4728 Y60.4783 F2500.00
G01 X66.0725 Y60.4783 F2500.00
G01 X66.0725 Y60.5583 F2500.00
G01 X61.4728 Y60.5583 F2500.00
G01 X61.4728 Y60.6383 F2500.00
G01 X66.0725 Y60.6383 F2500.00
G01 X66.0725 Y60.7183 F2500.00
G01 X61.4728 Y60.7183 F2500.00
G01 X61.4728 Y60.7983 F2500.00
G01 X66.0725 Y60.7983 F2500.00
G01 X66.0725 Y60.8783 F2500.00
G01 X61.4728 Y60.8783 F2500.00
G01 X61.4728 Y60.9583 F2500.00
G01 X66.0725 Y60.9583 F2500.00
G01 X66.0725 Y61.0383 F2500.00
G01 X61.4728 Y61.0383 F2500.00
G01 X61.4728 Y61.1183 F2500.00
G01 X66.0725 Y61.1183 F2500.00
G01 X66.0725 Y61.1983 F2500.00
G01 X61.4728 Y61.1983 F2500.00
G01 X61.4728 Y61.2783 F2500.00
G01 X66.0725 Y61.2783 F2500.00
G01 X66.0725 Y61.3583 F2500.00
G01 X61.4728 Y61.3583 F2500.00
G01 X61.4728 Y61.4383 F2500.00
G01 X66.0725 Y61.4383 F2500.00
G01 X66.0725 Y61.5183 F2500.00
G01 X61.4728 Y61.5183 F2500.00
G01 X61.4728 Y61.5983 F2500.00
G01 X66.0725 Y61.5983 F2500.00
G01 X66.0725 Y61.6783 F2500.00
G01 X61.4728 Y61.6783 F2500.00
G01 X61.4728 Y61.7583 F2500.00
G01 X66.0725 Y61.7583 F2500.00
G01 X66.0725 Y61.8383 F2500.00
G01 X61.4728 Y61.8383 F2500.00
G01 X61.4728 Y61.9183 F2500.00
G01 X66.0725 Y61.9183 F2500.00
G01 X66.0725 Y61.9983 F2500.00
G01 X61.4728 Y61.9983 F2500.00
G01 X61.4728 Y62.0783 F2500.00
G01 X66.0725 Y62.0783 F2500.00
G01 X66.0725 Y62.1583 F2500.00
G01 X61.4728 Y62.1583 F2500.00
G01 X61.4728 Y62.2383 F2500.00
G01 X66.0725 Y62.2383 F2500.00
G01 X66.0725 Y62.3183 F2500.00
G01 X61.4728 Y62.3183 F2500.00
G01 X61.4728 Y62.3983 F2500.00
G01 X66.0725 Y62.3983 F2500.00
G01 X66.0725 Y62.4783 F2500.00
G01 X61.4728 Y62.4783 F2500.00
G01 X61.4728 Y62.5583 F2500.00
G01 X66.0725 Y62.5583 F2500.00
G01 X66.0725 Y62.6383 F2500.00
G01 X61.4728 Y62.6383 F2500.00
G01 X61.4728 Y62.7183 F2500.00
G01 X66.0725 Y62.7183 F2500.00
G01 X66.0725 Y62.7983 F2500.00
G01 X61.4728 Y62.7983 F2500.00
G01 X61.4728 Y62.8783 F2500.00
G01 X66.0725 Y62.8783 F2500.00
G01 X66.0725 Y62.9583 F2500.00
G01 X61.4728 Y62.9583 F2500.00
G01 X61.4728 Y63.0383 F2500.00
G01 X66.0725 Y63.0383 F2500.00
G01 X66.0725 Y63.1183 F2500.00
G01 X61.4728 Y63.1183 F2500.00
G01 X61.4728 Y63.1983 F2500.00
G01 X66.0725 Y63.1983 F2500.00
G01 X66.0725 Y63.2783 F2500.00
G01 X61.4728 Y63.2783 F2500.00
G01 X61.4728 Y63.3583 F2500.00
G01 X66.0725 Y63.3583 F2500.00
G01 X66.0725 Y63.4383 F2500.00
G01 X61.4728 Y63.4383 F2500.00
G01 X61.4728 Y63.5183 F2500.00
G01 X66.0725 Y63.5183 F2500.00
G01 X66.0725 Y63.5983 F2500.00
G01 X61.4728 Y63.5983 F2500.00
G01 X61.4728 Y63.6783 F2500.00
G01 X66.0725 Y63.6783 F2500.00
G01 X66.0725 Y63.7583 F2500.00
G01 X61.4728 Y63.7583 F2500.00
G01 X61.4728 Y63.8383 F2500.00
G01 X66.0725 Y63.8383 F2500.00
G01 X66.0725 Y63.9183 F2500.00
G01 X61.4728 Y63.9183 F2500.00
M5
G00 X61.4722 Y63.9983
G01 F60.00
M03 S50.0
G01 F2500.00
G01 X66.0725 Y63.9983 F2500.00
G01 X66.0725 Y64.0783 F2500.00
G01 X57.6134 Y64.0783 F2500.00
G01 X57.6934 Y63.9983 F2500.00
G01 X58.3734 Y63.9983 F2500.00
M5
G00 X58.3728 Y63.9183
G01 F60.00
M03 S50.0
G01 F2500.00
G01 X57.7734 Y63.9183 F2500.00
G01 X57.8534 Y63.8383 F2500.00
G01 X58.3728 Y63.8383 F2500.00
G01 X58.3728 Y63.7583 F2500.00
G01 X57.9334 Y63.7583 F2500.00
G01 X58.0134 Y63.6783 F2500.00
G01 X58.3728 Y63.6783 F2500.00
G01 X58.3728 Y63.5983 F2500.00
G01 X58.0934 Y63.5983 F2500.00
G01 X58.1734 Y63.5183 F2500.00
G01 X58.3728 Y63.5183 F2500.00
G01 X58.3728 Y63.4383 F2500.00
G01 X58.2534 Y63.4383 F2500.00
G01 X58.3334 Y63.3583 F2500.00
G01 X58.3728 Y63.3583 F2500.00
M5
G00 X57.5771 Y62.5583
G01 F60.00
M03 S50.0
G01 F2500.00
G01 X49.4728 Y62.5583 F2500.00
G01 X49.4728 Y62.4783 F2500.00
G01 X57.6571 Y62.4783 F2500.00
G01 X57.7371 Y62.3983 F2500.00
G01 X49.4728 Y62.3983 F2500.00
G01 X49.4728 Y62.3183 F2500.00
G01 X57.8171 Y62.3183 F2500.00
G01 X57.8971 Y62.2383 F2500.00
G01 X49.4728 Y62.2383 F2500.00
G01 X49.4728 Y62.1583 F2500.00
G01 X57.9771 Y62.1583 F2500.00
G01 X58.0571 Y62.0783 F2500.00
G01 X49.4728 Y62.0783 F2500.00
G01 X49.4728 Y61.9983 F2500.00
G01 X58.1371 Y61.9983 F2500.00
G01 X58.2171 Y61.9183 F2500.00
G01 X49.4728 Y61.9183 F2500.00
G01 X49.4728 Y61.8383 F2500.00
G01 X58.2971 Y61.8383 F2500.00
G01 X58.3728 Y61.7583 F2500.00
G01 X49.4728 Y61.7583 F2500.00
G01 X49.4728 Y61.6783 F2500.00
G01 X58.3728 Y61.6783 F2500.00
G01 X58.3728 Y61.5983 F2500.00
G01 X49.4728 Y61.5983 F2500.00
G01 X49.4728 Y61.5183 F2500.00
G01 X58.3728 Y61.5183 F2500.00
G01 X58.3728 Y61.4383 F2500.00
G01 X49.4728 Y61.4383 F2500.00
G01 X49.4728 Y61.3583 F2500.00
G01 X58.3728 Y61.3583 F2500.00
G01 X58.3728 Y61.2783 F2500.00
G01 X49.4728 Y61.2783 F2500.00
G01 X49.4728 Y61.1983 F2500.00
G01 X58.3728 Y61.1983 F2500.00
G01 X58.3728 Y61.1183 F2500.00
G01 X49.4728 Y61.1183 F2500.00
G01 X49.4728 Y61.0383 F2500.00
G01 X58.3728 Y61.0383 F2500.00
G01 X58.3728 Y60.9583 F2500.00
G01 X49.4728 Y60.9583 F2500.00
G01 X49.4728 Y60.8783 F2500.00
G01 X58.3728 Y60.8783 F2500.00
G01 X58.3728 Y60.7983 F2500.00
G01 X49.4728 Y60.7983 F2500.00
G01 X49.4728 Y60.7183 F2500.00
G01 X58.3728 Y60.7183 F2500.00
G01 X58.3728 Y60.6383 F2500.00
G01 X49.4728 Y60.6383 F2500.00
G01 X49.4728 Y60.5583 F2500.00
G01 X58.3728 Y60.5583 F2500.00
G01 X58.3728 Y60.4783 F2500.00
G01 X49.4728 Y60.4783 F2500.00
G01 X49.4728 Y60.3983 F2500.00
G01 X58.3728 Y60.3983 F2500.00
G01 X58.3728 Y60.3183 F2500.00
G01 X49.4728 Y60.3183 F2500.00
G01 X49.4728 Y60.2383 F2500.00
G01 X58.3728 Y60.2383 F2500.00
G01 X58.3728 Y60.1583 F2500.00
G01 X49.4728 Y60.1583 F2500.00
G01 X49.4728 Y60.0783 F2500.00
G01 X58.3728 Y60.0783 F2500.00
G01 X58.3728 Y59.9983 F2500.00
G01 X49.4728 Y59.9983 F2500.00
G01 X49.4728 Y59.9183 F2500.00
G01 X58.3728 Y59.9183 F2500.00
G01 X58.3728 Y59.8383 F2500.00
G01 X49.4728 Y59.8383 F2500.00
G01 X49.4728 Y59.7583 F2500.00
G01 X58.3728 Y59.7583 F2500.00
G01 X58.3728 Y59.6783 F2500.00
G01 X49.4728 Y59.6783 F2500.00
G01 X49.4728 Y59.5983 F2500.00
G01 X58.3728 Y59.5983 F2500.00
G01 X58.3728 Y59.5183 F2500.00
G01 X49.4728 Y59.5183 F2500.00
G01 X49.4728 Y59.4383 F2500.00
G01 X58.3728 Y59.4383 F2500.00
G01 X58.3728 Y59.3583 F2500.00
G01 X49.4728 Y59.3583 F2500.00
G01 X49.4728 Y59.2783 F2500.00
G01 X58.3728 Y59.2783 F2500.00
G01 X58.3728 Y59.1983 F2500.00
G01 X49.4728 Y59.1983 F2500.00
G01 X49.4728 Y59.1183 F2500.00
G01 X58.3728 Y59.1183 F2500.00
G01 X58.3728 Y59.0383 F2500.00
G01 X49.4728 Y59.0383 F2500.00
G01 X49.4728 Y58.9583 F2500.00
G01 X58.3728 Y58.9583 F2500.00
G01 X58.3728 Y58.8783 F2500.00
G01 X49.4728 Y58.8783 F2500.00
G01 X49.4728 Y58.7983 F2500.00
G01 X58.3728 Y58.7983 F2500.00
G01 X58.3728 Y58.7183 F2500.00
G01 X49.4728 Y58.7183 F2500.00
G01 X49.4728 Y58.6383 F2500.00
G01 X58.3728 Y58.6383 F2500.00
G01 X58.3728 Y58.5583 F2500.00
G01 X49.4728 Y58.5583 F2500.00
G01 X49.4728 Y58.4783 F2500.00
G01 X58.3728 Y58.4783 F2500.00
G01 X58.3728 Y58.3983 F2500.00
G01 X49.4728 Y58.3983 F2500.00
G01 X49.4728 Y58.3183 F2500.00
G01 X58.3728 Y58.3183 F2500.00
G01 X58.3728 Y58.2383 F2500.00
G01 X49.4728 Y58.2383 F2500.00
G01 X49.4728 Y58.1583 F2500.00
G01 X58.3728 Y58.1583 F2500.00
G01 X58.3728 Y58.0783 F2500.00
G01 X49.4728 Y58.0783 F2500.00
G01 X49.4728 Y57.9983 F2500.00
G01 X58.3728 Y57.9983 F2500.00
M5
G00 X57.4971 Y62.6383
G01 F60.00
M03 S50.0
G01 F2500.00
G01 X49.4728 Y62.6383 F2500.00
G01 X49.4728 Y62.7183 F2500.00
G01 X57.4171 Y62.7183 F2500.00
G01 X57.3371 Y62.7983 F2500.00
G01 X49.4728 Y62.7983 F2500.00
G01 X49.4728 Y62.8783 F2500.00
G01 X57.2571 Y62.8783 F2500.00
G01 X57.1771 Y62.9583 F2500.00
G01 X49.4728 Y62.9583 F2500.00
G01 X49.4728 Y63.0383 F2500.00
G01 X57.0971 Y63.0383 F2500.00
G01 X57.0171 Y63.1183 F2500.00
G01 X49.4728 Y63.1183 F2500.00
G01 X49.4728 Y63.1983 F2500.00
G01 X56.9371 Y63.1983 F2500.00
G01 X56.8571 Y63.2783 F2500.00
G01 X49.4728 Y63.2783 F2500.00
G01 X49.4728 Y63.3583 F2500.00
G01 X56.7771 Y63.3583 F2500.00
G01 X56.6971 Y63.4383 F2500.00
G01 X49.4728 Y63.4383 F2500.00
G01 X49.4728 Y63.5183 F2500.00
G01 X56.6171 Y63.5183 F2500.00
G01 X56.5371 Y63.5983 F2500.00
G01 X49.4728 Y63.5983 F2500.00
G01 X49.4728 Y63.6783 F2500.00
G01 X56.4571 Y63.6783 F2500.00
G01 X56.3771 Y63.7583 F2500.00
G01 X49.4728 Y63.7583 F2500.00
G01 X49.4728 Y63.8383 F2500.00
G01 X56.2971 Y63.8383 F2500.00
G01 X56.2171 Y63.9183 F2500.00
G01 X49.4728 Y63.9183 F2500.00
M5
G00 X49.4722 Y63.9983
G01 F60.00
M03 S50.0
G01 F2500.00
G01 X56.1371 Y63.9983 F2500.00
G01 X56.0571 Y64.0783 F2500.00
G01 X43.9128 Y64.0783 F2500.00
G01 X43.9128 Y64.1583 F2500.00
G01 X55.9771 Y64.1583 F2500.00
G01 X55.8971 Y64.2383 F2500.00
G01 X43.9128 Y64.2383 F2500.00
G01 X43.9128 Y64.3183 F2500.00
G01 X55.8171 Y64.3183 F2500.00
G01 X55.7371 Y64.3983 F2500.00
G01 X43.9128 Y64.3983 F2500.00
G01 X43.9128 Y64.4783 F2500.00
G01 X55.6571 Y64.4783 F2500.00
G01 X55.5771 Y64.5583 F2500.00
G01 X43.9128 Y64.5583 F2500.00
G01 X43.9128 Y64.6383 F2500.00
G01 X55.4971 Y64.6383 F2500.00
G01 X55.4171 Y64.7183 F2500.00
G01 X43.9128 Y64.7183 F2500.00
G01 X43.9128 Y64.7983 F2500.00
G01 X55.3371 Y64.7983 F2500.00
G01 X55.2571 Y64.8783 F2500.00
G01 X43.9128 Y64.8783 F2500.00
G01 X43.9128 Y64.9583 F2500.00
G01 X55.1771 Y64.9583 F2500.00
G01 X55.0971 Y65.0383 F2500.00
G01 X43.9128 Y65.0383 F2500.00
G01 X43.9128 Y65.1183 F2500.00
G01 X55.0171 Y65.1183 F2500.00
G01 X54.9371 Y65.1983 F2500.00
G01 X43.9128 Y65.1983 F2500.00
G01 X43.9128 Y65.2783 F2500.00
G01 X54.8571 Y65.2783 F2500.00
G01 X54.7771 Y65.3583 F2500.00
G01 X43.9128 Y65.3583 F2500.00
G01 X43.9128 Y65.4383 F2500.00
G01 X54.6971 Y65.4383 F2500.00
G01 X54.6171 Y65.5183 F2500.00
G01 X43.9128 Y65.5183 F2500.00
G01 X43.9128 Y65.5983 F2500.00
G01 X47.5967 Y65.5983 F2500.00
M5
G00 X47.4921 Y65.6783
G01 F60.00
M03 S50.0
G01 F2500.00
G01 X43.9128 Y65.6783 F2500.00
G01 X43.9128 Y65.7583 F2500.00
G01 X47.4250 Y65.7583 F2500.00
M5
G00 X47.3795 Y65.8383
G01 F60.00
M03 S50.0
G01 F2500.00
G01 X43.9128 Y65.8383 F2500.00
G01 X43.9128 Y65.9183 F2500.00
G01 X47.3492 Y65.9183 F2500.00
M5
G00 X47.3327 Y65.9983
G01 F60.00
M03 S50.0
G01 F2500.00
G01 X43.9128 Y65.9983 F2500.00
G01 X43.9128 Y66.0783 F2500.00
G01 X47.3273 Y66.0783 F2500.00
G01 X47.3273 Y66.1583 F2500.00
G01 X43.9128 Y66.1583 F2500.00
G01 X43.9128 Y66.2383 F2500.00
G01 X47.3273 Y66.2383 F2500.00
G01 X47.3273 Y66.3183 F2500.00
G01 X43.9128 Y66.3183 F2500.00
G01 X43.9128 Y66.3983 F2500.00
G01 X47.3273 Y66.3983 F2500.00
G01 X47.3273 Y66.4783 F2500.00
G01 X43.9128 Y66.4783 F2500.00
G01 X43.9128 Y66.5583 F2500.00
G01 X47.3273 Y66.5583 F2500.00
G01 X47.3273 Y66.6383 F2500.00
G01 X43.9128 Y66.6383 F2500.00
G01 X43.9128 Y66.7183 F2500.00
G01 X47.3273 Y66.7183 F2500.00
G01 X47.3273 Y66.7983 F2500.00
G01 X43.9128 Y66.7983 F2500.00
G01 X43.9128 Y66.8783 F2500.00
G01 X47.3273 Y66.8783 F2500.00
G01 X47.3273 Y66.9583 F2500.00
G01 X43.9128 Y66.9583 F2500.00
G01 X43.9128 Y67.0383 F2500.00
G01 X47.3273 Y67.0383 F2500.00
G01 X47.3273 Y67.1183 F2500.00
G01 X43.9128 Y67.1183 F2500.00
G01 X43.9128 Y67.1983 F2500.00
G01 X47.3273 Y67.1983 F2500.00
G01 X47.3273 Y67.2783 F2500.00
G01 X43.9128 Y67.2783 F2500.00
G01 X43.9128 Y67.3583 F2500.00
G01 X47.3273 Y67.3583 F2500.00
G01 X47.3273 Y67.4383 F2500.00
G01 X43.9128 Y67.4383 F2500.00
G01 X43.9128 Y67.5183 F2500.00
G01 X47.3273 Y67.5183 F2500.00
G01 X47.3273 Y67.5983 F2500.00
G01 X43.9128 Y67.5983 F2500.00
G01 X43.9128 Y67.6783 F2500.00
G01 X47.3273 Y67.6783 F2500.00
G01 X47.3273 Y67.7583 F2500.00
G01 X43.9128 Y67.7583 F2500.00
G01 X43.9128 Y67.8383 F2500.00
G01 X47.3273 Y67.8383 F2500.00
G01 X47.3273 Y67.9183 F2500.00
G01 X43.9128 Y67.9183 F2500.00
G01 X43.9128 Y67.9983 F2500.00
G01 X47.3273 Y67.9983 F2500.00
G01 X47.3273 Y68.0783 F2500.00
G01 X43.9128 Y68.0783 F2500.00
G01 X43.9128 Y68.1583 F2500.00
G01 X47.3273 Y68.1583 F2500.00
G01 X47.3273 Y68.2383 F2500.00
G01 X43.9128 Y68.2383 F2500.00
G01 X43.9128 Y68.3183 F2500.00
G01 X47.3273 Y68.3183 F2500.00
G01 X47.3273 Y68.3983 F2500.00
G01 X43.9128 Y68.3983 F2500.00
G01 X43.9128 Y68.4783 F2500.00
G01 X47.3273 Y68.4783 F2500.00
G01 X47.3273 Y68.5583 F2500.00
G01 X43.9128 Y68.5583 F2500.00
G01 X43.9128 Y68.6383 F2500.00
G01 X47.3273 Y68.6383 F2500.00
G01 X47.3273 Y68.7183 F2500.00
G01 X43.9128 Y68.7183 F2500.00
G01 X43.9128 Y68.7983 F2500.00
G01 X47.3273 Y68.7983 F2500.00
G01 X47.3273 Y68.8783 F2500.00
G01 X43.9128 Y68.8783 F2500.00
G01 X43.9128 Y68.9583 F2500.00
G01 X47.3273 Y68.9583 F2500.00
G01 X47.3273 Y69.0383 F2500.00
G01 X43.9128 Y69.0383 F2500.00
G01 X43.9128 Y69.1183 F2500.00
G01 X47.3273 Y69.1183 F2500.00
G01 X47.3273 Y69.1983 F2500.00
G01 X43.9128 Y69.1983 F2500.00
G01 X43.9128 Y69.2783 F2500.00
G01 X47.3273 Y69.2783 F2500.00
G01 X47.3273 Y69.3583 F2500.00
G01 X43.9128 Y69.3583 F2500.00
G01 X43.9128 Y69.4383 F2500.00
G01 X47.3273 Y69.4383 F2500.00
G01 X47.3273 Y69.5183 F2500.00
G01 X43.9128 Y69.5183 F2500.00
G01 X43.9128 Y69.5983 F2500.00
G01 X47.3273 Y69.5983 F2500.00
G01 X47.3273 Y69.6783 F2500.00
G01 X43.9128 Y69.6783 F2500.00
G01 X43.9128 Y69.7583 F2500.00
G01 X47.3273 Y69.7583 F2500.00
G01 X47.3273 Y69.8383 F2500.00
G01 X43.9128 Y69.8383 F2500.00
G01 X43.9128 Y69.9183 F2500.00
G01 X47.3273 Y69.9183 F2500.00
G01 X47.3273 Y69.9983 F2500.00
G01 X43.9128 Y69.9983 F2500.00
G01 X43.9128 Y70.0783 F2500.00
G01 X47.3273 Y70.0783 F2500.00
G01 X47.3273 Y70.1583 F2500.00
G01 X43.9128 Y70.1583 F2500.00
G01 X43.9128 Y70.2383 F2500.00
G01 X47.3273 Y70.2383 F2500.00
G01 X47.3273 Y70.3183 F2500.00
G01 X43.9128 Y70.3183 F2500.00
G01 X43.9128 Y70.3983 F2500.00
G01 X47.3273 Y70.3983 F2500.00
G01 X47.3273 Y70.4783 F2500.00
G01 X43.9128 Y70.4783 F2500.00
G01 X43.9128 Y70.5583 F2500.00
G01 X47.3273 Y70.5583 F2500.00
G01 X47.3273 Y70.6383 F2500.00
G01 X43.9128 Y70.6383 F2500.00
G01 X43.9128 Y70.7183 F2500.00
G01 X47.3273 Y70.7183 F2500.00
G01 X47.3273 Y70.7983 F2500.00
G01 X43.9128 Y70.7983 F2500.00
G01 X43.9128 Y70.8783 F2500.00
G01 X47.3273 Y70.8783 F2500.00
G01 X47.3273 Y70.9583 F2500.00
G01 X43.9128 Y70.9583 F2500.00
G01 X43.9128 Y71.0383 F2500.00
G01 X47.3273 Y71.0383 F2500.00
G01 X47.3273 Y71.1183 F2500.00
G01 X43.9128 Y71.1183 F2500.00
G01 X43.9128 Y71.1983 F2500.00
G01 X47.3273 Y71.1983 F2500.00
G01 X47.3273 Y71.2783 F2500.00
G01 X43.9128 Y71.2783 F2500.00
G01 X43.9128 Y71.3583 F2500.00
G01 X47.3273 Y71.3583 F2500.00
G01 X47.3273 Y71.4383 F2500.00
G01 X43.9128 Y71.4383 F2500.00
G01 X43.9128 Y71.5183 F2500.00
G01 X47.3273 Y71.5183 F2500.00
G01 X47.3273 Y71.5983 F2500.00
G01 X43.9128 Y71.5983 F2500.00
G01 X43.9128 Y71.6783 F2500.00
G01 X47.3273 Y71.6783 F2500.00
G01 X47.3273 Y71.7583 F2500.00
G01 X43.9128 Y71.7583 F2500.00
G01 X43.9128 Y71.8383 F2500.00
G01 X47.3273 Y71.8383 F2500.00
G01 X47.3273 Y71.9183 F2500.00
G01 X43.9128 Y71.9183 F2500.00
G01 X43.9128 Y71.9983 F2500.00
G01 X47.3273 Y71.9983 F2500.00
G01 X47.3273 Y72.0783 F2500.00
G01 X43.9128 Y72.0783 F2500.00
G01 X43.9128 Y72.1583 F2500.00
G01 X47.3273 Y72.1583 F2500.00
G01 X47.3273 Y72.2383 F2500.00
G01 X43.9128 Y72.2383 F2500.00
G01 X43.9128 Y72.3183 F2500.00
G01 X47.3273 Y72.3183 F2500.00
G01 X47.3273 Y72.3983 F2500.00
G01 X43.9128 Y72.3983 F2500.00
G01 X43.9128 Y72.4783 F2500.00
G01 X47.3273 Y72.4783 F2500.00
G01 X47.3273 Y72.5583 F2500.00
G01 X43.9128 Y72.5583 F2500.00
G01 X43.9128 Y72.6383 F2500.00
G01 X47.3273 Y72.6383 F2500.00
G01 X47.3273 Y72.7183 F2500.00
G01 X43.9128 Y72.7183 F2500.00
G01 X43.9128 Y72.7983 F2500.00
G01 X47.3273 Y72.7983 F2500.00
G01 X47.3273 Y72.8783 F2500.00
G01 X43.9128 Y72.8783 F2500.00
G01 X43.9128 Y72.9583 F2500.00
G01 X47.3273 Y72.9583 F2500.00
G01 X47.3273 Y73.0383 F2500.00
G01 X43.9128 Y73.0383 F2500.00
G01 X43.9128 Y73.1183 F2500.00
G01 X47.3273 Y73.1183 F2500.00
G01 X47.3273 Y73.1983 F2500.00
G01 X43.9128 Y73.1983 F2500.00
G01 X43.9128 Y73.2783 F2500.00
G01 X47.3273 Y73.2783 F2500.00
G01 X47.3273 Y73.3583 F2500.00
G01 X43.9128 Y73.3583 F2500.00
G01 X43.9128 Y73.4383 F2500.00
G01 X47.3273 Y73.4383 F2500.00
G01 X47.3273 Y73.5183 F2500.00
G01 X43.9128 Y73.5183 F2500.00
G01 X43.9128 Y73.5983 F2500.00
G01 X47.3273 Y73.5983 F2500.00
G01 X47.3273 Y73.6783 F2500.00
G01 X43.9128 Y73.6783 F2500.00
G01 X43.9128 Y73.7583 F2500.00
G01 X47.3273 Y73.7583 F2500.00
G01 X47.3273 Y73.8383 F2500.00
G01 X43.9128 Y73.8383 F2500.00
G01 X43.9128 Y73.9183 F2500.00
G01 X47.3273 Y73.9183 F2500.00
G01 X47.3273 Y73.9983 F2500.00
G01 X43.9128 Y73.9983 F2500.00
G01 X43.9128 Y74.0783 F2500.00
G01 X47.3273 Y74.0783 F2500.00
G01 X47.3273 Y74.1583 F2500.00
G01 X43.9128 Y74.1583 F2500.00
G01 X43.9128 Y74.2383 F2500.00
G01 X47.3273 Y74.2383 F2500.00
G01 X47.3273 Y74.3183 F2500.00
G01 X43.9128 Y74.3183 F2500.00
G01 X43.9128 Y74.3983 F2500.00
G01 X47.3273 Y74.3983 F2500.00
G01 X47.3273 Y74.4783 F2500.00
G01 X43.9128 Y74.4783 F2500.00
G01 X43.9128 Y74.5583 F2500.00
G01 X47.3273 Y74.5583 F2500.00
G01 X47.3273 Y74.6383 F2500.00
G01 X43.9128 Y74.6383 F2500.00
G01 X43.9128 Y74.7183 F2500.00
G01 X47.3273 Y74.7183 F2500.00
G01 X47.3273 Y74.7983 F2500.00
G01 X43.9128 Y74.7983 F2500.00
G01 X43.9128 Y74.8783 F2500.00
G01 X47.3273 Y74.8783 F2500.00
G01 X47.3273 Y74.9583 F2500.00
G01 X43.9128 Y74.9583 F2500.00
G01 X43.9128 Y75.0383 F2500.00
G01 X47.3273 Y75.0383 F2500.00
G01 X47.3273 Y75.1183 F2500.00
G01 X43.9128 Y75.1183 F2500.00
G01 X43.9128 Y75.1983 F2500.00
G01 X47.3273 Y75.1983 F2500.00
G01 X47.3273 Y75.2783 F2500.00
G01 X43.9128 Y75.2783 F2500.00
G01 X43.9128 Y75.3583 F2500.00
G01 X47.3273 Y75.3583 F2500.00
G01 X47.3273 Y75.4383 F2500.00
G01 X43.9128 Y75.4383 F2500.00
G01 X43.9128 Y75.5183 F2500.00
G01 X47.3273 Y75.5183 F2500.00
G01 X47.3273 Y75.5983 F2500.00
G01 X43.9128 Y75.5983 F2500.00
G01 X43.9128 Y75.6783 F2500.00
G01 X47.3273 Y75.6783 F2500.00
G01 X47.3273 Y75.7583 F2500.00
G01 X43.9128 Y75.7583 F2500.00
G01 X43.9128 Y75.8383 F2500.00
G01 X47.3273 Y75.8383 F2500.00
G01 X47.3273 Y75.9183 F2500.00
G01 X43.9128 Y75.9183 F2500.00
G01 X43.9128 Y75.9983 F2500.00
G01 X47.3273 Y75.9983 F2500.00
G01 X47.3273 Y76.0783 F2500.00
G01 X43.9128 Y76.0783 F2500.00
G01 X43.9128 Y76.1583 F2500.00
G01 X47.3273 Y76.1583 F2500.00
G01 X47.3273 Y76.2383 F2500.00
G01 X43.9128 Y76.2383 F2500.00
G01 X43.9128 Y76.3183 F2500.00
G01 X47.3273 Y76.3183 F2500.00
G01 X47.3273 Y76.3983 F2500.00
G01 X43.9128 Y76.3983 F2500.00
G01 X43.9128 Y76.4783 F2500.00
G01 X47.3273 Y76.4783 F2500.00
G01 X47.3273 Y76.5583 F2500.00
G01 X43.9128 Y76.5583 F2500.00
G01 X43.9128 Y76.6383 F2500.00
G01 X47.3273 Y76.6383 F2500.00
G01 X47.3273 Y76.7183 F2500.00
G01 X43.9128 Y76.7183 F2500.00
G01 X43.9128 Y76.7983 F2500.00
G01 X47.3273 Y76.7983 F2500.00
G01 X47.3273 Y76.8783 F2500.00
G01 X43.9128 Y76.8783 F2500.00
G01 X43.9128 Y76.9583 F2500.00
G01 X47.3273 Y76.9583 F2500.00
G01 X47.3273 Y77.0383 F2500.00
G01 X43.9128 Y77.0383 F2500.00
G01 X43.9128 Y77.1183 F2500.00
G01 X47.3273 Y77.1183 F2500.00
G01 X47.3273 Y77.1983 F2500.00
G01 X43.9128 Y77.1983 F2500.00
G01 X43.9128 Y77.2783 F2500.00
G01 X47.3273 Y77.2783 F2500.00
G01 X47.3273 Y77.3583 F2500.00
G01 X43.9128 Y77.3583 F2500.00
G01 X43.9128 Y77.4383 F2500.00
G01 X47.3273 Y77.4383 F2500.00
G01 X47.3273 Y77.5183 F2500.00
G01 X43.9128 Y77.5183 F2500.00
G01 X43.9128 Y77.5983 F2500.00
G01 X47.3273 Y77.5983 F2500.00
G01 X47.3273 Y77.6783 F2500.00
G01 X43.9128 Y77.6783 F2500.00
G01 X43.9128 Y77.7583 F2500.00
G01 X47.3273 Y77.7583 F2500.00
G01 X47.3273 Y77.8383 F2500.00
G01 X43.9128 Y77.8383 F2500.00
G01 X43.9128 Y77.9183 F2500.00
G01 X47.3273 Y77.9183 F2500.00
G01 X47.3273 Y77.9983 F2500.00
G01 X43.9128 Y77.9983 F2500.00
G01 X43.9128 Y78.0783 F2500.00
G01 X47.3273 Y78.0783 F2500.00
G01 X47.3273 Y78.1583 F2500.00
G01 X43.9128 Y78.1583 F2500.00
G01 X43.9128 Y78.2383 F2500.00
G01 X47.3273 Y78.2383 F2500.00
G01 X47.3273 Y78.3183 F2500.00
G01 X43.9128 Y78.3183 F2500.00
G01 X43.9128 Y78.3983 F2500.00
G01 X47.3273 Y78.3983 F2500.00
G01 X47.3273 Y78.4783 F2500.00
G01 X43.9128 Y78.4783 F2500.00
G01 X43.9128 Y78.5583 F2500.00
G01 X47.3273 Y78.5583 F2500.00
G01 X47.3273 Y78.6383 F2500.00
G01 X43.9128 Y78.6383 F2500.00
G01 X43.9128 Y78.7183 F2500.00
G01 X47.3273 Y78.7183 F2500.00
G01 X47.3273 Y78.7983 F2500.00
G01 X43.9128 Y78.7983 F2500.00
G01 X43.9128 Y78.8783 F2500.00
G01 X47.3273 Y78.8783 F2500.00
G01 X47.3273 Y78.9583 F2500.00
G01 X43.9128 Y78.9583 F2500.00
G01 X43.9128 Y79.0383 F2500.00
G01 X47.3273 Y79.0383 F2500.00
G01 X47.3273 Y79.1183 F2500.00
G01 X43.9128 Y79.1183 F2500.00
G01 X43.9128 Y79.1983 F2500.00
G01 X47.3273 Y79.1983 F2500.00
G01 X47.3273 Y79.2783 F2500.00
G01 X43.9128 Y79.2783 F2500.00
G01 X43.9128 Y79.3583 F2500.00
G01 X47.3273 Y79.3583 F2500.00
G01 X47.3273 Y79.4383 F2500.00
G01 X43.9128 Y79.4383 F2500.00
G01 X43.9128 Y79.5183 F2500.00
G01 X47.3273 Y79.5183 F2500.00
G01 X47.3273 Y79.5983 F2500.00
G01 X43.9128 Y79.5983 F2500.00
G01 X43.9128 Y79.6783 F2500.00
G01 X47.3273 Y79.6783 F2500.00
G01 X47.3273 Y79.7583 F2500.00
G01 X43.9128 Y79.7583 F2500.00
G01 X43.9128 Y79.8383 F2500.00
G01 X47.3273 Y79.8383 F2500.00
G01 X47.3273 Y79.9183 F2500.00
G01 X43.9128 Y79.9183 F2500.00
G01 X43.9128 Y79.9983 F2500.00
G01 X47.3273 Y79.9983 F2500.00
G01 X47.3273 Y80.0783 F2500.00
G01 X43.9128 Y80.0783 F2500.00
G01 X43.9128 Y80.1583 F2500.00
G01 X47.3273 Y80.1583 F2500.00
G01 X47.3273 Y80.2383 F2500.00
G01 X43.9128 Y80.2383 F2500.00
G01 X43.9128 Y80.3183 F2500.00
G01 X47.3273 Y80.3183 F2500.00
G01 X47.3273 Y80.3983 F2500.00
G01 X43.9128 Y80.3983 F2500.00
G01 X43.9128 Y80.4783 F2500.00
G01 X47.3273 Y80.4783 F2500.00
G01 X47.3273 Y80.5583 F2500.00
G01 X43.9128 Y80.5583 F2500.00
G01 X43.9128 Y80.6383 F2500.00
G01 X47.3273 Y80.6383 F2500.00
G01 X47.2910 Y80.7183 F2500.00
G01 X43.9128 Y80.7183 F2500.00
G01 X43.9128 Y80.7983 F2500.00
G01 X47.2096 Y80.7983 F2500.00
M5
G00 X47.1452 Y80.8783
G01 F60.00
M03 S50.0
G01 F2500.00
G01 X43.9128 Y80.8783 F2500.00
G01 X43.9128 Y80.9583 F2500.00
G01 X47.0942 Y80.9583 F2500.00
M5
G00 X47.0542 Y81.0383
G01 F60.00
M03 S50.0
G01 F2500.00
G01 X43.9128 Y81.0383 F2500.00
G01 X43.9128 Y81.1183 F2500.00
G01 X47.0236 Y81.1183 F2500.00
M5
G00 X47.0014 Y81.1983
G01 F60.00
M03 S50.0
G01 F2500.00
G01 X43.9128 Y81.1983 F2500.00
G01 X43.9128 Y81.2783 F2500.00
G01 X46.9868 Y81.2783 F2500.00
M5
G00 X46.9818 Y81.3142
G01 F60.00
M03 S50.0
G01 F2500.00
G01 X46.9949 Y81.2244 F2500.00
G01 X47.0164 Y81.1387 F2500.00
G01 X47.0461 Y81.0556 F2500.00
G01 X47.0845 Y80.9747 F2500.00
G01 X47.1293 Y80.9000 F2500.00
G01 X47.1827 Y80.8281 F2500.00
G01 X47.2421 Y80.7627 F2500.00
G01 X47.3057 Y80.7051 F2500.00
G01 X47.3273 Y80.6889 F2500.00
G01 X47.3273 Y66.0708 F2500.00
G01 X47.3303 Y66.0144 F2500.00
G01 X47.3379 Y65.9635 F2500.00
G01 X47.3510 Y65.9111 F2500.00
G01 X47.3702 Y65.8580 F2500.00
G01 X47.3923 Y65.8114 F2500.00
G01 X47.4194 Y65.7661 F2500.00
G01 X47.4523 Y65.7217 F2500.00
G01 X47.4903 Y65.6800 F2500.00
G01 X47.5285 Y65.6455 F2500.00
G01 X47.5699 Y65.6147 F2500.00
G01 X47.6182 Y65.5855 F2500.00
G01 X47.6670 Y65.5624 F2500.00
G01 X47.7202 Y65.5436 F2500.00
G01 X47.7703 Y65.5311 F2500.00
G01 X47.8212 Y65.5235 F2500.00
G01 X47.8764 Y65.5206 F2500.00
G01 X54.6149 Y65.5205 F2500.00
G01 X58.3728 Y61.7626 F2500.00
G01 X58.3728 Y57.9908 F2500.00
G01 X58.3735 Y57.9823 F2500.00
G01 X58.3762 Y57.9728 F2500.00
G01 X58.3806 Y57.9641 F2500.00
G01 X58.3858 Y57.9572 F2500.00
G01 X58.3930 Y57.9506 F2500.00
G01 X58.3971 Y57.9479 F2500.00
G01 X58.4025 Y57.9451 F2500.00
G01 X58.4118 Y57.9420 F2500.00
G01 X58.4167 Y57.9412 F2500.00
G01 X58.4228 Y57.9408 F2500.00
G01 X61.4228 Y57.9408 F2500.00
G01 X61.4289 Y57.9412 F2500.00
G01 X61.4361 Y57.9426 F2500.00
G01 X61.4431 Y57.9451 F2500.00
G01 X61.4495 Y57.9486 F2500.00
G01 X61.4545 Y57.9521 F2500.00
G01 X61.4598 Y57.9572 F2500.00
G01 X61.4637 Y57.9620 F2500.00
G01 X61.4669 Y57.9672 F2500.00
G01 X61.4694 Y57.9728 F2500.00
G01 X61.4713 Y57.9787 F2500.00
G01 X61.4724 Y57.9847 F2500.00
G01 X61.4728 Y57.9908 F2500.00
G01 X61.4728 Y63.9908 F2500.00
G01 X61.4724 Y63.9969 F2500.00
G01 X61.4713 Y64.0029 F2500.00
G01 X61.4694 Y64.0088 F2500.00
G01 X61.4669 Y64.0144 F2500.00
G01 X61.4637 Y64.0196 F2500.00
G01 X61.4598 Y64.0244 F2500.00
G01 X61.4555 Y64.0287 F2500.00
G01 X61.4506 Y64.0324 F2500.00
G01 X61.4442 Y64.0360 F2500.00
G01 X61.4373 Y64.0386 F2500.00
G01 X61.4301 Y64.0403 F2500.00
G01 X61.4228 Y64.0408 F2500.00
G01 X58.4228 Y64.0408 F2500.00
G01 X58.4167 Y64.0404 F2500.00
G01 X58.4118 Y64.0396 F2500.00
G01 X58.4037 Y64.0370 F2500.00
G01 X58.3961 Y64.0330 F2500.00
G01 X58.3892 Y64.0278 F2500.00
G01 X58.3841 Y64.0225 F2500.00
G01 X58.3793 Y64.0154 F2500.00
G01 X58.3762 Y64.0088 F2500.00
G01 X58.3738 Y64.0006 F2500.00
G01 X58.3729 Y63.9933 F2500.00
G01 X58.3728 Y63.3190 F2500.00
G01 X55.2310 Y66.4607 F2500.00
G01 X55.1899 Y66.4977 F2500.00
G01 X55.1485 Y66.5283 F2500.00
G01 X55.1043 Y66.5549 F2500.00
G01 X55.0534 Y66.5792 F2500.00
G01 X55.0036 Y66.5970 F2500.00
G01 X54.9477 Y66.6109 F2500.00
G01 X54.8967 Y66.6184 F2500.00
G01 X54.8428 Y66.6210 F2500.00
G01 X48.4279 Y66.6210 F2500.00
G01 X48.4278 Y80.6889 F2500.00
G01 X48.4495 Y80.7051 F2500.00
G01 X48.5149 Y80.7645 F2500.00
G01 X48.5733 Y80.8290 F2500.00
G01 X48.6252 Y80.8990 F2500.00
G01 X48.6724 Y80.9779 F2500.00
G01 X48.7091 Y81.0556 F2500.00
G01 X48.7384 Y81.1375 F2500.00
G01 X48.7607 Y81.2268 F2500.00
G01 X48.7733 Y81.3118 F2500.00
G01 X48.7776 Y81.4000 F2500.00
G01 X48.7730 Y81.4907 F2500.00
G01 X48.7603 Y81.5756 F2500.00
G01 X48.7388 Y81.6613 F2500.00
G01 X48.7091 Y81.7444 F2500.00
G01 X48.6713 Y81.8243 F2500.00
G01 X48.6259 Y81.9000 F2500.00
G01 X48.5748 Y81.9690 F2500.00
G01 X48.5122 Y82.0381 F2500.00
G01 X48.4486 Y82.0957 F2500.00
G01 X48.3776 Y82.1483 F2500.00
G01 X48.3019 Y82.1937 F2500.00
G01 X48.2243 Y82.2305 F2500.00
G01 X48.1365 Y82.2619 F2500.00
G01 X48.0532 Y82.2827 F2500.00
G01 X47.9658 Y82.2957 F2500.00
G01 X47.8776 Y82.3000 F2500.00
G01 X47.7906 Y82.2958 F2500.00
G01 X47.7020 Y82.2827 F2500.00
G01 X47.6163 Y82.2612 F2500.00
G01 X47.5332 Y82.2315 F2500.00
G01 X47.4533 Y82.1937 F2500.00
G01 X47.3776 Y82.1483 F2500.00
G01 X47.3066 Y82.0957 F2500.00
G01 X47.2412 Y82.0364 F2500.00
G01 X47.1819 Y81.9710 F2500.00
G01 X47.1293 Y81.9000 F2500.00
G01 X47.0839 Y81.8243 F2500.00
G01 X47.0461 Y81.7444 F2500.00
G01 X47.0163 Y81.6612 F2500.00
G01 X46.9949 Y81.5756 F2500.00
G01 X46.9819 Y81.4882 F2500.00
G01 X46.9776 Y81.4000 F2500.00
G01 X46.9818 Y81.3142 F2500.00
G01 X46.9796 Y81.3583 F2500.00
G01 X43.9128 Y81.3583 F2500.00
G01 X43.9128 Y81.4383 F2500.00
G01 X46.9794 Y81.4383 F2500.00
M5
G00 X46.9863 Y81.5183
G01 F60.00
M03 S50.0
G01 F2500.00
G01 X43.9128 Y81.5183 F2500.00
G01 X43.9128 Y81.5983 F2500.00
G01 X47.0005 Y81.5983 F2500.00
M5
G00 X47.0224 Y81.6783
G01 F60.00
M03 S50.0
G01 F2500.00
G01 X43.9128 Y81.6783 F2500.00
G01 X43.9128 Y81.7583 F2500.00
G01 X47.0526 Y81.7583 F2500.00
M5
G00 X47.0922 Y81.8383
G01 F60.00
M03 S50.0
G01 F2500.00
G01 X43.9128 Y81.8383 F2500.00
G01 X43.9128 Y81.9183 F2500.00
G01 X47.1428 Y81.9183 F2500.00
M5
G00 X47.2066 Y81.9983
G01 F60.00
M03 S50.0
G01 F2500.00
G01 X43.9128 Y81.9983 F2500.00
G01 X43.9128 Y82.0783 F2500.00
G01 X47.2874 Y82.0783 F2500.00
M5
G00 X47.3942 Y82.1583
G01 F60.00
M03 S50.0
G01 F2500.00
G01 X43.9128 Y82.1583 F2500.00
G01 X43.9128 Y82.2383 F2500.00
G01 X47.5522 Y82.2383 F2500.00
M5
G00 X48.2030 Y82.2383
G01 F60.00
M03 S50.0
G01 F2500.00
G01 X50.0922 Y82.2383 F2500.00
M5
G00 X49.9342 Y82.1583
G01 F60.00
M03 S50.0
G01 F2500.00
G01 X48.3610 Y82.1583 F2500.00
M5
G00 X48.4678 Y82.0783
G01 F60.00
M03 S50.0
G01 F2500.00
G01 X49.8274 Y82.0783 F2500.00
M5
G00 X49.7466 Y81.9983
G01 F60.00
M03 S50.0
G01 F2500.00
G01 X48.5486 Y81.9983 F2500.00
M5
G00 X48.6124 Y81.9183
G01 F60.00
M03 S50.0
G01 F2500.00
G01 X49.6828 Y81.9183 F2500.00
M5
G00 X49.6322 Y81.8383
G01 F60.00
M03 S50.0
G01 F2500.00
G01 X48.6630 Y81.8383 F2500.00
M5
G00 X48.7026 Y81.7583
G01 F60.00
M03 S50.0
G01 F2500.00
G01 X49.5926 Y81.7583 F2500.00
M5
G00 X49.5624 Y81.6783
G01 F60.00
M03 S50.0
G01 F2500.00
G01 X48.7328 Y81.6783 F2500.00
M5
G00 X48.7547 Y81.5983
G01 F60.00
M03 S50.0
G01 F2500.00
G01 X49.5405 Y81.5983 F2500.00
M5
G00 X49.5263 Y81.5183
G01 F60.00
M03 S50.0
G01 F2500.00
G01 X48.7689 Y81.5183 F2500.00
M5
G00 X48.7758 Y81.4383
G01 F60.00
M03 S50.0
G01 F2500.00
G01 X49.5194 Y81.4383 F2500.00
M5
G00 X49.5196 Y81.3583
G01 F60.00
M03 S50.0
G01 F2500.00
G01 X48.7756 Y81.3583 F2500.00
M5
G00 X48.7684 Y81.2783
G01 F60.00
M03 S50.0
G01 F2500.00
G01 X49.5268 Y81.2783 F2500.00
M5
G00 X49.5218 Y81.3142
G01 F60.00
M03 S50.0
G01 F2500.00
G01 X49.5349 Y81.2244 F2500.00
G01 X49.5564 Y81.1387 F2500.00
G01 X49.5861 Y81.0556 F2500.00
G01 X49.6239 Y80.9757 F2500.00
G01 X49.6693 Y80.9000 F2500.00
G01 X49.7219 Y80.8290 F2500.00
G01 X49.7812 Y80.7636 F2500.00
G01 X49.8466 Y80.7043 F2500.00
G01 X49.9176 Y80.6517 F2500.00
G01 X49.9933 Y80.6063 F2500.00
G01 X50.0732 Y80.5685 F2500.00
G01 X50.1563 Y80.5388 F2500.00
G01 X50.2420 Y80.5173 F2500.00
G01 X50.3294 Y80.5043 F2500.00
G01 X50.4176 Y80.5000 F2500.00
G01 X50.5058 Y80.5043 F2500.00
G01 X50.5932 Y80.5173 F2500.00
G01 X50.6789 Y80.5388 F2500.00
G01 X50.7620 Y80.5685 F2500.00
G01 X50.8419 Y80.6063 F2500.00
G01 X50.9176 Y80.6517 F2500.00
G01 X50.9886 Y80.7043 F2500.00
G01 X51.0540 Y80.7636 F2500.00
G01 X51.1133 Y80.8290 F2500.00
G01 X51.1659 Y80.9000 F2500.00
G01 X51.2113 Y80.9757 F2500.00
G01 X51.2491 Y81.0556 F2500.00
G01 X51.2789 Y81.1388 F2500.00
G01 X51.3003 Y81.2244 F2500.00
G01 X51.3133 Y81.3118 F2500.00
G01 X51.3176 Y81.4000 F2500.00
G01 X51.3133 Y81.4882 F2500.00
G01 X51.3003 Y81.5756 F2500.00
G01 X51.2788 Y81.6613 F2500.00
G01 X51.2491 Y81.7444 F2500.00
G01 X51.2113 Y81.8243 F2500.00
G01 X51.1659 Y81.9000 F2500.00
G01 X51.1133 Y81.9710 F2500.00
G01 X51.0540 Y82.0364 F2500.00
G01 X50.9886 Y82.0957 F2500.00
G01 X50.9176 Y82.1483 F2500.00
G01 X50.8419 Y82.1937 F2500.00
G01 X50.7620 Y82.2315 F2500.00
G01 X50.6789 Y82.2612 F2500.00
G01 X50.5932 Y82.2827 F2500.00
G01 X50.5058 Y82.2957 F2500.00
G01 X50.4176 Y82.3000 F2500.00
G01 X50.3294 Y82.2957 F2500.00
G01 X50.2420 Y82.2827 F2500.00
G01 X50.1563 Y82.2612 F2500.00
G01 X50.0732 Y82.2315 F2500.00
G01 X49.9933 Y82.1937 F2500.00
G01 X49.9176 Y82.1483 F2500.00
G01 X49.8466 Y82.0957 F2500.00
G01 X49.7812 Y82.0364 F2500.00
G01 X49.7219 Y81.9710 F2500.00
G01 X49.6693 Y81.9000 F2500.00
G01 X49.6239 Y81.8243 F2500.00
G01 X49.5861 Y81.7444 F2500.00
G01 X49.5563 Y81.6612 F2500.00
G01 X49.5349 Y81.5756 F2500.00
G01 X49.5219 Y81.4882 F2500.00
G01 X49.5176 Y81.4000 F2500.00
G01 X49.5218 Y81.3142 F2500.00
M5
G00 X49.5414 Y81.1983
G01 F60.00
M03 S50.0
G01 F2500.00
G01 X48.7538 Y81.1983 F2500.00
M5
G00 X48.7316 Y81.1183
G01 F60.00
M03 S50.0
G01 F2500.00
G01 X49.5636 Y81.1183 F2500.00
M5
G00 X49.5942 Y81.0383
G01 F60.00
M03 S50.0
G01 F2500.00
G01 X48.7010 Y81.0383 F2500.00
M5
G00 X48.6610 Y80.9583
G01 F60.00
M03 S50.0
G01 F2500.00
G01 X49.6342 Y80.9583 F2500.00
M5
G00 X49.6852 Y80.8783
G01 F60.00
M03 S50.0
G01 F2500.00
G01 X48.6100 Y80.8783 F2500.00
M5
G00 X48.5456 Y80.7983
G01 F60.00
M03 S50.0
G01 F2500.00
G01 X49.7496 Y80.7983 F2500.00
M5
G00 X49.8310 Y80.7183
G01 F60.00
M03 S50.0
G01 F2500.00
G01 X48.4642 Y80.7183 F2500.00
G01 X48.4278 Y80.6383 F2500.00
G01 X49.9397 Y80.6383 F2500.00
M5
G00 X50.1014 Y80.5583
G01 F60.00
M03 S50.0
G01 F2500.00
G01 X48.4278 Y80.5583 F2500.00
G01 X48.4278 Y80.4783 F2500.00
G01 X52.4073 Y80.4783 F2500.00
G01 X52.4073 Y80.5583 F2500.00
G01 X50.7338 Y80.5583 F2500.00
M5
G00 X50.8955 Y80.6383
G01 F60.00
M03 S50.0
G01 F2500.00
G01 X52.4073 Y80.6383 F2500.00
G01 X52.3710 Y80.7183 F2500.00
G01 X51.0042 Y80.7183 F2500.00
M5
G00 X51.0856 Y80.7983
G01 F60.00
M03 S50.0
G01 F2500.00
G01 X52.2896 Y80.7983 F2500.00
M5
G00 X52.2252 Y80.8783
G01 F60.00
M03 S50.0
G01 F2500.00
G01 X51.1500 Y80.8783 F2500.00
M5
G00 X51.2010 Y80.9583
G01 F60.00
M03 S50.0
G01 F2500.00
G01 X52.1742 Y80.9583 F2500.00
M5
G00 X52.1342 Y81.0383
G01 F60.00
M03 S50.0
G01 F2500.00
G01 X51.2410 Y81.0383 F2500.00
M5
G00 X51.2716 Y81.1183
G01 F60.00
M03 S50.0
G01 F2500.00
G01 X52.1036 Y81.1183 F2500.00
M5
G00 X52.0814 Y81.1983
G01 F60.00
M03 S50.0
G01 F2500.00
G01 X51.2938 Y81.1983 F2500.00
M5
G00 X51.3084 Y81.2783
G01 F60.00
M03 S50.0
G01 F2500.00
G01 X52.0668 Y81.2783 F2500.00
M5
G00 X52.0596 Y81.3583
G01 F60.00
M03 S50.0
G01 F2500.00
G01 X51.3156 Y81.3583 F2500.00
M5
G00 X51.3158 Y81.4383
G01 F60.00
M03 S50.0
G01 F2500.00
G01 X52.0594 Y81.4383 F2500.00
M5
G00 X52.0663 Y81.5183
G01 F60.00
M03 S50.0
G01 F2500.00
G01 X51.3089 Y81.5183 F2500.00
M5
G00 X51.2947 Y81.5983
G01 F60.00
M03 S50.0
G01 F2500.00
G01 X52.0805 Y81.5983 F2500.00
M5
G00 X52.1024 Y81.6783
G01 F60.00
M03 S50.0
G01 F2500.00
G01 X51.2728 Y81.6783 F2500.00
M5
G00 X51.2426 Y81.7583
G01 F60.00
M03 S50.0
G01 F2500.00
G01 X52.1326 Y81.7583 F2500.00
M5
G00 X52.1722 Y81.8383
G01 F60.00
M03 S50.0
G01 F2500.00
G01 X51.2030 Y81.8383 F2500.00
M5
G00 X51.1524 Y81.9183
G01 F60.00
M03 S50.0
G01 F2500.00
G01 X52.2228 Y81.9183 F2500.00
M5
G00 X52.2866 Y81.9983
G01 F60.00
M03 S50.0
G01 F2500.00
G01 X51.0886 Y81.9983 F2500.00
M5
G00 X51.0078 Y82.0783
G01 F60.00
M03 S50.0
G01 F2500.00
G01 X52.3674 Y82.0783 F2500.00
M5
G00 X52.4742 Y82.1583
G01 F60.00
M03 S50.0
G01 F2500.00
G01 X50.9010 Y82.1583 F2500.00
M5
G00 X50.7430 Y82.2383
G01 F60.00
M03 S50.0
G01 F2500.00
G01 X52.6322 Y82.2383 F2500.00
M5
G00 X53.2830 Y82.2383
G01 F60.00
M03 S50.0
G01 F2500.00
G01 X55.1722 Y82.2383 F2500.00
M5
G00 X55.0142 Y82.1583
G01 F60.00
M03 S50.0
G01 F2500.00
G01 X53.4410 Y82.1583 F2500.00
M5
G00 X53.5478 Y82.0783
G01 F60.00
M03 S50.0
G01 F2500.00
G01 X54.9074 Y82.0783 F2500.00
M5
G00 X54.8266 Y81.9983
G01 F60.00
M03 S50.0
G01 F2500.00
G01 X53.6286 Y81.9983 F2500.00
M5
G00 X53.6924 Y81.9183
G01 F60.00
M03 S50.0
G01 F2500.00
G01 X54.7628 Y81.9183 F2500.00
M5
G00 X54.7122 Y81.8383
G01 F60.00
M03 S50.0
G01 F2500.00
G01 X53.7430 Y81.8383 F2500.00
M5
G00 X53.7826 Y81.7583
G01 F60.00
M03 S50.0
G01 F2500.00
G01 X54.6726 Y81.7583 F2500.00
M5
G00 X54.6424 Y81.6783
G01 F60.00
M03 S50.0
G01 F2500.00
G01 X53.8128 Y81.6783 F2500.00
M5
G00 X53.8347 Y81.5983
G01 F60.00
M03 S50.0
G01 F2500.00
G01 X54.6205 Y81.5983 F2500.00
M5
G00 X54.6063 Y81.5183
G01 F60.00
M03 S50.0
G01 F2500.00
G01 X53.8489 Y81.5183 F2500.00
M5
G00 X53.8558 Y81.4383
G01 F60.00
M03 S50.0
G01 F2500.00
G01 X54.5994 Y81.4383 F2500.00
M5
G00 X54.5996 Y81.3583
G01 F60.00
M03 S50.0
G01 F2500.00
G01 X53.8556 Y81.3583 F2500.00
M5
G00 X53.8484 Y81.2783
G01 F60.00
M03 S50.0
G01 F2500.00
G01 X54.6068 Y81.2783 F2500.00
M5
G00 X54.6214 Y81.1983
G01 F60.00
M03 S50.0
G01 F2500.00
G01 X53.8338 Y81.1983 F2500.00
M5
G00 X53.8116 Y81.1183
G01 F60.00
M03 S50.0
G01 F2500.00
G01 X54.6436 Y81.1183 F2500.00
M5
G00 X54.6742 Y81.0383
G01 F60.00
M03 S50.0
G01 F2500.00
G01 X53.7810 Y81.0383 F2500.00
M5
G00 X53.7410 Y80.9583
G01 F60.00
M03 S50.0
G01 F2500.00
G01 X54.7142 Y80.9583 F2500.00
M5
G00 X54.7652 Y80.8783
G01 F60.00
M03 S50.0
G01 F2500.00
G01 X53.6900 Y80.8783 F2500.00
M5
G00 X53.6256 Y80.7983
G01 F60.00
M03 S50.0
G01 F2500.00
G01 X54.8296 Y80.7983 F2500.00
M5
G00 X54.9110 Y80.7183
G01 F60.00
M03 S50.0
G01 F2500.00
G01 X53.5442 Y80.7183 F2500.00
G01 X53.5078 Y80.6383 F2500.00
G01 X54.9473 Y80.6383 F2500.00
G01 X54.9473 Y80.5583 F2500.00
G01 X53.5078 Y80.5583 F2500.00
G01 X53.5078 Y80.4783 F2500.00
G01 X54.9473 Y80.4783 F2500.00
G01 X54.9473 Y80.3983 F2500.00
G01 X53.5078 Y80.3983 F2500.00
G01 X53.5078 Y80.3183 F2500.00
G01 X54.9473 Y80.3183 F2500.00
G01 X54.9473 Y80.2383 F2500.00
G01 X53.5078 Y80.2383 F2500.00
G01 X53.5078 Y80.1583 F2500.00
G01 X54.9473 Y80.1583 F2500.00
G01 X54.9473 Y80.0783 F2500.00
G01 X53.5078 Y80.0783 F2500.00
G01 X53.5078 Y79.9983 F2500.00
G01 X54.9473 Y79.9983 F2500.00
G01 X54.9473 Y79.9183 F2500.00
G01 X53.5078 Y79.9183 F2500.00
G01 X53.5078 Y79.8383 F2500.00
G01 X54.9473 Y79.8383 F2500.00
G01 X54.9473 Y79.7583 F2500.00
G01 X53.5079 Y79.7583 F2500.00
G01 X53.5079 Y79.6783 F2500.00
G01 X54.9473 Y79.6783 F2500.00
G01 X54.9473 Y79.5983 F2500.00
G01 X53.5079 Y79.5983 F2500.00
G01 X53.5079 Y79.5183 F2500.00
G01 X54.9473 Y79.5183 F2500.00
G01 X54.9473 Y79.4383 F2500.00
G01 X53.5079 Y79.4383 F2500.00
M5
G00 X53.7265 Y79.3583
G01 F60.00
M03 S50.0
G01 F2500.00
G01 X54.7287 Y79.3583 F2500.00
M5
G00 X54.6353 Y79.2783
G01 F60.00
M03 S50.0
G01 F2500.00
G01 X53.8199 Y79.2783 F2500.00
M5
G00 X53.8640 Y79.1983
G01 F60.00
M03 S50.0
G01 F2500.00
G01 X54.5912 Y79.1983 F2500.00
M5
G00 X54.5737 Y79.1183
G01 F60.00
M03 S50.0
G01 F2500.00
G01 X53.8815 Y79.1183 F2500.00
M5
G00 X53.8826 Y79.0383
G01 F60.00
M03 S50.0
G01 F2500.00
G01 X54.5726 Y79.0383 F2500.00
G01 X54.5726 Y78.9583 F2500.00
G01 X53.8826 Y78.9583 F2500.00
G01 X53.8826 Y78.8783 F2500.00
G01 X54.5726 Y78.8783 F2500.00
G01 X54.5726 Y78.7983 F2500.00
G01 X53.8826 Y78.7983 F2500.00
G01 X53.8826 Y78.7183 F2500.00
G01 X54.5726 Y78.7183 F2500.00
G01 X54.5726 Y78.6383 F2500.00
G01 X53.8826 Y78.6383 F2500.00
G01 X53.8826 Y78.5583 F2500.00
G01 X54.5726 Y78.5583 F2500.00
G01 X54.5726 Y78.4783 F2500.00
G01 X53.8826 Y78.4783 F2500.00
G01 X53.8826 Y78.3983 F2500.00
G01 X54.5726 Y78.3983 F2500.00
G01 X54.5726 Y78.3183 F2500.00
G01 X53.8826 Y78.3183 F2500.00
M5
G00 X53.8771 Y78.2383
G01 F60.00
M03 S50.0
G01 F2500.00
G01 X54.5781 Y78.2383 F2500.00
M5
G00 X54.5739 Y78.2682
G01 F60.00
M03 S50.0
G01 F2500.00
G01 X54.5784 Y78.2367 F2500.00
G01 X54.5855 Y78.2081 F2500.00
G01 X54.5954 Y78.1804 F2500.00
G01 X54.6069 Y78.1560 F2500.00
G01 X54.6232 Y78.1285 F2500.00
G01 X54.6392 Y78.1068 F2500.00
G01 X54.6622 Y78.0814 F2500.00
G01 X54.6823 Y78.0633 F2500.00
G01 X54.7059 Y78.0458 F2500.00
G01 X54.7312 Y78.0306 F2500.00
G01 X54.7578 Y78.0180 F2500.00
G01 X54.7856 Y78.0081 F2500.00
G01 X54.8141 Y78.0010 F2500.00
G01 X54.8432 Y77.9966 F2500.00
G01 X54.8714 Y77.9952 F2500.00
G01 X56.1226 Y77.9952 F2500.00
G01 X56.1544 Y77.9969 F2500.00
G01 X56.1811 Y78.0010 F2500.00
G01 X56.2073 Y78.0075 F2500.00
G01 X56.2374 Y78.0180 F2500.00
G01 X56.2640 Y78.0306 F2500.00
G01 X56.2872 Y78.0444 F2500.00
G01 X56.3129 Y78.0633 F2500.00
G01 X56.3347 Y78.0831 F2500.00
G01 X56.3529 Y78.1030 F2500.00
G01 X56.3720 Y78.1285 F2500.00
G01 X56.3883 Y78.1560 F2500.00
G01 X56.3998 Y78.1804 F2500.00
G01 X56.4097 Y78.2081 F2500.00
G01 X56.4173 Y78.2391 F2500.00
G01 X56.4212 Y78.2658 F2500.00
G01 X56.4226 Y78.2952 F2500.00
G01 X56.4226 Y79.0964 F2500.00
G01 X56.4212 Y79.1246 F2500.00
G01 X56.4173 Y79.1513 F2500.00
G01 X56.4097 Y79.1823 F2500.00
G01 X56.3998 Y79.2100 F2500.00
G01 X56.3872 Y79.2366 F2500.00
G01 X56.3720 Y79.2619 F2500.00
G01 X56.3545 Y79.2855 F2500.00
G01 X56.3347 Y79.3073 F2500.00
G01 X56.3129 Y79.3271 F2500.00
G01 X56.2893 Y79.3446 F2500.00
G01 X56.2662 Y79.3586 F2500.00
G01 X56.2351 Y79.3732 F2500.00
G01 X56.2097 Y79.3823 F2500.00
G01 X56.1799 Y79.3897 F2500.00
G01 X56.1520 Y79.3938 F2500.00
G01 X56.1251 Y79.3951 F2500.00
G01 X56.0479 Y79.3952 F2500.00
G01 X56.0478 Y80.6889 F2500.00
G01 X56.0695 Y80.7051 F2500.00
G01 X56.1331 Y80.7627 F2500.00
G01 X56.1941 Y80.8300 F2500.00
G01 X56.2459 Y80.9000 F2500.00
G01 X56.2901 Y80.9736 F2500.00
G01 X56.3295 Y81.0567 F2500.00
G01 X56.3588 Y81.1387 F2500.00
G01 X56.3798 Y81.2220 F2500.00
G01 X56.3933 Y81.3118 F2500.00
G01 X56.3975 Y81.4025 F2500.00
G01 X56.3933 Y81.4882 F2500.00
G01 X56.3807 Y81.5732 F2500.00
G01 X56.3588 Y81.6613 F2500.00
G01 X56.3281 Y81.7467 F2500.00
G01 X56.2913 Y81.8243 F2500.00
G01 X56.2472 Y81.8979 F2500.00
G01 X56.1917 Y81.9728 F2500.00
G01 X56.1340 Y82.0364 F2500.00
G01 X56.0704 Y82.0941 F2500.00
G01 X55.9976 Y82.1483 F2500.00
G01 X55.9219 Y82.1937 F2500.00
G01 X55.8443 Y82.2305 F2500.00
G01 X55.7588 Y82.2613 F2500.00
G01 X55.6732 Y82.2827 F2500.00
G01 X55.5858 Y82.2957 F2500.00
G01 X55.4976 Y82.3000 F2500.00
G01 X55.4094 Y82.2957 F2500.00
G01 X55.3220 Y82.2827 F2500.00
G01 X55.2363 Y82.2612 F2500.00
G01 X55.1532 Y82.2315 F2500.00
G01 X55.0733 Y82.1937 F2500.00
G01 X54.9976 Y82.1483 F2500.00
G01 X54.9266 Y82.0957 F2500.00
G01 X54.8612 Y82.0364 F2500.00
G01 X54.8019 Y81.9710 F2500.00
G01 X54.7493 Y81.9000 F2500.00
G01 X54.7039 Y81.8243 F2500.00
G01 X54.6661 Y81.7444 F2500.00
G01 X54.6364 Y81.6613 F2500.00
G01 X54.6145 Y81.5732 F2500.00
G01 X54.6019 Y81.4882 F2500.00
G01 X54.5976 Y81.4000 F2500.00
G01 X54.6019 Y81.3118 F2500.00
G01 X54.6145 Y81.2268 F2500.00
G01 X54.6367 Y81.1376 F2500.00
G01 X54.6661 Y81.0556 F2500.00
G01 X54.7028 Y80.9779 F2500.00
G01 X54.7500 Y80.8990 F2500.00
G01 X54.8019 Y80.8290 F2500.00
G01 X54.8603 Y80.7645 F2500.00
G01 X54.9257 Y80.7051 F2500.00
G01 X54.9473 Y80.6889 F2500.00
G01 X54.9473 Y79.3952 F2500.00
G01 X54.8701 Y79.3951 F2500.00
G01 X54.8432 Y79.3938 F2500.00
G01 X54.8153 Y79.3897 F2500.00
G01 X54.7855 Y79.3823 F2500.00
G01 X54.7601 Y79.3732 F2500.00
G01 X54.7290 Y79.3586 F2500.00
G01 X54.7059 Y79.3446 F2500.00
G01 X54.6823 Y79.3271 F2500.00
G01 X54.6605 Y79.3073 F2500.00
G01 X54.6407 Y79.2855 F2500.00
G01 X54.6232 Y79.2619 F2500.00
G01 X54.6080 Y79.2366 F2500.00
G01 X54.5954 Y79.2100 F2500.00
G01 X54.5859 Y79.1835 F2500.00
G01 X54.5779 Y79.1513 F2500.00
G01 X54.5740 Y79.1246 F2500.00
G01 X54.5726 Y79.0964 F2500.00
G01 X54.5726 Y78.2952 F2500.00
G01 X54.5739 Y78.2682 F2500.00
M5
G00 X54.6058 Y78.1583
G01 F60.00
M03 S50.0
G01 F2500.00
G01 X53.8494 Y78.1583 F2500.00
M5
G00 X53.7896 Y78.0783
G01 F60.00
M03 S50.0
G01 F2500.00
G01 X54.6656 Y78.0783 F2500.00
M5
G00 X54.8313 Y77.9983
G01 F60.00
M03 S50.0
G01 F2500.00
G01 X53.6239 Y77.9983 F2500.00
M5
G00 X52.2913 Y77.9983
G01 F60.00
M03 S50.0
G01 F2500.00
G01 X48.4278 Y77.9983 F2500.00
G01 X48.4278 Y78.0783 F2500.00
G01 X52.1256 Y78.0783 F2500.00
M5
G00 X52.0658 Y78.1583
G01 F60.00
M03 S50.0
G01 F2500.00
G01 X48.4278 Y78.1583 F2500.00
G01 X48.4278 Y78.2383 F2500.00
G01 X52.0381 Y78.2383 F2500.00
M5
G00 X52.0339 Y78.2682
G01 F60.00
M03 S50.0
G01 F2500.00
G01 X52.0384 Y78.2367 F2500.00
G01 X52.0455 Y78.2081 F2500.00
G01 X52.0554 Y78.1804 F2500.00
G01 X52.0669 Y78.1560 F2500.00
G01 X52.0832 Y78.1285 F2500.00
G01 X52.0992 Y78.1068 F2500.00
G01 X52.1222 Y78.0814 F2500.00
G01 X52.1423 Y78.0633 F2500.00
G01 X52.1659 Y78.0458 F2500.00
G01 X52.1912 Y78.0306 F2500.00
G01 X52.2178 Y78.0180 F2500.00
G01 X52.2456 Y78.0081 F2500.00
G01 X52.2741 Y78.0010 F2500.00
G01 X52.3032 Y77.9966 F2500.00
G01 X52.3314 Y77.9952 F2500.00
G01 X53.5826 Y77.9952 F2500.00
G01 X53.6144 Y77.9969 F2500.00
G01 X53.6411 Y78.0010 F2500.00
G01 X53.6673 Y78.0075 F2500.00
G01 X53.6974 Y78.0180 F2500.00
G01 X53.7262 Y78.0318 F2500.00
G01 X53.7493 Y78.0458 F2500.00
G01 X53.7729 Y78.0633 F2500.00
G01 X53.7947 Y78.0831 F2500.00
G01 X53.8129 Y78.1030 F2500.00
G01 X53.8320 Y78.1285 F2500.00
G01 X53.8483 Y78.1560 F2500.00
G01 X53.8598 Y78.1804 F2500.00
G01 X53.8697 Y78.2081 F2500.00
G01 X53.8773 Y78.2391 F2500.00
G01 X53.8812 Y78.2658 F2500.00
G01 X53.8826 Y78.2952 F2500.00
G01 X53.8826 Y79.0964 F2500.00
G01 X53.8812 Y79.1246 F2500.00
G01 X53.8773 Y79.1513 F2500.00
G01 X53.8697 Y79.1823 F2500.00
G01 X53.8598 Y79.2100 F2500.00
G01 X53.8472 Y79.2366 F2500.00
G01 X53.8320 Y79.2619 F2500.00
G01 X53.8145 Y79.2855 F2500.00
G01 X53.7947 Y79.3073 F2500.00
G01 X53.7729 Y79.3271 F2500.00
G01 X53.7493 Y79.3446 F2500.00
G01 X53.7262 Y79.3586 F2500.00
G01 X53.6951 Y79.3732 F2500.00
G01 X53.6697 Y79.3823 F2500.00
G01 X53.6399 Y79.3897 F2500.00
G01 X53.6120 Y79.3938 F2500.00
G01 X53.5851 Y79.3951 F2500.00
G01 X53.5079 Y79.3952 F2500.00
G01 X53.5078 Y80.6889 F2500.00
G01 X53.5295 Y80.7051 F2500.00
G01 X53.5931 Y80.7627 F2500.00
G01 X53.6541 Y80.8300 F2500.00
G01 X53.7059 Y80.9000 F2500.00
G01 X53.7501 Y80.9736 F2500.00
G01 X53.7895 Y81.0567 F2500.00
G01 X53.8188 Y81.1387 F2500.00
G01 X53.8398 Y81.2220 F2500.00
G01 X53.8533 Y81.3118 F2500.00
G01 X53.8575 Y81.4025 F2500.00
G01 X53.8533 Y81.4882 F2500.00
G01 X53.8407 Y81.5732 F2500.00
G01 X53.8188 Y81.6613 F2500.00
G01 X53.7881 Y81.7467 F2500.00
G01 X53.7513 Y81.8243 F2500.00
G01 X53.7072 Y81.8979 F2500.00
G01 X53.6517 Y81.9728 F2500.00
G01 X53.5940 Y82.0364 F2500.00
G01 X53.5304 Y82.0941 F2500.00
G01 X53.4576 Y82.1483 F2500.00
G01 X53.3819 Y82.1937 F2500.00
G01 X53.3043 Y82.2305 F2500.00
G01 X53.2188 Y82.2613 F2500.00
G01 X53.1332 Y82.2827 F2500.00
G01 X53.0458 Y82.2957 F2500.00
G01 X52.9576 Y82.3000 F2500.00
G01 X52.8694 Y82.2957 F2500.00
G01 X52.7820 Y82.2827 F2500.00
G01 X52.6963 Y82.2612 F2500.00
G01 X52.6132 Y82.2315 F2500.00
G01 X52.5333 Y82.1937 F2500.00
G01 X52.4576 Y82.1483 F2500.00
G01 X52.3866 Y82.0957 F2500.00
G01 X52.3212 Y82.0364 F2500.00
G01 X52.2619 Y81.9710 F2500.00
G01 X52.2093 Y81.9000 F2500.00
G01 X52.1639 Y81.8243 F2500.00
G01 X52.1261 Y81.7444 F2500.00
G01 X52.0964 Y81.6613 F2500.00
G01 X52.0745 Y81.5732 F2500.00
G01 X52.0619 Y81.4882 F2500.00
G01 X52.0576 Y81.4000 F2500.00
G01 X52.0619 Y81.3118 F2500.00
G01 X52.0745 Y81.2268 F2500.00
G01 X52.0967 Y81.1376 F2500.00
G01 X52.1261 Y81.0556 F2500.00
G01 X52.1628 Y80.9779 F2500.00
G01 X52.2100 Y80.8990 F2500.00
G01 X52.2619 Y80.8290 F2500.00
G01 X52.3203 Y80.7645 F2500.00
G01 X52.3857 Y80.7051 F2500.00
G01 X52.4073 Y80.6889 F2500.00
G01 X52.4073 Y79.3952 F2500.00
G01 X52.3301 Y79.3951 F2500.00
G01 X52.3032 Y79.3938 F2500.00
G01 X52.2753 Y79.3897 F2500.00
G01 X52.2455 Y79.3823 F2500.00
G01 X52.2201 Y79.3732 F2500.00
G01 X52.1890 Y79.3586 F2500.00
G01 X52.1659 Y79.3446 F2500.00
G01 X52.1423 Y79.3271 F2500.00
G01 X52.1205 Y79.3073 F2500.00
G01 X52.1007 Y79.2855 F2500.00
G01 X52.0832 Y79.2619 F2500.00
G01 X52.0680 Y79.2366 F2500.00
G01 X52.0554 Y79.2100 F2500.00
G01 X52.0459 Y79.1835 F2500.00
G01 X52.0379 Y79.1513 F2500.00
G01 X52.0340 Y79.1246 F2500.00
G01 X52.0326 Y79.0964 F2500.00
G01 X52.0326 Y78.2952 F2500.00
G01 X52.0339 Y78.2682 F2500.00
M5
G00 X52.0326 Y78.3183
G01 F60.00
M03 S50.0
G01 F2500.00
G01 X48.4278 Y78.3183 F2500.00
G01 X48.4278 Y78.3983 F2500.00
G01 X52.0326 Y78.3983 F2500.00
G01 X52.0326 Y78.4783 F2500.00
G01 X48.4278 Y78.4783 F2500.00
G01 X48.4278 Y78.5583 F2500.00
G01 X52.0326 Y78.5583 F2500.00
G01 X52.0326 Y78.6383 F2500.00
G01 X48.4278 Y78.6383 F2500.00
G01 X48.4278 Y78.7183 F2500.00
G01 X52.0326 Y78.7183 F2500.00
G01 X52.0326 Y78.7983 F2500.00
G01 X48.4278 Y78.7983 F2500.00
G01 X48.4278 Y78.8783 F2500.00
G01 X52.0326 Y78.8783 F2500.00
G01 X52.0326 Y78.9583 F2500.00
G01 X48.4278 Y78.9583 F2500.00
G01 X48.4278 Y79.0383 F2500.00
G01 X52.0326 Y79.0383 F2500.00
M5
G00 X52.0337 Y79.1183
G01 F60.00
M03 S50.0
G01 F2500.00
G01 X48.4278 Y79.1183 F2500.00
G01 X48.4278 Y79.1983 F2500.00
G01 X52.0512 Y79.1983 F2500.00
M5
G00 X52.0953 Y79.2783
G01 F60.00
M03 S50.0
G01 F2500.00
G01 X48.4278 Y79.2783 F2500.00
G01 X48.4278 Y79.3583 F2500.00
G01 X52.1887 Y79.3583 F2500.00
M5
G00 X52.4073 Y79.4383
G01 F60.00
M03 S50.0
G01 F2500.00
G01 X48.4278 Y79.4383 F2500.00
G01 X48.4278 Y79.5183 F2500.00
G01 X52.4073 Y79.5183 F2500.00
G01 X52.4073 Y79.5983 F2500.00
G01 X48.4278 Y79.5983 F2500.00
G01 X48.4278 Y79.6783 F2500.00
G01 X52.4073 Y79.6783 F2500.00
G01 X52.4073 Y79.7583 F2500.00
G01 X48.4278 Y79.7583 F2500.00
G01 X48.4278 Y79.8383 F2500.00
G01 X52.4073 Y79.8383 F2500.00
G01 X52.4073 Y79.9183 F2500.00
G01 X48.4278 Y79.9183 F2500.00
G01 X48.4278 Y79.9983 F2500.00
G01 X52.4073 Y79.9983 F2500.00
G01 X52.4073 Y80.0783 F2500.00
G01 X48.4278 Y80.0783 F2500.00
G01 X48.4278 Y80.1583 F2500.00
G01 X52.4073 Y80.1583 F2500.00
G01 X52.4073 Y80.2383 F2500.00
G01 X48.4278 Y80.2383 F2500.00
G01 X48.4278 Y80.3183 F2500.00
G01 X52.4073 Y80.3183 F2500.00
G01 X52.4073 Y80.3983 F2500.00
G01 X48.4278 Y80.3983 F2500.00
M5
G00 X48.4278 Y77.9183
G01 F60.00
M03 S50.0
G01 F2500.00
G01 X66.0763 Y77.9183 F2500.00
M5
G00 X66.0725 Y77.8383
G01 F60.00
M03 S50.0
G01 F2500.00
G01 X48.4278 Y77.8383 F2500.00
G01 X48.4278 Y77.7583 F2500.00
G01 X66.0725 Y77.7583 F2500.00
G01 X66.0725 Y77.6783 F2500.00
G01 X48.4278 Y77.6783 F2500.00
G01 X48.4278 Y77.5983 F2500.00
G01 X66.0725 Y77.5983 F2500.00
G01 X66.0725 Y77.5183 F2500.00
G01 X48.4278 Y77.5183 F2500.00
G01 X48.4278 Y77.4383 F2500.00
G01 X66.0725 Y77.4383 F2500.00
G01 X66.0725 Y77.3583 F2500.00
G01 X48.4278 Y77.3583 F2500.00
G01 X48.4278 Y77.2783 F2500.00
G01 X66.0725 Y77.2783 F2500.00
G01 X66.0725 Y77.1983 F2500.00
G01 X48.4278 Y77.1983 F2500.00
G01 X48.4278 Y77.1183 F2500.00
G01 X66.0725 Y77.1183 F2500.00
G01 X66.0725 Y77.0383 F2500.00
G01 X48.4278 Y77.0383 F2500.00
G01 X48.4278 Y76.9583 F2500.00
G01 X66.0725 Y76.9583 F2500.00
G01 X66.0725 Y76.8783 F2500.00
G01 X48.4278 Y76.8783 F2500.00
G01 X48.4278 Y76.7983 F2500.00
G01 X66.0725 Y76.7983 F2500.00
G01 X66.0725 Y76.7183 F2500.00
G01 X48.4278 Y76.7183 F2500.00
G01 X48.4278 Y76.6383 F2500.00
G01 X66.0725 Y76.6383 F2500.00
G01 X66.0725 Y76.5583 F2500.00
G01 X48.4278 Y76.5583 F2500.00
G01 X48.4278 Y76.4783 F2500.00
G01 X66.0725 Y76.4783 F2500.00
G01 X66.0725 Y76.3983 F2500.00
G01 X48.4278 Y76.3983 F2500.00
G01 X48.4278 Y76.3183 F2500.00
G01 X66.0725 Y76.3183 F2500.00
G01 X66.0725 Y76.2383 F2500.00
G01 X58.8379 Y76.2383 F2500.00
M5
G00 X58.9142 Y76.1583
G01 F60.00
M03 S50.0
G01 F2500.00
G01 X66.0725 Y76.1583 F2500.00
G01 X66.0725 Y76.0783 F2500.00
G01 X58.9507 Y76.0783 F2500.00
M5
G00 X58.9625 Y75.9983
G01 F60.00
M03 S50.0
G01 F2500.00
G01 X66.0725 Y75.9983 F2500.00
G01 X66.0725 Y75.9183 F2500.00
G01 X58.9626 Y75.9183 F2500.00
G01 X58.9626 Y75.8383 F2500.00
G01 X66.0725 Y75.8383 F2500.00
G01 X66.0725 Y75.7583 F2500.00
G01 X58.9626 Y75.7583 F2500.00
G01 X58.9626 Y75.6783 F2500.00
G01 X66.0725 Y75.6783 F2500.00
G01 X66.0725 Y75.5983 F2500.00
G01 X58.9626 Y75.5983 F2500.00
G01 X58.9626 Y75.5183 F2500.00
G01 X66.0725 Y75.5183 F2500.00
G01 X66.0725 Y75.4383 F2500.00
G01 X58.9626 Y75.4383 F2500.00
G01 X58.9626 Y75.3583 F2500.00
G01 X66.0725 Y75.3583 F2500.00
G01 X66.0725 Y75.2783 F2500.00
G01 X58.9626 Y75.2783 F2500.00
G01 X58.9626 Y75.1983 F2500.00
G01 X66.0725 Y75.1983 F2500.00
G01 X66.0725 Y75.1183 F2500.00
G01 X58.9523 Y75.1183 F2500.00
M5
G00 X58.9180 Y75.0383
G01 F60.00
M03 S50.0
G01 F2500.00
G01 X66.0725 Y75.0383 F2500.00
G01 X66.0725 Y74.9583 F2500.00
G01 X58.8463 Y74.9583 F2500.00
M5
G00 X58.5878 Y74.8783
G01 F60.00
M03 S50.0
G01 F2500.00
G01 X66.0725 Y74.8783 F2500.00
G01 X66.0725 Y74.7983 F2500.00
G01 X58.5878 Y74.7983 F2500.00
G01 X58.5878 Y74.7183 F2500.00
G01 X66.0725 Y74.7183 F2500.00
G01 X66.0725 Y74.6383 F2500.00
G01 X58.5878 Y74.6383 F2500.00
G01 X58.5878 Y74.5583 F2500.00
G01 X66.0725 Y74.5583 F2500.00
G01 X66.0725 Y74.4783 F2500.00
G01 X58.5878 Y74.4783 F2500.00
G01 X58.5878 Y74.3983 F2500.00
G01 X66.0725 Y74.3983 F2500.00
G01 X66.0725 Y74.3183 F2500.00
G01 X58.5878 Y74.3183 F2500.00
G01 X58.5878 Y74.2383 F2500.00
G01 X66.0725 Y74.2383 F2500.00
G01 X66.0725 Y74.1583 F2500.00
G01 X58.5878 Y74.1583 F2500.00
G01 X58.5878 Y74.0783 F2500.00
G01 X66.0725 Y74.0783 F2500.00
G01 X66.0725 Y73.9983 F2500.00
G01 X58.5878 Y73.9983 F2500.00
G01 X58.5879 Y73.9183 F2500.00
G01 X66.0725 Y73.9183 F2500.00
G01 X66.0725 Y73.8383 F2500.00
G01 X58.5879 Y73.8383 F2500.00
G01 X58.5879 Y73.7583 F2500.00
G01 X66.0725 Y73.7583 F2500.00
G01 X66.0725 Y73.6783 F2500.00
G01 X58.5879 Y73.6783 F2500.00
G01 X58.5879 Y73.5983 F2500.00
G01 X66.0725 Y73.5983 F2500.00
G01 X66.0725 Y73.5183 F2500.00
G01 X58.8432 Y73.5183 F2500.00
M5
G00 X58.9166 Y73.4383
G01 F60.00
M03 S50.0
G01 F2500.00
G01 X66.0725 Y73.4383 F2500.00
G01 X66.0725 Y73.3583 F2500.00
G01 X58.9517 Y73.3583 F2500.00
M5
G00 X58.9626 Y73.2783
G01 F60.00
M03 S50.0
